;FLAVOR:Marlin
;TIME:19709
;Filament used: 22.3746m
;Layer height: 0.2
;MINX:43.739
;MINY:62.21
;MINZ:0.2
;MAXX:192.691
;MAXY:122.391
;MAXZ:102.4
;Generated with Cura_SteamEngine 4.8.0
M140 S65
M105
M190 S65
M104 S215
M105
M109 S215
M82 ;absolute extrusion mode
; Ender 3 Custom Start G-code
G92 E0 ; Reset Extruder
G28 ; Home all axes
G1 Z2.0 F3000 ; Move Z Axis up little to prevent scratching of Heat Bed
G1 X0.1 Y20 Z0.3 F5000.0 ; Move to start position
G1 X0.1 Y200.0 Z0.3 F1500.0 E15 ; Draw the first line
G1 X0.4 Y200.0 Z0.3 F5000.0 ; Move to side a little
G1 X0.4 Y20 Z0.3 F1500.0 E30 ; Draw the second line
G92 E0 ; Reset Extruder
G1 Z2.0 F3000 ; Move Z Axis up little to prevent scratching of Heat Bed
G1 X5 Y20 Z0.3 F5000.0 ; Move over to prevent blob squish
G92 E0
G92 E0
G1 F1500 E-6.5
;LAYER_COUNT:512
;LAYER:0
M107
G0 F6000 X89.823 Y66.874 Z0.2
;TYPE:SKIRT
G1 F1500 E0
G1 F1200 X90.357 Y66.224 E0.02798
G1 X90.983 Y65.526 E0.05916
G1 X91.667 Y64.884 E0.09036
G1 X92.404 Y64.303 E0.12158
G1 X93.187 Y63.787 E0.15277
G1 X94.011 Y63.339 E0.18396
G1 X94.87 Y62.963 E0.21515
G1 X95.758 Y62.662 E0.24634
G1 X96.669 Y62.437 E0.27755
G1 X97.595 Y62.291 E0.30873
G1 X98.492 Y62.226 E0.33864
G1 X98.938 Y62.214 E0.35348
G1 X99.327 Y62.21 E0.36642
G1 X115.566 Y62.21 E0.90653
G1 X116.425 Y62.221 E0.9351
G1 X117.361 Y62.274 E0.96628
G1 X118.289 Y62.407 E0.99746
G1 X119.203 Y62.619 E1.02867
G1 X120.096 Y62.907 E1.05988
G1 X120.96 Y63.271 E1.09106
G1 X121.791 Y63.707 E1.12227
G1 X122.581 Y64.212 E1.15346
G1 X123.325 Y64.782 E1.18463
G1 X124.018 Y65.414 E1.21583
G1 X124.616 Y66.056 E1.24501
G1 X124.737 Y66.197 E1.25119
G1 X124.913 Y66.408 E1.26033
G1 X125.175 Y66.731 E1.27416
G1 X135.399 Y79.552 E1.81957
G1 X135.822 Y80.097 E1.84252
G1 X136.365 Y80.862 E1.87372
G1 X136.84 Y81.67 E1.90489
G1 X137.246 Y82.516 E1.9361
G1 X137.577 Y83.393 E1.96728
G1 X137.833 Y84.296 E1.9985
G1 X138.011 Y85.217 E2.0297
G1 X138.11 Y86.149 E2.06087
G1 X138.129 Y87.087 E2.09208
G1 X138.068 Y88.023 E2.12327
G1 X137.953 Y88.816 E2.14993
G1 X137.924 Y88.975 E2.1553
G1 X137.853 Y89.334 E2.16747
G1 X137.758 Y89.766 E2.18218
G1 X134.104 Y105.771 E2.72821
G1 X133.939 Y106.445 E2.75129
G1 X133.678 Y107.345 E2.78246
G1 X133.34 Y108.22 E2.81366
G1 X132.93 Y109.063 E2.84483
G1 X132.449 Y109.869 E2.87605
G1 X131.901 Y110.63 E2.90724
G1 X131.29 Y111.342 E2.93845
G1 X130.621 Y111.999 E2.96963
G1 X129.898 Y112.596 E3.00082
G1 X129.127 Y113.13 E3.03201
G1 X128.423 Y113.54 E3.05911
G1 X128.252 Y113.631 E3.06555
G1 X127.937 Y113.791 E3.0773
G1 X127.618 Y113.948 E3.08913
G1 X112.838 Y121.066 E3.63475
G1 X112.19 Y121.367 E3.65852
G1 X111.323 Y121.726 E3.68973
G1 X110.429 Y122.009 E3.72092
G1 X109.514 Y122.215 E3.75211
G1 X108.585 Y122.343 E3.7833
G1 X107.649 Y122.391 E3.81447
G1 X106.711 Y122.359 E3.84569
G1 X105.78 Y122.247 E3.87688
G1 X104.862 Y122.056 E3.90807
G1 X103.963 Y121.788 E3.93927
G1 X103.137 Y121.464 E3.96878
G1 X102.739 Y121.286 E3.98328
G1 X102.301 Y121.08 E3.99938
G1 X87.567 Y113.983 E4.54332
G1 X86.951 Y113.676 E4.56621
G1 X86.131 Y113.222 E4.59738
G1 X85.351 Y112.7 E4.6286
G1 X84.62 Y112.114 E4.65976
G1 X83.94 Y111.467 E4.69098
G1 X83.319 Y110.765 E4.72215
G1 X82.759 Y110.012 E4.75337
G1 X82.266 Y109.215 E4.78454
G1 X81.842 Y108.378 E4.81574
G1 X81.491 Y107.508 E4.84694
G1 X81.228 Y106.658 E4.87654
G1 X81.111 Y106.205 E4.8921
G1 X81.021 Y105.827 E4.90502
G1 X77.375 Y89.845 E5.45024
G1 X77.225 Y89.143 E5.47412
G1 X77.068 Y88.218 E5.50532
G1 X76.991 Y87.283 E5.53653
G1 X76.993 Y86.345 E5.56773
G1 X77.076 Y85.411 E5.59891
G1 X77.237 Y84.487 E5.63011
G1 X77.477 Y83.581 E5.66128
G1 X77.793 Y82.698 E5.69247
G1 X78.184 Y81.845 E5.72368
G1 X78.645 Y81.028 E5.75489
G1 X79.093 Y80.364 E5.78153
G1 X79.206 Y80.209 E5.78791
G1 X79.427 Y79.916 E5.80011
G1 X79.688 Y79.584 E5.81416
G1 X89.823 Y66.874 E6.35484
G0 F6000 X90.135 Y67.123
G1 F1200 X90.665 Y66.478 E6.38261
G1 X91.281 Y65.794 E6.41322
G1 X91.954 Y65.165 E6.44386
G1 X92.679 Y64.598 E6.47447
G1 X93.45 Y64.095 E6.50509
G1 X94.262 Y63.662 E6.5357
G1 X95.109 Y63.3 E6.56634
G1 X95.984 Y63.013 E6.59696
G1 X96.88 Y62.804 E6.62756
G1 X97.792 Y62.672 E6.65821
G1 X98.505 Y62.625 E6.68198
G1 X98.943 Y62.614 E6.69655
G1 X99.327 Y62.61 E6.70933
G1 X115.566 Y62.61 E7.24944
G1 X116.419 Y62.621 E7.27781
G1 X117.338 Y62.674 E7.30843
G1 X118.249 Y62.807 E7.33905
G1 X119.145 Y63.018 E7.36966
G1 X120.02 Y63.306 E7.4003
G1 X120.866 Y63.669 E7.43092
G1 X121.677 Y64.104 E7.46153
G1 X122.448 Y64.608 E7.49217
G1 X123.172 Y65.176 E7.52277
G1 X123.844 Y65.806 E7.55341
G1 X124.312 Y66.317 E7.57646
G1 X124.603 Y66.66 E7.59142
G1 X124.863 Y66.98 E7.60513
G1 X135.083 Y79.798 E8.15038
G1 X135.506 Y80.343 E8.17333
G1 X136.038 Y81.094 E8.20394
G1 X136.503 Y81.888 E8.23454
G1 X136.898 Y82.72 E8.26518
G1 X137.219 Y83.583 E8.2958
G1 X137.463 Y84.471 E8.32643
G1 X137.63 Y85.376 E8.35704
G1 X137.718 Y86.293 E8.38768
G1 X137.725 Y87.213 E8.41828
G1 X137.653 Y88.131 E8.44891
G1 X137.56 Y88.744 E8.46953
G1 X137.531 Y88.903 E8.4749
G1 X137.462 Y89.249 E8.48664
G1 X137.368 Y89.677 E8.50121
G1 X133.716 Y105.676 E9.04703
G1 X133.551 Y106.35 E9.07011
G1 X133.293 Y107.233 E9.10071
G1 X132.96 Y108.092 E9.13135
G1 X132.554 Y108.918 E9.16196
G1 X132.077 Y109.705 E9.19257
G1 X131.534 Y110.449 E9.2232
G1 X130.928 Y111.142 E9.25382
G1 X130.265 Y111.78 E9.28443
G1 X129.548 Y112.359 E9.31508
G1 X128.784 Y112.873 E9.3457
G1 X128.235 Y113.186 E9.36672
G1 X128.064 Y113.277 E9.37317
G1 X127.761 Y113.432 E9.38449
G1 X127.444 Y113.588 E9.39624
G1 X112.67 Y120.703 E9.94164
G1 X112.022 Y121.004 E9.9654
G1 X111.17 Y121.356 E9.99606
G1 X110.292 Y121.632 E10.02667
G1 X109.393 Y121.831 E10.0573
G1 X108.48 Y121.951 E10.08793
G1 X107.561 Y121.991 E10.11852
G1 X106.641 Y121.951 E10.14915
G1 X105.728 Y121.832 E10.17977
G1 X104.829 Y121.634 E10.21039
G1 X103.95 Y121.359 E10.24102
G1 X103.297 Y121.098 E10.26441
G1 X102.909 Y120.924 E10.27855
G1 X102.474 Y120.72 E10.29454
G1 X87.746 Y113.625 E10.83827
G1 X87.13 Y113.318 E10.86116
G1 X86.324 Y112.872 E10.8918
G1 X85.561 Y112.358 E10.9224
G1 X84.845 Y111.779 E10.95302
G1 X84.181 Y111.141 E10.98365
G1 X83.576 Y110.447 E11.01427
G1 X83.033 Y109.703 E11.04491
G1 X82.557 Y108.916 E11.0755
G1 X82.151 Y108.089 E11.10614
G1 X81.818 Y107.231 E11.13675
G1 X81.614 Y106.555 E11.16024
G1 X81.564 Y106.367 E11.16671
G1 X81.5 Y106.112 E11.17545
G1 X81.411 Y105.738 E11.18824
G1 X77.766 Y89.761 E11.73329
G1 X77.616 Y89.059 E11.75716
G1 X77.463 Y88.151 E11.78779
G1 X77.389 Y87.233 E11.81842
G1 X77.395 Y86.313 E11.84902
G1 X77.481 Y85.396 E11.87966
G1 X77.647 Y84.49 E11.91029
G1 X77.89 Y83.603 E11.94088
G1 X78.209 Y82.739 E11.97151
G1 X78.602 Y81.906 E12.00215
G1 X79.066 Y81.111 E12.03276
G1 X79.417 Y80.6 E12.05338
G1 X79.53 Y80.445 E12.05976
G1 X79.742 Y80.163 E12.0715
G1 X80 Y79.833 E12.08543
G1 X90.135 Y67.123 E12.62611
G0 F6000 X90.448 Y67.373
G1 F1200 X90.974 Y66.733 E12.65366
G1 X91.579 Y66.062 E12.68371
G1 X92.24 Y65.447 E12.71374
G1 X92.954 Y64.893 E12.7438
G1 X93.713 Y64.405 E12.77381
G1 X94.513 Y63.986 E12.80385
G1 X95.347 Y63.639 E12.83389
G1 X96.208 Y63.367 E12.86392
G1 X97.09 Y63.172 E12.89397
G1 X97.986 Y63.056 E12.92402
G1 X98.518 Y63.025 E12.94174
G1 X98.947 Y63.014 E12.95602
G1 X99.327 Y63.01 E12.96866
G1 X115.566 Y63.01 E13.50877
G1 X116.413 Y63.021 E13.53694
G1 X117.315 Y63.074 E13.56699
G1 X118.208 Y63.206 E13.59702
G1 X119.086 Y63.417 E13.62705
G1 X119.942 Y63.705 E13.65709
G1 X120.77 Y64.067 E13.68715
G1 X121.562 Y64.501 E13.71718
G1 X122.312 Y65.004 E13.74722
G1 X123.015 Y65.57 E13.77724
G1 X123.665 Y66.197 E13.80728
G1 X124.009 Y66.577 E13.82432
G1 X124.293 Y66.913 E13.83896
G1 X124.55 Y67.23 E13.85253
G1 X134.767 Y80.043 E14.39759
G1 X135.19 Y80.588 E14.42054
G1 X135.711 Y81.325 E14.45056
G1 X136.166 Y82.106 E14.48062
G1 X136.549 Y82.923 E14.51063
G1 X136.859 Y83.772 E14.54069
G1 X137.092 Y84.644 E14.57071
G1 X137.248 Y85.534 E14.60076
G1 X137.324 Y86.434 E14.63081
G1 X137.32 Y87.337 E14.66084
G1 X137.166 Y88.672 E14.70554
G1 X137.137 Y88.831 E14.71091
G1 X137.071 Y89.164 E14.7222
G1 X136.978 Y89.588 E14.73664
G1 X133.327 Y105.58 E15.28222
G1 X133.162 Y106.254 E15.3053
G1 X132.909 Y107.121 E15.33534
G1 X132.58 Y107.962 E15.36538
G1 X132.178 Y108.771 E15.39542
G1 X131.706 Y109.541 E15.42546
G1 X131.167 Y110.266 E15.45551
G1 X130.567 Y110.941 E15.48555
G1 X129.909 Y111.559 E15.51557
G1 X129.199 Y112.118 E15.54563
G1 X128.443 Y112.611 E15.57565
G1 X128.047 Y112.833 E15.59075
G1 X127.876 Y112.924 E15.59719
G1 X127.584 Y113.073 E15.60809
G1 X127.271 Y113.227 E15.61969
G1 X112.501 Y120.341 E16.16496
G1 X111.853 Y120.642 E16.18872
G1 X111.018 Y120.986 E16.21876
G1 X110.156 Y121.254 E16.24878
G1 X109.273 Y121.445 E16.27883
G1 X108.377 Y121.558 E16.30887
G1 X107.474 Y121.591 E16.33892
G1 X106.573 Y121.543 E16.36893
G1 X105.678 Y121.417 E16.39899
G1 X104.799 Y121.211 E16.42902
G1 X103.941 Y120.929 E16.45906
G1 X103.458 Y120.732 E16.47641
G1 X103.078 Y120.562 E16.49026
G1 X102.648 Y120.36 E16.50606
G1 X87.924 Y113.267 E17.04964
G1 X87.308 Y112.96 E17.07253
G1 X86.519 Y112.522 E17.10255
G1 X85.771 Y112.016 E17.13258
G1 X85.071 Y111.445 E17.16263
G1 X84.424 Y110.815 E17.19267
G1 X83.835 Y110.13 E17.22271
G1 X83.31 Y109.396 E17.25273
G1 X82.851 Y108.618 E17.28277
G1 X82.463 Y107.802 E17.31282
G1 X82.148 Y106.956 E17.34285
G1 X82.001 Y106.453 E17.36028
G1 X81.951 Y106.265 E17.36675
G1 X81.889 Y106.019 E17.37519
G1 X81.801 Y105.649 E17.38784
G1 X78.157 Y89.677 E17.93272
G1 X78.007 Y88.975 E17.95659
G1 X77.858 Y88.085 E17.98661
G1 X77.788 Y87.184 E18.01666
G1 X77.798 Y86.281 E18.0467
G1 X77.887 Y85.383 E18.07671
G1 X78.056 Y84.495 E18.10678
G1 X78.303 Y83.627 E18.1368
G1 X78.625 Y82.783 E18.16684
G1 X79.021 Y81.971 E18.19689
G1 X79.74 Y80.835 E18.2416
G1 X79.853 Y80.68 E18.24798
G1 X80.058 Y80.409 E18.25929
G1 X80.313 Y80.083 E18.27305
G1 X90.448 Y67.373 E18.81373
G1 F1500 E12.31373
;MESH:CactusBodyFixed_now_for_real.stl
G0 F6000 X104.643 Y89.125
G0 X104.643 Y87.69
G0 X109.446 Y88.032
G0 X109.618 Y94.762
;TYPE:WALL-INNER
G1 F1500 E18.81373
G1 F1200 X109.618 Y87.86 E19.04329
G1 X102.716 Y87.86 E19.27286
G1 X102.716 Y94.762 E19.50242
G1 X109.618 Y94.762 E19.73198
G0 F6000 X109.218 Y94.362
;TYPE:WALL-OUTER
G1 F1200 X109.218 Y88.26 E19.93493
G1 X103.116 Y88.26 E20.13789
G1 X103.116 Y94.362 E20.34084
G1 X109.218 Y94.362 E20.54379
G1 F1500 E14.04379
G0 F6000 X109.518 Y94.362
G0 X107.556 Y94.952
G0 X107.556 Y93.497
G0 X100.836 Y108.904
G0 X101.467 Y107.592
G0 X107.556 Y110.736
;TYPE:WALL-INNER
G1 F1500 E20.54379
G1 F1200 X92.37 Y103.422 E21.10441
G1 X88.619 Y86.989 E21.66503
G1 X99.128 Y73.81 E22.22566
G1 X115.984 Y73.81 E22.7863
G1 X126.494 Y86.989 E23.34695
G1 X122.742 Y103.422 E23.90758
G1 X107.556 Y110.736 E24.4682
G0 F6000 X107.556 Y111.18
;TYPE:WALL-OUTER
G1 F1200 X92.023 Y103.699 E25.04162
G1 X88.186 Y86.89 E25.61507
G1 X98.935 Y73.41 E26.18851
G1 X116.177 Y73.41 E26.76198
G1 X126.927 Y86.89 E27.33544
G1 X123.089 Y103.699 E27.9089
G1 X107.556 Y111.18 E28.48232
G0 F6000 X107.539 Y110.701
G0 X107.556 Y110.304
;TYPE:SKIN
G1 F1200 X92.709 Y103.153 E29.03043
G1 X89.04 Y87.085 E29.57861
G1 X99.316 Y74.2 E30.12677
G1 X115.796 Y74.2 E30.67489
G1 X126.073 Y87.085 E31.22307
G1 X122.403 Y103.153 E31.77126
G1 X107.556 Y110.304 E32.31936
G1 F1500 E25.81936
G0 F6000 X107.435 Y110.555
G0 X115.418 Y106.717
G0 X116.058 Y108.045
G0 X107.691 Y93.497
G0 X107.691 Y94.932
G0 X109.728 Y94.902
G0 X110.008 Y95.152
G1 F1500 E32.31936
G1 F1200 X110.008 Y87.47 E32.57487
G1 X102.326 Y87.47 E32.83037
G1 X102.326 Y95.152 E33.08588
G1 X110.008 Y95.152 E33.34138
G1 F1500 E26.84138
G0 F6000 X109.728 Y94.902
G0 X105.554 Y94.932
G0 X105.554 Y93.497
G0 X89.805 Y97.86
G0 X91.241 Y97.532
G0 X92.248 Y102.389
G0 X92.676 Y102.293
G1 F1500 E33.34138
G1 F1200 X93.961 Y103.577 E33.4018
G0 F6000 X93.77 Y103.973
G0 X94.861 Y104.499
G0 X95.052 Y104.103
G1 F1200 X92.509 Y101.56 E33.52142
G0 F6000 X92.341 Y100.827
G1 F1200 X96.143 Y104.628 E33.70023
G0 F6000 X95.952 Y105.024
G0 X97.043 Y105.55
G0 X97.234 Y105.154
G1 F1200 X92.174 Y100.094 E33.93823
G0 F6000 X92.007 Y99.361
G1 F1200 X98.326 Y105.679 E34.23544
G0 F6000 X98.135 Y106.076
G0 X99.226 Y106.601
G0 X99.417 Y106.205
G1 F1200 X91.839 Y98.627 E34.59188
G0 F6000 X91.672 Y97.894
G1 F1200 X100.508 Y106.731 E35.00752
G0 F6000 X100.317 Y107.127
G0 X101.408 Y107.652
G0 X101.599 Y107.256
G1 F1200 X91.505 Y97.162 E35.48232
G0 F6000 X91.337 Y96.428
G1 F1200 X102.69 Y107.782 E36.01635
G0 F6000 X102.499 Y108.178
G0 X103.591 Y108.704
G0 X103.782 Y108.307
G1 F1200 X91.17 Y95.695 E36.60958
G0 F6000 X91.002 Y94.962
G1 F1200 X104.873 Y108.833 E37.26203
G0 F6000 X104.682 Y109.229
G0 X105.773 Y109.755
G0 X105.964 Y109.359
G1 F1200 X90.834 Y94.229 E37.9737
G0 F6000 X90.668 Y93.496
G1 F1200 X107.055 Y109.884 E38.74451
G0 F6000 X107.762 Y110.025
G1 F1200 X90.5 Y92.763 E39.55647
G0 F6000 X90.332 Y92.029
G1 F1200 X108.144 Y109.841 E40.39429
G0 F6000 X108.526 Y109.657
G1 F1200 X90.165 Y91.296 E41.25793
G0 F6000 X89.998 Y90.564
G1 F1200 X108.907 Y109.473 E42.14735
G0 F6000 X109.289 Y109.289
G1 F1200 X89.83 Y89.83 E43.06265
G0 F6000 X89.663 Y89.097
G1 F1200 X109.671 Y109.105 E44.00376
G0 F6000 X110.053 Y108.922
G1 F1200 X89.495 Y88.364 E44.97075
G0 F6000 X89.328 Y87.631
G1 F1200 X110.435 Y108.738 E45.96356
G0 F6000 X110.817 Y108.554
G1 F1200 X89.289 Y87.027 E46.97614
G0 F6000 X89.54 Y86.712
G1 F1200 X111.198 Y108.37 E47.99487
G0 F6000 X111.58 Y108.186
G1 F1200 X89.791 Y86.397 E49.01976
G0 F6000 X90.042 Y86.082
G1 F1200 X111.962 Y108.002 E50.05081
G0 F6000 X112.344 Y107.818
G1 F1200 X90.293 Y85.767 E51.08802
G0 F6000 X90.544 Y85.453
G1 F1200 X112.726 Y107.635 E52.13139
G0 F6000 X113.108 Y107.451
G1 F1200 X90.795 Y85.138 E53.18093
G0 F6000 X91.046 Y84.823
G1 F1200 X113.489 Y107.267 E54.2366
G0 F6000 X113.871 Y107.083
G1 F1200 X91.297 Y84.509 E55.29841
G0 F6000 X91.548 Y84.194
G1 F1200 X102.165 Y94.811 E55.7978
G0 F6000 X102.165 Y94.246
G1 F1200 X91.799 Y83.879 E56.28541
G0 F6000 X92.05 Y83.565
G1 F1200 X102.165 Y93.68 E56.76119
G0 F6000 X102.165 Y93.114
G1 F1200 X92.301 Y83.25 E57.22516
G0 F6000 X92.552 Y82.935
G1 F1200 X102.165 Y92.548 E57.67733
G0 F6000 X102.165 Y91.983
G1 F1200 X92.803 Y82.621 E58.11769
G0 F6000 X93.054 Y82.306
G1 F1200 X102.165 Y91.417 E58.54624
G0 F6000 X102.165 Y90.851
G1 F1200 X93.305 Y81.991 E58.96299
G0 F6000 X93.555 Y81.676
G1 F1200 X102.165 Y90.286 E59.36798
G0 F6000 X102.165 Y89.72
G1 F1200 X93.806 Y81.361 E59.76116
G0 F6000 X94.057 Y81.047
G1 F1200 X102.165 Y89.154 E60.14251
G0 F6000 X102.165 Y88.589
G1 F1200 X94.308 Y80.732 E60.51208
G0 F6000 X94.559 Y80.417
G1 F1200 X102.165 Y88.023 E60.86984
G0 F6000 X102.165 Y87.457
G1 F1200 X94.81 Y80.103 E61.21577
G0 F6000 X95.062 Y79.788
G1 F1200 X102.583 Y87.31 E61.56956
G0 F6000 X103.149 Y87.31
G1 F1200 X95.313 Y79.473 E61.93817
G0 F6000 X95.564 Y79.159
G1 F1200 X103.714 Y87.31 E62.32154
G0 F6000 X104.28 Y87.31
G1 F1200 X95.815 Y78.844 E62.71973
G0 F6000 X96.066 Y78.529
G1 F1200 X104.846 Y87.31 E63.13274
G0 F6000 X105.411 Y87.31
G1 F1200 X96.317 Y78.215 E63.56052
G0 F6000 X96.568 Y77.9
G1 F1200 X105.977 Y87.31 E64.00311
G0 F6000 X106.543 Y87.31
G1 F1200 X96.819 Y77.585 E64.46052
G0 F6000 X97.07 Y77.271
G1 F1200 X107.108 Y87.31 E64.9327
G0 F6000 X107.674 Y87.31
G1 F1200 X97.32 Y76.955 E65.41975
G0 F6000 X97.571 Y76.641
G1 F1200 X108.24 Y87.31 E65.92158
G0 F6000 X108.806 Y87.31
G1 F1200 X97.822 Y76.326 E66.43824
G0 F6000 X98.073 Y76.011
G1 F1200 X109.371 Y87.31 E66.96969
G0 F6000 X109.937 Y87.31
G1 F1200 X98.324 Y75.697 E67.51593
G0 F6000 X98.575 Y75.382
G1 F1200 X123.002 Y99.809 E68.6649
G0 F6000 X123.107 Y99.349
G1 F1200 X98.826 Y75.067 E69.80702
G0 F6000 X99.077 Y74.753
G1 F1200 X123.212 Y98.888 E70.94226
G0 F6000 X123.318 Y98.427
G1 F1200 X99.328 Y74.438 E72.07065
G0 F6000 X99.815 Y74.36
G1 F1200 X123.423 Y97.967 E73.18108
G0 F6000 X123.528 Y97.507
G1 F1200 X100.381 Y74.36 E74.26984
G0 F6000 X100.947 Y74.36
G1 F1200 X123.633 Y97.046 E75.33692
G0 F6000 X123.738 Y96.585
G1 F1200 X101.512 Y74.36 E76.38234
G0 F6000 X102.078 Y74.36
G1 F1200 X123.844 Y96.125 E77.40612
