; Generated with MatterSlice 1.0
; filamentDiameter = 1.8
; extrusionWidth = 0.4
; firstLayerExtrusionWidth = 0.4
; layerThickness = 0.4
; firstLayerThickness = 0.4
; automatic settings before start_gcode
G21 ; set units to millimeters
M107 ; fan off
M104 T0 S200 ; start heating extruder 1
T0 ; set the active extruder to 0
; settings from start_gcode
G28 ; home all axes
G1 X0.07 Y-0.04 Z5 F5000
; automatic settings after start_gcode
M109 T0 S200 ; wait for extruder 1 to reach temperature
T0 ; set the active extruder to 0
G90 ; use absolute coordinates
G92 E0 ; reset the expected extruder position
M82 ; use absolute distance for extrusion
; Layer count: 175
; Layer Change GCode
; LAYER:0
M400
M107
G1 X0.01 Y0 Z0.4 F3000
G1 X-5.26 Y-6.14 Z0.424
G1 X-5.61 Y-6.49 Z0.426
G1 X-5.89 Y-6.21 Z0.432
; TYPE:WALL-OUTER
G1  F1800
G1 X-9.92 Y-10.28 Z0.455 E0.36 F360
G1 X-9.98 Y-11.04 Z0.45 E0.408
G1 X-11.38 Y-12.53 Z0.457 E0.537
G1 X-11.16 Y-14.11 Z0.442 E0.637
G1 X-9.55 Y-15.55 Z0.408 E0.772
G1 X-5.28 Y-17.24 Z0.335 E1.062
G1 X-5.02 Y-17.13 Z0.332 E1.079
G1 X-4.71 Y-17.54 Z0.325 E1.111
G1 X-1.7 Y-20.77 Z0.257 E1.389
G1 X2.04 Y-20.05 Z0.211 E1.628
G1 X3.02 Y-19.58 Z0.201 E1.696
G1 X4.62 Y-11.52 Z0.244 E2.213
G1 X6.29 Y-10.1 Z0.232 E2.351
G1 X10.74 Y-10 Z0.171 E2.631
G1 X13.17 Y-9.63 Z0.141 E2.785
G1 X13.75 Y-7.02 Z0.153 E2.954
G1 X15.49 Y-0.4 Z0.183 E3.384
G1 X16.85 Y2 Z0.183 E3.558
G1 X15.83 Y9.65 Z0.259 E4.043
G1 X15.7 Y11.37 Z0.274 E4.151
G1 X15.15 Y11.62 Z0.284 E4.19
G1 X14.47 Y13.37 Z0.307 E4.307
G1 X10.25 Y19.62 Z0.416 E4.782
G1 X7.85 Y22.09 Z0.469 E4.998
G1 X3.99 Y23.24 Z0.532 E5.251
G1 X0.68 Y23.98 Z0.584 E5.465
G1 X-5.12 Y21.52 Z0.644 E5.861
G1 X-6.6 Y20.57 Z0.657 E5.971
G1 X-7.82 Y20.43 Z0.673 E6.049
G1 X-9.07 Y19.75 Z0.685 E6.138
G1 X-12.06 Y15.49 Z0.692 E6.465
G1 X-13.18 Y10.58 Z0.668 E6.782
G1 X-14.01 Y5.87 Z0.642 E7.083
G1 X-14.43 Y2 Z0.617 E7.328
G1 X-7.6 Y-5.1 Z0.465 E7.947
G1 X-5.89 Y-6.21 Z0.432 E8.075
G1 X-5.61 Y-6.49 Z0.426 F3000
G1 X-5.26 Y-6.14 Z0.424
; TYPE:WALL-INNER
G1 X-9.53 Y-10.46 Z0.449 E8.457 F360
G1 X-9.59 Y-11.21 Z0.443 E8.505
G1 X-10.95 Y-12.67 Z0.451 E8.63
G1 X-10.79 Y-13.91 Z0.438 E8.709
G1 X-9.34 Y-15.2 Z0.408 E8.831
G1 X-5.28 Y-16.8 Z0.339 E9.106
G1 X-4.89 Y-16.65 Z0.334 E9.132
G1 X-4.41 Y-17.28 Z0.323 E9.182
G1 X-1.55 Y-20.33 Z0.259 E9.445
G1 X1.92 Y-19.67 Z0.216 E9.667
G1 X2.67 Y-19.3 Z0.208 E9.719
G1 X4.25 Y-11.3 Z0.251 E10.232
G1 X6.14 Y-9.71 Z0.237 E10.388
G1 X10.71 Y-9.6 Z0.175 E10.675
G1 X12.84 Y-9.28 Z0.148 E10.811
G1 X13.37 Y-6.92 Z0.16 E10.962
G1 X15.11 Y-0.25 Z0.189 E11.396
G1 X16.44 Y2.08 Z0.189 E11.565
G1 X15.43 Y9.6 Z0.264 E12.042
G1 X15.32 Y11.1 Z0.277 E12.136
G1 X14.84 Y11.33 Z0.286 E12.17
G1 X14.11 Y13.18 Z0.311 E12.295
G1 X9.94 Y19.36 Z0.418 E12.764
G1 X7.64 Y21.73 Z0.469 E12.972
G1 X3.9 Y22.85 Z0.53 E13.217
G1 X0.72 Y23.56 Z0.58 E13.422
G1 X-4.94 Y21.16 Z0.639 E13.808
G1 X-6.46 Y20.19 Z0.652 E13.922
G1 X-7.7 Y20.04 Z0.668 E14.001
G1 X-8.8 Y19.45 Z0.679 E14.079
G1 X-11.69 Y15.33 Z0.686 E14.395
G1 X-12.78 Y10.51 Z0.662 E14.706
G1 X-13.62 Y5.8 Z0.636 E15.007
G1 X-14.02 Y2.14 Z0.612 E15.238
G1 X-7.34 Y-4.78 Z0.464 E15.843
G1 X-5.26 Y-6.14 Z0.424 E16
G1 X-4.63 Y-6.08 Z0.416 F3000
G1 X-9.15 Y-10.63 Z0.442 E16.403 F360
G1 X-9.2 Y-11.38 Z0.437 E16.45
G1 X-10.53 Y-12.8 Z0.444 E16.572
G1 X-10.41 Y-13.71 Z0.435 E16.63
G1 X-9.13 Y-14.85 Z0.408 E16.738
G1 X-5.28 Y-16.37 Z0.342 E16.998
G1 X-4.76 Y-16.16 Z0.337 E17.034
G1 X-4.09 Y-17.03 Z0.32 E17.103
G1 X-1.41 Y-19.9 Z0.26 E17.349
G1 X1.79 Y-19.28 Z0.221 E17.554
G1 X2.31 Y-19.03 Z0.216 E17.591
G1 X3.89 Y-11.09 Z0.258 E18.1
G1 X5.99 Y-9.31 Z0.243 E18.273
G1 X10.68 Y-9.2 Z0.179 E18.568
G1 X12.51 Y-8.92 Z0.155 E18.685
G1 X12.98 Y-6.83 Z0.166 E18.82
G1 X14.74 Y-0.1 Z0.195 E19.257
G1 X16.03 Y2.16 Z0.196 E19.42
G1 X15.03 Y9.56 Z0.269 E19.89
G1 X14.94 Y10.84 Z0.28 E19.97
G1 X14.52 Y11.03 Z0.288 E19.999
G1 X13.76 Y13 Z0.314 E20.132
G1 X9.63 Y19.11 Z0.421 E20.596
G1 X7.43 Y21.38 Z0.469 E20.795
G1 X3.8 Y22.46 Z0.528 E21.033
G1 X0.75 Y23.14 Z0.576 E21.229
G1 X-4.74 Y20.81 Z0.633 E21.604
G1 X-6.32 Y19.8 Z0.647 E21.722
G1 X-7.57 Y19.65 Z0.663 E21.802
G1 X-8.53 Y19.14 Z0.672 E21.869
G1 X-11.32 Y15.16 Z0.679 E22.175
G1 X-12.39 Y10.44 Z0.656 E22.479
G1 X-13.22 Y5.74 Z0.63 E22.779
G1 X-13.6 Y2.28 Z0.607 E22.998
G1 X-7.08 Y-4.47 Z0.463 E23.588
G1 X-4.63 Y-6.08 Z0.416 E23.773
G1 X-4 Y-6.01 Z0.408 F3000
G1 X-8.76 Y-10.81 Z0.435 E24.198 F360
G1 X-8.81 Y-11.55 Z0.43 E24.244
G1 X-10.11 Y-12.93 Z0.437 E24.364
G1 X-10.03 Y-13.51 Z0.431 E24.4
G1 X-8.91 Y-14.51 Z0.407 E24.494
G1 X-5.28 Y-15.94 Z0.346 E24.74
G1 X-4.62 Y-15.68 Z0.339 E24.785
G1 X-3.79 Y-16.77 Z0.318 E24.871
G1 X-1.27 Y-19.46 Z0.262 E25.103
G1 X1.66 Y-18.9 Z0.226 E25.291
G1 X1.96 Y-18.76 Z0.223 E25.312
G1 X3.52 Y-10.87 Z0.264 E25.817
G1 X5.84 Y-8.91 Z0.248 E26.008
G1 X10.65 Y-8.8 Z0.182 E26.31
G1 X12.18 Y-8.57 Z0.163 E26.408
G1 X12.59 Y-6.73 Z0.172 E26.526
G1 X14.37 Y0.06 Z0.202 E26.967
G1 X15.61 Y2.24 Z0.202 E27.125
G1 X14.63 Y9.52 Z0.274 E27.587
G1 X14.56 Y10.57 Z0.284 E27.653
G1 X14.21 Y10.73 Z0.29 E27.678
G1 X13.4 Y12.81 Z0.318 E27.818
G1 X9.31 Y18.86 Z0.423 E28.277
G1 X7.21 Y21.03 Z0.469 E28.467
G1 X3.71 Y22.07 Z0.526 E28.697
G1 X0.79 Y22.72 Z0.572 E28.884
G1 X-4.56 Y20.46 Z0.628 E29.25
G1 X-6.18 Y19.41 Z0.642 E29.371
G1 X-7.45 Y19.26 Z0.658 E29.451
G1 X-8.25 Y18.83 Z0.666 E29.508
G1 X-10.94 Y15 Z0.673 E29.803
G1 X-12 Y10.35 Z0.65 E30.103
G1 X-12.82 Y5.7 Z0.624 E30.399
G1 X-13.18 Y2.43 Z0.603 E30.607
G1 X-6.83 Y-4.16 Z0.462 E31.182
G1 X-4 Y-6.01 Z0.408 E31.395
G1 X-3.37 Y-5.94 Z0.399 F3000
G1 X-8.37 Y-10.99 Z0.428 E31.841 F360
G1 X-8.43 Y-11.72 Z0.423 E31.887
G1 X-9.69 Y-13.07 Z0.43 E32.004
G1 X-9.66 Y-13.31 Z0.427 E32.019
G1 X-8.7 Y-14.16 Z0.407 E32.099
G1 X-5.28 Y-15.51 Z0.349 E32.33
G1 X-4.49 Y-15.19 Z0.341 E32.384
G1 X-3.49 Y-16.51 Z0.316 E32.488
G1 X-1.13 Y-19.03 Z0.263 E32.705
G1 X1.54 Y-18.52 Z0.23 E32.876
G1 X1.61 Y-18.48 Z0.23 E32.881
G1 X3.16 Y-10.66 Z0.271 E33.382
G1 X5.69 Y-8.52 Z0.253 E33.591
G1 X10.62 Y-8.4 Z0.186 E33.901
G1 X11.85 Y-8.22 Z0.17 E33.979
G1 X12.2 Y-6.64 Z0.178 E34.081
G1 X13.99 Y0.21 Z0.208 E34.526
G1 X15.2 Y2.32 Z0.209 E34.679
G1 X14.24 Y9.48 Z0.279 E35.133
G1 X14.18 Y10.31 Z0.287 E35.185
G1 X13.89 Y10.44 Z0.292 E35.205
G1 X13.04 Y12.63 Z0.321 E35.352
G1 X9 Y18.6 Z0.425 E35.806
G1 X7 Y20.67 Z0.469 E35.987
G1 X3.59 Y21.69 Z0.525 E36.211
G1 X0.83 Y22.3 Z0.568 E36.388
G1 X-4.37 Y20.1 Z0.623 E36.744
G1 X-6.04 Y19.03 Z0.637 E36.868
G1 X-7.33 Y18.87 Z0.654 E36.95
G1 X-7.98 Y18.52 Z0.66 E36.996
G1 X-10.57 Y14.83 Z0.666 E37.28
G1 X-11.61 Y10.27 Z0.644 E37.574
G1 X-12.43 Y5.64 Z0.618 E37.87
G1 X-12.76 Y2.57 Z0.598 E38.064
G1 X-6.57 Y-3.85 Z0.461 E38.625
G1 X-3.37 Y-5.94 Z0.399 E38.865
G1 X-2.74 Y-5.88 Z0.391 F3000
G1 X-7.98 Y-11.17 Z0.421 E39.334 F360
G1 X-8.04 Y-11.89 Z0.416 E39.38
G1 X-9.22 Y-13.16 Z0.423 E39.489
G1 X-8.49 Y-13.82 Z0.407 E39.551
G1 X-5.28 Y-15.08 Z0.353 E39.767
G1 X-4.36 Y-14.71 Z0.343 E39.83
G1 X-3.18 Y-16.25 Z0.314 E39.952
G1 X-0.99 Y-18.6 Z0.265 E40.154
G1 X1.26 Y-18.16 Z0.237 E40.298
G1 X2.79 Y-10.44 Z0.278 E40.793
G1 X5.54 Y-8.12 Z0.258 E41.019
G1 X10.57 Y-8.01 Z0.19 E41.335
G1 X11.52 Y-7.86 Z0.178 E41.396
G1 X11.81 Y-6.55 Z0.184 E41.481
G1 X13.62 Y0.36 Z0.215 E41.929
G1 X14.78 Y2.4 Z0.215 E42.077
G1 X13.84 Y9.44 Z0.284 E42.524
G1 X13.79 Y10.04 Z0.29 E42.562
G1 X13.58 Y10.14 Z0.294 E42.577
G1 X12.69 Y12.43 Z0.324 E42.731
G1 X8.69 Y18.35 Z0.427 E43.18
G1 X6.78 Y20.32 Z0.47 E43.353
G1 X3.5 Y21.3 Z0.523 E43.568
G1 X0.87 Y21.88 Z0.564 E43.738
G1 X-4.18 Y19.75 Z0.617 E44.082
G1 X-5.9 Y18.64 Z0.632 E44.211
G1 X-7.2 Y18.49 Z0.649 E44.293
G1 X-7.71 Y18.22 Z0.654 E44.329
G1 X-10.2 Y14.67 Z0.66 E44.602
G1 X-11.21 Y10.19 Z0.638 E44.89
G1 X-12.03 Y5.59 Z0.612 E45.185
G1 X-12.35 Y2.71 Z0.593 E45.366
G1 X-6.31 Y-3.54 Z0.459 E45.913
G1 X-2.74 Y-5.88 Z0.391 E46.181
G1 X-2.11 Y-5.81 Z0.383 F3000
G1 X-7.6 Y-11.34 Z0.415 E46.671 F360
G1 X-7.65 Y-12.06 Z0.41 E46.716
G1 X-8.65 Y-13.13 Z0.415 E46.808
G1 X-8.27 Y-13.47 Z0.407 E46.84
G1 X-5.28 Y-14.65 Z0.356 E47.042
G1 X-4.22 Y-14.22 Z0.345 E47.114
G1 X-2.88 Y-15.99 Z0.312 E47.254
G1 X-0.85 Y-18.16 Z0.266 E47.441
G1 X0.92 Y-17.82 Z0.245 E47.554
G1 X2.43 Y-10.23 Z0.285 E48.041
G1 X5.39 Y-7.72 Z0.264 E48.285
G1 X10.54 Y-7.61 Z0.193 E48.609
G1 X11.19 Y-7.51 Z0.185 E48.65
G1 X11.42 Y-6.45 Z0.19 E48.718
G1 X13.25 Y0.51 Z0.221 E49.171
G1 X14.37 Y2.48 Z0.221 E49.313
G1 X13.44 Y9.4 Z0.29 E49.752
G1 X13.41 Y9.78 Z0.293 E49.776
G1 X13.26 Y9.85 Z0.296 E49.786
G1 X12.33 Y12.25 Z0.328 E49.948
G1 X8.38 Y18.1 Z0.43 E50.392
G1 X6.57 Y19.97 Z0.47 E50.556
G1 X3.4 Y20.91 Z0.521 E50.764
G1 X0.91 Y21.47 Z0.56 E50.924
G1 X-4 Y19.39 Z0.612 E51.259
G1 X-5.76 Y18.26 Z0.627 E51.391
G1 X-7.08 Y18.1 Z0.644 E51.475
G1 X-7.43 Y17.91 Z0.647 E51.5
G1 X-9.82 Y14.5 Z0.653 E51.761
G1 X-10.82 Y10.1 Z0.632 E52.045
G1 X-11.64 Y5.53 Z0.606 E52.337
G1 X-11.93 Y2.86 Z0.589 E52.506
G1 X-6.06 Y-3.23 Z0.458 E53.038
G1 X-2.11 Y-5.81 Z0.383 E53.334
G1 X-1.48 Y-5.74 Z0.375 F3000
G1 X-7.21 Y-11.52 Z0.408 E53.846 F360
G1 X-7.26 Y-12.24 Z0.403 E53.891
G1 X-8.08 Y-13.11 Z0.407 E53.966
G1 X-5.29 Y-14.22 Z0.359 E54.155
G1 X-4.09 Y-13.74 Z0.347 E54.236
G1 X-2.57 Y-15.74 Z0.31 E54.394
G1 X-0.71 Y-17.73 Z0.268 E54.565
G1 X0.58 Y-17.48 Z0.252 E54.648
G1 X2.06 Y-10.01 Z0.291 E55.127
G1 X5.24 Y-7.33 Z0.269 E55.388
G1 X10.5 Y-7.21 Z0.197 E55.719
G1 X10.86 Y-7.15 Z0.193 E55.742
G1 X11.03 Y-6.36 Z0.196 E55.793
G1 X12.87 Y0.66 Z0.227 E56.249
G1 X13.95 Y2.56 Z0.228 E56.387
G1 X13.03 Y9.52 Z0.296 E56.828
G1 X12.95 Y9.55 Z0.298 E56.833
G1 X11.97 Y12.06 Z0.331 E57.003
G1 X8.07 Y17.84 Z0.432 E57.441
G1 X6.35 Y19.61 Z0.47 E57.596
G1 X3.3 Y20.52 Z0.519 E57.796
G1 X0.94 Y21.05 Z0.556 E57.948
G1 X-3.81 Y19.04 Z0.606 E58.273
G1 X-5.62 Y17.87 Z0.622 E58.409
G1 X-6.96 Y17.71 Z0.639 E58.493
G1 X-7.16 Y17.6 Z0.641 E58.507
G1 X-9.45 Y14.34 Z0.647 E58.758
G1 X-10.43 Y10.03 Z0.626 E59.036
G1 X-11.24 Y5.46 Z0.6 E59.328
G1 X-11.51 Y3 Z0.584 E59.484
G1 X-5.8 Y-2.92 Z0.457 E60.001
G1 X-1.48 Y-5.74 Z0.375 E60.325
G1 X-1.41 Y-5.38 Z0.377 F3000
; TYPE:BOTTOM-FILL
G1 X12.78 Y8.81 Z0.294 E61.587 F360
G1 X12.7 Y9.29 Z0.299 F3000
G1 X-1.76 Y-5.16 Z0.383 E62.872 F360
G1 X-2.1 Y-4.94 Z0.39 F3000
G1 X12.53 Y9.69 Z0.305 E64.173 F360
G1 X12.37 Y10.1 Z0.31 F3000
G1 X-2.44 Y-4.71 Z0.396 E65.49 F360
G1 X-2.78 Y-4.49 Z0.403 F3000
G1 X12.21 Y10.51 Z0.316 E66.823 F360
G1 X12.05 Y10.92 Z0.321 F3000
G1 X-3.12 Y-4.26 Z0.409 E68.173 F360
G1 X-3.47 Y-4.04 Z0.416 F3000
G1 X11.9 Y11.32 Z0.327 E69.539 F360
G1 X11.74 Y11.73 Z0.332 F3000
G1 X-3.81 Y-3.82 Z0.423 E70.922 F360
G1 X-4.15 Y-3.59 Z0.429 F3000
G1 X11.54 Y12.1 Z0.338 E72.317 F360
G1 X11.31 Y12.44 Z0.344 F3000
G1 X-4.49 Y-3.37 Z0.436 E73.722 F360
G1 X-4.83 Y-3.15 Z0.442 F3000
G1 X11.08 Y12.77 Z0.349 E75.138 F360
G1 X10.86 Y13.11 Z0.355 F3000
G1 X-5.18 Y-2.92 Z0.449 E76.563 F360
G1 X-5.52 Y-2.7 Z0.455 F3000
G1 X10.63 Y13.45 Z0.361 E77.999 F360
G1 X10.4 Y13.78 Z0.367 F3000
G1 X-5.81 Y-2.42 Z0.461 E79.44 F360
G1 X-6.09 Y-2.14 Z0.468 F3000
G1 X10.17 Y14.12 Z0.373 E80.886 F360
G1 X9.94 Y14.46 Z0.379 F3000
G1 X-6.36 Y-1.85 Z0.474 E82.336 F360
G1 X-6.64 Y-1.56 Z0.48 F3000
G1 X9.71 Y14.8 Z0.385 E83.791 F360
G1 X9.49 Y15.13 Z0.391 F3000
G1 X-6.92 Y-1.27 Z0.486 E85.25 F360
G1 X-7.2 Y-0.98 Z0.492 F3000
G1 X9.26 Y15.47 Z0.396 E86.713 F360
G1 X9.03 Y15.81 Z0.402 F3000
G1 X-7.47 Y-0.7 Z0.498 E88.18 F360
G1 X-7.75 Y-0.41 Z0.505 F3000
G1 X8.8 Y16.15 Z0.408 E89.652 F360
G1 X8.57 Y16.49 Z0.414 F3000
G1 X-8.03 Y-0.12 Z0.511 E91.129 F360
G1 X-8.31 Y0.17 Z0.517 F3000
G1 X8.35 Y16.82 Z0.42 E92.61 F360
G1 X8.12 Y17.16 Z0.426 F3000
G1 X-8.58 Y0.46 Z0.523 E94.095 F360
G1 X-8.86 Y0.74 Z0.529 F3000
G1 X7.89 Y17.5 Z0.432 E95.585 F360
G1 X7.63 Y17.8 Z0.438 F3000
G1 X-9.14 Y1.03 Z0.535 E97.076 F360
G1 X-9.42 Y1.32 Z0.542 F3000
G1 X7.35 Y18.09 Z0.444 E98.567 F360
G1 X7.07 Y18.38 Z0.45 F3000
G1 X-9.7 Y1.61 Z0.548 E100.059 F360
G1 X-9.97 Y1.9 Z0.554 F3000
G1 X6.79 Y18.66 Z0.456 E101.55 F360
G1 X6.52 Y18.95 Z0.462 F3000
G1 X-10.25 Y2.18 Z0.56 E103.041 F360
G1 X-10.53 Y2.47 Z0.566 F3000
G1 X6.24 Y19.24 Z0.469 E104.531 F360
G1 X5.84 Y19.41 Z0.475 F3000
G1 X-10.81 Y2.76 Z0.572 E106.012 F360
G1 X-11.08 Y3.05 Z0.578 F3000
G1 X5.41 Y19.54 Z0.482 E107.478 F360
G1 X4.97 Y19.67 Z0.49 F3000
G1 X-11.1 Y3.6 Z0.583 E108.907 F360
G1 X-11.03 Y4.23 Z0.587 F3000
G1 X4.54 Y19.8 Z0.497 E110.292 F360
G1 X4.1 Y19.93 Z0.504 F3000
G1 X-10.96 Y4.87 Z0.591 E111.631 F360
G1 X-10.89 Y5.51 Z0.596 F3000
G1 X3.66 Y20.06 Z0.511 E112.925 F360
G1 X3.23 Y20.19 Z0.518 F3000
G1 X-10.76 Y6.19 Z0.599 E114.169 F360
G1 X-10.64 Y6.88 Z0.603 F3000
G1 X2.77 Y20.29 Z0.525 E115.362 F360
G1 X2.3 Y20.4 Z0.532 F3000
G1 X-10.52 Y7.57 Z0.607 E116.502 F360
G1 X-10.4 Y8.26 Z0.611 F3000
G1 X1.84 Y20.5 Z0.54 E117.59 F360
G1 X1.38 Y20.6 Z0.547 F3000
G1 X-10.28 Y8.94 Z0.615 E118.627 F360
G1 X-10.15 Y9.63 Z0.619 F3000
G1 X0.85 Y20.64 Z0.554 E119.605 F360
G1 X-0.13 Y20.23 Z0.565 F3000
G1 X-10.01 Y10.34 Z0.622 E120.484 F360
G1 X-9.84 Y11.07 Z0.626 F3000
G1 X-1.11 Y19.81 Z0.575 E121.261 F360
G1 X-2.09 Y19.4 Z0.585 F3000
G1 X-9.68 Y11.81 Z0.629 E121.936 F360
G1 X-9.51 Y12.54 Z0.633 F3000
G1 X-3.07 Y18.98 Z0.595 E122.509 F360
G1 X-4.3 Y18.32 Z0.607 F3000
G1 X-9.34 Y13.27 Z0.637 E122.958 F360
G1 X-9.18 Y14 Z0.64 F3000
G1 X-5.66 Y17.52 Z0.62 E123.27 F360
G1 X-6.3 Y17.44 Z0.628 F3000
G1 X-8.16 Y15.59 Z0.639 E123.435 F360
G1  E122.435 F1800
G1 X12.85 Y8.31 Z0.289 F3000
G1  E123.435 F1800
G1 X-1.07 Y-5.61 Z0.37 E124.673 F360
G1 X1.68 Y-10.21 Z0.295 F3000
G1 X-2.88 Y-14.77 Z0.322 E125.078 F360
G1 X-3.12 Y-14.44 Z0.328 F3000
G1 X13.13 Y1.81 Z0.233 E126.524 F360
G1 X13.57 Y2.82 Z0.235 F3000
G1 X-3.37 Y-14.12 Z0.334 E128.03 F360
G1 X-3.61 Y-13.8 Z0.34 F3000
G1 X13.51 Y3.32 Z0.24 E129.552 F360
G1 X13.44 Y3.82 Z0.245 F3000
G1 X-3.86 Y-13.48 Z0.346 E131.091 F360
G1 X-4.46 Y-13.52 Z0.354 F3000
G1 X13.38 Y4.32 Z0.25 E132.677 F360
G1 X13.31 Y4.82 Z0.255 F3000
G1 X-5.34 Y-13.83 Z0.363 E134.335 F360
G1 X-5.74 Y-13.67 Z0.37 F3000
G1 X13.24 Y5.32 Z0.26 E136.023 F360
G1 X13.18 Y5.82 Z0.265 F3000
G1 X-6.15 Y-13.51 Z0.377 E137.742 F360
G1 X-6.55 Y-13.35 Z0.384 F3000
G1 X13.11 Y6.31 Z0.269 E139.49 F360
G1 X13.04 Y6.81 Z0.274 F3000
G1 X-6.96 Y-13.19 Z0.391 E141.269 F360
G1 X-7.36 Y-13.03 Z0.398 F3000
G1 X12.98 Y7.31 Z0.279 E143.077 F360
G1 X12.91 Y7.81 Z0.284 F3000
G1 X-6.9 Y-12 Z0.4 E144.839 F360
G1 X-2.64 Y-15.09 Z0.316 F3000
G1 X1.54 Y-10.91 Z0.291 E145.21 F360
G1 X1.4 Y-11.62 Z0.288 F3000
G1 X-2.39 Y-15.41 Z0.31 E145.547 F360
G1 X-2.13 Y-15.71 Z0.304 F3000
G1 X1.26 Y-12.33 Z0.284 E145.848 F360
G1 X1.12 Y-13.03 Z0.28 F3000
G1 X-1.85 Y-16 Z0.298 E146.112 F360
G1 X-1.58 Y-16.29 Z0.291 F3000
G1 X0.98 Y-13.74 Z0.277 E146.339 F360
G1 X0.84 Y-14.44 Z0.273 F3000
G1 X-1.31 Y-16.59 Z0.285 E146.53 F360
G1 X-1.03 Y-16.88 Z0.279 F3000
G1 X0.7 Y-15.15 Z0.269 E146.684 F360
G1 X0.56 Y-15.85 Z0.265 F3000
G1 X-0.76 Y-17.17 Z0.273 E146.801 F360
G1 X-0.33 Y-17.31 Z0.266 F3000
G1 X0.42 Y-16.56 Z0.262 E146.867 F360
G1 X3.72 Y-8.16 Z0.283 F3000
G1 X12.51 Y0.62 Z0.232 E147.649 F360
G1 X12.31 Y-0.14 Z0.229 F3000
G1 X5.47 Y-6.98 Z0.269 E148.257 F360
G1 X6.05 Y-6.97 Z0.261 F3000
G1 X12.11 Y-0.91 Z0.225 E148.795 F360
G1 X11.91 Y-1.68 Z0.222 F3000
G1 X6.63 Y-6.95 Z0.253 E149.265 F360
G1 X7.21 Y-6.94 Z0.245 F3000
G1 X11.71 Y-2.44 Z0.219 E149.665 F360
G1 X11.51 Y-3.21 Z0.215 F3000
G1 X7.79 Y-6.93 Z0.237 E149.995 F360
G1 X8.37 Y-6.91 Z0.229 F3000
G1 X11.31 Y-3.97 Z0.212 E150.257 F360
G1 X11.1 Y-4.74 Z0.208 F3000
G1 X8.94 Y-6.9 Z0.221 E150.449 F360
G1 X9.52 Y-6.89 Z0.213 F3000
G1 X10.9 Y-5.51 Z0.205 E150.572 F360
G1 X10.7 Y-6.27 Z0.202 F3000
G1 X10.1 Y-6.87 Z0.205 E150.625 F360
G1  E149.625 F1800
G1 X10.2 Y-11.41 Z0.167 F3000
G1 X10.87 Y-11.4 Z0.158
G1 X14.33 Y-10.87 Z0.115
G1 X18.3 Y1.72 Z0.161
G1 X17.04 Y12.29 Z0.263
G1 X11.34 Y20.5 Z0.408
G1 X8.6 Y23.32 Z0.469
G1 X4.35 Y24.59 Z0.538
G1 X0.54 Y25.44 Z0.597
G1 X-8.25 Y21.79 Z0.69
G1 X-10.03 Y20.83 Z0.707
G1 X-12.72 Y18.21 Z0.723
; TYPE:SUPPORT
G1  E150.625 F1800
G1 X-10.77 Y20.74 Z0.716 E150.826 F360
G1 X-11.2 Y20.6 Z0.721 E150.855
G1 X-11.5 Y20.87 Z0.727 E150.881
G1 X-12.41 Y20.07 Z0.734 E150.956
G1 X-12.64 Y19.04 Z0.728 E151.023
G1 X-12.54 Y18.99 Z0.727 E151.03
G1 X-12.72 Y18.21 Z0.723 E151.081
G1 X-12.46 Y19.21 Z0.727 F3000
G1 X-11.26 Y20.4 Z0.72 E151.187 F360
G1 X-11.92 Y20.31 Z0.729 F3000
G1 X-12.29 Y19.94 Z0.731 E151.22 F360
G1  E150.22 F1800
G1 X-13.36 Y16.07 Z0.715 F3000
G1 X-14.55 Y10.86 Z0.689
G1 X-15.4 Y6.06 Z0.663
G1 X-15.9 Y1.5 Z0.633
G1 X-10.88 Y-5.38 Z0.508
G1  E151.22 F1800
G1 X-12.97 Y-6.45 Z0.528 E151.367 F360
G1 X-13.9 Y-7.13 Z0.536 E151.44
G1 X-13.78 Y-7.33 Z0.532 E151.455
G1 X-15.34 Y-8.13 Z0.548 E151.565
G1 X-16.27 Y-8.81 Z0.555 E151.637
G1 X-16.14 Y-9.01 Z0.552 E151.652
G1 X-17.7 Y-9.81 Z0.567 E151.762
G1 X-19.61 Y-11.2 Z0.582 E151.911
G1 X-19.43 Y-12.85 Z0.566 E152.015
G1 X-19.6 Y-12.9 Z0.568 E152.026
G1 X-19.33 Y-15.34 Z0.545 E152.181
G1 X-19.5 Y-15.39 Z0.547 E152.192
G1 X-19.27 Y-17.43 Z0.528 E152.32
G1 X-16.05 Y-18.85 Z0.471 E152.542
G1 X-8.96 Y-21.35 Z0.353 E153.015
G1 X-8.44 Y-20.74 Z0.351 E153.065
G1 X-8.84 Y-20.5 Z0.358 E153.095
G1 X-8.7 Y-20.33 Z0.358 E153.108
G1 X-8.94 Y-19.89 Z0.365 E153.14
G1 X-8.83 Y-19.76 Z0.364 E153.151
G1 X-9.06 Y-19.33 Z0.371 E153.182
G1 X-8.95 Y-19.19 Z0.37 E153.193
G1 X-9.19 Y-18.76 Z0.377 E153.224
G1 X-9.08 Y-18.62 Z0.377 E153.235
G1 X-9.31 Y-18.19 Z0.383 E153.266
G1 X-9.2 Y-18.06 Z0.383 E153.277
G1 X-9.44 Y-17.62 Z0.39 E153.308
G1 X-9.33 Y-17.49 Z0.389 E153.319
G1 X-9.46 Y-17.25 Z0.393 E153.336
G1 X-9.18 Y-17.07 Z0.391 E153.357
G1 X-9.47 Y-16.55 Z0.399 E153.395
G1 X-10.03 Y-16.32 Z0.408 E153.433
G1 X-12.01 Y-14.56 Z0.45 E153.6
G1 X-12.32 Y-12.23 Z0.473 E153.748
G1 X-10.87 Y-10.67 Z0.465 E153.881
G1 X-10.9 Y-10.4 Z0.468 E153.898
G1 X-11.19 Y-10.33 Z0.473 E153.917
G1 X-11.38 Y-8.74 Z0.488 E154.018
G1 X-11.12 Y-8.38 Z0.487 E154.046
G1 X-11.49 Y-8.29 Z0.493 E154.07
G1 X-11.04 Y-7.69 Z0.492 E154.116
G1 X-11.14 Y-7.57 Z0.494 E154.126
G1 X-10.81 Y-7.13 Z0.493 E154.161
G1 X-10.92 Y-7 Z0.496 E154.172
G1 X-10.6 Y-6.55 Z0.495 E154.206
G1 X-10.71 Y-6.42 Z0.497 E154.217
G1 X-10.38 Y-5.97 Z0.496 E154.252
G1 X-10.88 Y-5.38 Z0.508 E154.301
G1 X-10.79 Y-5.71 Z0.504 F3000
G1 X-19.31 Y-14.23 Z0.554 E155.059 F360
G1 X-19.25 Y-14.74 Z0.549 F3000
G1 X-10.73 Y-6.21 Z0.499 E155.817 F360
G1 X-11.5 Y-5.86 Z0.513 F3000
G1 X-19.37 Y-13.72 Z0.559 E156.516 F360
G1 X-19.42 Y-13.21 Z0.563 F3000
G1 X-13.63 Y-7.41 Z0.53 E157.032 F360
G1 X-13.59 Y-7.38 Z0.529 F3000
G1 X-12.67 Y-6.45 Z0.524 E157.114 F360
G1 X-11.03 Y-7.08 Z0.496 F3000
G1 X-19.2 Y-15.25 Z0.544 E157.84 F360
G1 X-19.3 Y-15.91 Z0.54 F3000
G1 X-11.65 Y-8.26 Z0.495 E158.52 F360
G1 X-11.53 Y-8.71 Z0.49 F3000
G1 X-19.24 Y-16.42 Z0.535 E159.205 F360
G1 X-19.18 Y-16.93 Z0.53 F3000
G1 X-11.47 Y-9.21 Z0.485 E159.892 F360
G1 X-11.4 Y-9.72 Z0.48 F3000
G1 X-19.05 Y-17.37 Z0.525 E160.572 F360
G1 X-18.66 Y-17.54 Z0.518 F3000
G1 X-11.34 Y-10.22 Z0.476 E161.223 F360
G1 X-11.34 Y-10.44 Z0.474 F3000
G1 X-11.06 Y-10.5 Z0.469
G1 X-18.27 Y-17.71 Z0.511 E161.864 F360
G1 X-17.88 Y-17.89 Z0.504 F3000
G1 X-12.44 Y-12.45 Z0.473 E162.348 F360
G1 X-12.79 Y-12.49 Z0.477 F3000
G1 X-12.85 Y-12.06 Z0.482
G1 X-12.72 Y-12.99 Z0.472
G1 X-12.37 Y-12.94 Z0.468
G1 X-17.48 Y-18.06 Z0.498 E162.802 F360
G1 X-17.44 Y-18.06 Z0.497 F3000
G1 X-17.09 Y-18.23 Z0.491
G1 X-12.3 Y-13.44 Z0.463 E163.228 F360
G1 X-12.66 Y-13.49 Z0.468 F3000
G1 X-12.48 Y-14.81 Z0.454
G1 X-12.59 Y-13.99 Z0.463
G1 X-12.23 Y-13.94 Z0.458
G1 X-16.7 Y-18.4 Z0.484 E163.625 F360
G1 X-16.3 Y-18.58 Z0.477 F3000
G1 X-12.17 Y-14.44 Z0.453 E163.993 F360
G1 X-12.52 Y-14.49 Z0.458 F3000
G1 X-12.48 Y-14.81 Z0.454
G1 X-12.2 Y-15.06 Z0.448
G1 X-11.96 Y-14.79 Z0.447
G1 X-15.91 Y-18.74 Z0.47 E164.345 F360
G1 X-15.49 Y-18.89 Z0.463 F3000
G1 X-11.66 Y-15.06 Z0.441 E164.685 F360
G1 X-11.9 Y-15.33 Z0.442 F3000
G1 X-12.48 Y-14.81 Z0.454
G1 X-11.6 Y-15.6 Z0.436
G1 X-11.36 Y-15.33 Z0.435
G1 X-15.07 Y-19.04 Z0.456 E165.016 F360
G1 X-14.65 Y-19.19 Z0.449 F3000
G1 X-11.06 Y-15.59 Z0.428 E165.335 F360
G1 X-11.3 Y-15.86 Z0.43 F3000
G1 X-10.3 Y-16.76 Z0.409
G1 X-11 Y-16.13 Z0.423
G1 X-10.76 Y-15.86 Z0.422
G1 X-14.23 Y-19.33 Z0.442 E165.644 F360
G1 X-13.82 Y-19.48 Z0.435 F3000
G1 X-10.46 Y-16.13 Z0.416 E165.942 F360
G1 X-10.7 Y-16.4 Z0.417 F3000
G1 X-10.3 Y-16.76 Z0.409
G1 X-10.4 Y-16.66 Z0.411
G1 X-10.16 Y-16.39 Z0.41
G1 X-13.4 Y-19.63 Z0.428 E166.23 F360
G1 X-12.98 Y-19.78 Z0.421 F3000
G1 X-9.78 Y-16.57 Z0.403 E166.515 F360
G1 X-9.91 Y-16.91 Z0.402 F3000
G1 X-10.3 Y-16.76 Z0.409
G1 X-9.56 Y-17.05 Z0.396
G1 X-9.47 Y-16.83 Z0.396
G1 X-12.56 Y-19.92 Z0.414 E166.789 F360
G1 X-12.14 Y-20.07 Z0.408 F3000
G1 X-9.51 Y-17.44 Z0.392 E167.023 F360
G1 X-9.43 Y-17.92 Z0.387 F3000
G1 X-11.73 Y-20.22 Z0.401 E167.227 F360
G1 X-11.31 Y-20.37 Z0.394 F3000
G1 X-9.35 Y-18.41 Z0.382 E167.401 F360
G1 X-9.27 Y-18.9 Z0.377 F3000
G1 X-10.89 Y-20.51 Z0.387 E167.545 F360
G1 X-10.47 Y-20.66 Z0.38 F3000
G1 X-9.19 Y-19.38 Z0.372 E167.659 F360
G1 X-9.06 Y-19.82 Z0.367 F3000
G1 X-10.05 Y-20.81 Z0.373 E167.748 F360
G1 X-9.63 Y-20.96 Z0.366 F3000
G1 X-8.91 Y-20.23 Z0.361 E167.812 F360
G1 X-8.8 Y-20.69 Z0.356 F3000
G1 X-9.22 Y-21.11 Z0.359 E167.849 F360
G1 X-17.44 Y-12.54 Z0.541 F3000
G1 X-19.32 Y-12.54 Z0.567
G1 X-14.79 Y-8.01 Z0.541 E168.252 F360
G1 X-16.91 Y-9.56 Z0.558 F3000
G1 X-19.38 Y-12.03 Z0.572 E168.472 F360
G1 X-19.43 Y-11.52 Z0.577 F3000
G1 X-18.42 Y-10.51 Z0.571 E168.563 F360
G1  E167.563 F1800
G1 X-17.44 Y-10.51 Z0.558 F3000
G1 X-15.4 Y6.06 Z0.663
G1 X-14.55 Y10.86 Z0.689
G1 X-13.36 Y16.07 Z0.715
G1 X-12.84 Y16.81 Z0.713
G1 X-12.64 Y16.67 Z0.709
; TYPE:SUPPORT-INTERFACE
G1  E168.563 F1800
G1 X-9.85 Y20.55 Z0.702 E168.863 F360
G1 X-10.49 Y20.21 Z0.708 E168.909
G1 X-12.47 Y17.4 Z0.713 E169.125
G1 X-12.64 Y16.67 Z0.709 E169.172
G1 X-12.84 Y16.81 Z0.713 F3000
G1 X-12.87 Y16.83 Z0.714
G1 X-12.33 Y16.57 Z0.704 E169.21 F360
G1 X-12.76 Y17.29 Z0.716 E169.263
G1 X-12.59 Y17.68 Z0.717 F3000
G1 X-11.98 Y17.07 Z0.704 E169.317 F360
G1 X-11.74 Y17.4 Z0.703 F3000
G1 X-12.36 Y18.01 Z0.716 E169.371 F360
G1 X-12.12 Y18.35 Z0.716 F3000
G1 X-11.51 Y17.74 Z0.702 E169.425 F360
G1 X-11.28 Y18.07 Z0.702 F3000
G1 X-11.89 Y18.68 Z0.715 E169.48 F360
G1 X-11.65 Y19.01 Z0.715 F3000
G1 X-11.04 Y18.4 Z0.701 E169.534 F360
G1 X-10.81 Y18.73 Z0.701 F3000
G1 X-11.42 Y19.34 Z0.714 E169.588 F360
G1 X-11.19 Y19.68 Z0.713 F3000
G1 X-10.58 Y19.07 Z0.7 E169.642 F360
G1 X-10.35 Y19.4 Z0.7 F3000
G1 X-10.95 Y20.01 Z0.713 E169.696 F360
G1 X-10.72 Y20.34 Z0.712 F3000
G1 X-10.11 Y19.73 Z0.699 E169.75 F360
G1 X-9.88 Y20.06 Z0.698 F3000
G1 X-10.38 Y20.57 Z0.709 E169.795 F360
G1 X-10.05 Y20.79 Z0.707 F3000
G1 X-10.01 Y20.76 Z0.706
G1 X-9.65 Y20.4 Z0.698 E169.827 F360
; Layer Change GCode
; LAYER:1
M400
M106 S89
G1  E168.827 F1800
G1 X-9.71 Y19.9 Z1.095 F3000
G1 X-9.3 Y19.44 Z1.085
G1 X-5.75 Y-5.83 Z0.833
G1 X-5.31 Y-6.12 Z0.825
G1 X-5.66 Y-6.46 Z0.827
G1 X-5.94 Y-6.18 Z0.833
G1 X-5.66 Y-6.46 Z0.827
G1 X-5.31 Y-6.12 Z0.825
G1 X-6.27 Y-2.62 Z0.866
; TYPE:WALL-INNER
G1  E169.827 F1800
G1 X-1.54 Y-5.72 Z0.776 E170.183
G1 X-6.95 Y-11.18 Z0.807 E170.667
G1 X-7.03 Y-12.15 Z0.8 E170.728
G1 X-7.9 Y-13.08 Z0.805 E170.808
G1 X-5.69 Y-13.95 Z0.767 E170.957
G1 X-4.09 Y-13.3 Z0.75 E171.066
G1 X-2.08 Y-15.94 Z0.701 E171.275
G1 X-0.57 Y-17.56 Z0.667 E171.414
G1 X0.63 Y-17.33 Z0.653 E171.491
G1 X2 Y-10.41 Z0.689 E171.934
G1 X5.55 Y-7.41 Z0.664 E172.226
G1 X9.92 Y-7.31 Z0.604 E172.501
G1 X10.92 Y-7.16 Z0.592 E172.564
G1 X11.25 Y-5.68 Z0.599 E172.66
G1 X12.75 Y0.08 Z0.624 E173.034
G1 X14.18 Y2.57 Z0.625 E173.215
G1 X13.33 Y8.88 Z0.687 E173.615
G1 X13.28 Y9.54 Z0.693 E173.657
G1 X13.04 Y9.65 Z0.697 E173.673
G1 X11.88 Y12.63 Z0.737 E173.874
G1 X8.6 Y17.49 Z0.822 E174.243
G1 X6.24 Y19.92 Z0.874 E174.456
G1 X4.08 Y20.57 Z0.909 E174.598
G1 X0.88 Y21.27 Z0.959 E174.804
G1 X-2.55 Y19.83 Z0.995 E175.038
G1 X-5 Y18.24 Z1.016 E175.221
G1 X-6.88 Y18.02 Z1.041 E175.34
G1 X-7.66 Y17.6 Z1.048 E175.396
G1 X-9.37 Y15.17 Z1.052 E175.583
G1 X-10.64 Y9.57 Z1.025 E175.944
G1 X-11.21 Y6.37 Z1.007 E176.148
G1 X-11.59 Y2.89 Z0.984 E176.368
G1 X-6.27 Y-2.62 Z0.866 E176.85
G1 X-6.53 Y-2.93 Z0.867 F3000
G1 X-2.17 Y-5.78 Z0.784 E177.178 F1800
G1 X-7.34 Y-11 Z0.814 E177.64
G1 X-7.41 Y-11.97 Z0.807 E177.701
G1 X-8.48 Y-13.11 Z0.813 E177.799
G1 X-8.13 Y-13.41 Z0.805 E177.828
G1 X-5.69 Y-14.38 Z0.764 E177.993
G1 X-4.23 Y-13.78 Z0.748 E178.092
G1 X-2.39 Y-16.2 Z0.704 E178.283
G1 X-0.71 Y-17.99 Z0.666 E178.437
G1 X0.97 Y-17.67 Z0.645 E178.545
G1 X2.37 Y-10.62 Z0.682 E178.996
G1 X5.7 Y-7.81 Z0.659 E179.271
G1 X9.96 Y-7.71 Z0.601 E179.539
G1 X11.25 Y-7.52 Z0.584 E179.621
G1 X11.64 Y-5.78 Z0.593 E179.733
G1 X13.13 Y-0.08 Z0.618 E180.103
G1 X14.59 Y2.49 Z0.618 E180.289
G1 X13.73 Y8.92 Z0.682 E180.697
G1 X13.66 Y9.81 Z0.69 E180.753
G1 X13.35 Y9.95 Z0.695 E180.774
G1 X12.24 Y12.82 Z0.734 E180.968
G1 X8.91 Y17.75 Z0.82 E181.342
G1 X6.46 Y20.27 Z0.874 E181.563
G1 X4.18 Y20.95 Z0.911 E181.713
G1 X0.84 Y21.69 Z0.963 E181.928
G1 X-2.74 Y20.18 Z1 E182.172
G1 X-5.14 Y18.63 Z1.021 E182.352
G1 X-7 Y18.41 Z1.045 E182.47
G1 X-7.94 Y17.9 Z1.054 E182.537
G1 X-9.74 Y15.33 Z1.059 E182.734
G1 X-11.03 Y9.64 Z1.031 E183.101
G1 X-11.6 Y6.44 Z1.013 E183.305
G1 X-12.01 Y2.75 Z0.989 E183.539
G1 X-6.53 Y-2.93 Z0.867 E184.035
G1 X-6.79 Y-3.24 Z0.869 F3000
G1 X-2.8 Y-5.85 Z0.792 E184.335 F1800
G1 X-7.73 Y-10.83 Z0.821 E184.776
G1 X-7.8 Y-11.8 Z0.814 E184.837
G1 X-9.05 Y-13.13 Z0.82 E184.952
G1 X-8.35 Y-13.76 Z0.806 E185.011
G1 X-5.69 Y-14.81 Z0.76 E185.191
G1 X-4.36 Y-14.27 Z0.746 E185.281
G1 X-2.7 Y-16.46 Z0.706 E185.454
G1 X-0.85 Y-18.43 Z0.664 E185.623
G1 X1.1 Y-18.05 Z0.64 E185.749
G1 X1.32 Y-17.94 Z0.638 E185.764
G1 X2.73 Y-10.84 Z0.676 E186.219
G1 X5.85 Y-8.21 Z0.654 E186.476
G1 X9.99 Y-8.11 Z0.597 E186.736
G1 X11.58 Y-7.87 Z0.577 E186.837
G1 X12.02 Y-5.87 Z0.587 E186.966
G1 X13.5 Y-0.23 Z0.612 E187.333
G1 X15 Y2.41 Z0.612 E187.524
G1 X14.13 Y8.96 Z0.677 E187.939
G1 X14.05 Y10.07 Z0.687 E188.01
G1 X13.67 Y10.25 Z0.693 E188.036
G1 X12.59 Y13.01 Z0.73 E188.222
G1 X9.22 Y18 Z0.817 E188.601
G1 X6.67 Y20.62 Z0.874 E188.831
G1 X4.28 Y21.34 Z0.913 E188.988
G1 X0.81 Y22.11 Z0.967 E189.212
G1 X-2.92 Y20.53 Z1.006 E189.467
G1 X-5.28 Y19.02 Z1.026 E189.643
G1 X-7.12 Y18.8 Z1.05 E189.759
G1 X-8.21 Y18.21 Z1.061 E189.837
G1 X-10.12 Y15.5 Z1.065 E190.046
G1 X-11.43 Y9.73 Z1.037 E190.417
G1 X-12 Y6.5 Z1.019 E190.624
G1 X-12.42 Y2.61 Z0.994 E190.87
G1 X-6.79 Y-3.24 Z0.869 E191.381
G1 X-7.04 Y-3.55 Z0.87 F3000
G1 X-3.42 Y-5.92 Z0.8 E191.652 F1800
G1 X-8.12 Y-10.65 Z0.827 E192.072
G1 X-8.19 Y-11.63 Z0.821 E192.133
G1 X-9.62 Y-13.16 Z0.828 E192.265
G1 X-8.56 Y-14.1 Z0.806 E192.354
G1 X-5.69 Y-15.24 Z0.757 E192.549
G1 X-4.49 Y-14.75 Z0.744 E192.63
G1 X-3 Y-16.72 Z0.708 E192.785
G1 X-1 Y-18.86 Z0.663 E192.969
G1 X1.23 Y-18.43 Z0.635 E193.112
G1 X1.67 Y-18.22 Z0.631 E193.143
G1 X3.1 Y-11.05 Z0.669 E193.602
G1 X6 Y-8.6 Z0.648 E193.841
G1 X10.03 Y-8.51 Z0.593 E194.095
G1 X11.91 Y-8.23 Z0.569 E194.214
G1 X12.41 Y-5.96 Z0.581 E194.36
G1 X13.88 Y-0.38 Z0.605 E194.723
G1 X15.42 Y2.33 Z0.606 E194.919
G1 X14.53 Y9 Z0.672 E195.342
G1 X14.43 Y10.34 Z0.684 E195.426
G1 X13.98 Y10.54 Z0.691 E195.457
G1 X12.95 Y13.2 Z0.727 E195.636
G1 X9.53 Y18.25 Z0.815 E196.02
G1 X6.89 Y20.98 Z0.873 E196.259
G1 X4.37 Y21.73 Z0.914 E196.424
G1 X0.77 Y22.53 Z0.971 E196.656
G1 X-3.11 Y20.89 Z1.011 E196.921
G1 X-5.42 Y19.4 Z1.031 E197.093
G1 X-7.25 Y19.18 Z1.055 E197.209
G1 X-8.48 Y18.52 Z1.067 E197.297
G1 X-10.49 Y15.66 Z1.072 E197.517
G1 X-11.82 Y9.81 Z1.043 E197.894
G1 X-12.4 Y6.55 Z1.025 E198.102
G1 X-12.84 Y2.47 Z0.998 E198.361
G1 X-7.04 Y-3.55 Z0.87 E198.886
G1 X-7.3 Y-3.86 Z0.871 F3000
G1 X-4.05 Y-5.98 Z0.809 E199.13 F1800
G1 X-8.51 Y-10.47 Z0.834 E199.528
G1 X-8.58 Y-11.46 Z0.827 E199.59
G1 X-10.19 Y-13.18 Z0.836 E199.739
G1 X-8.78 Y-14.45 Z0.806 E199.858
G1 X-5.69 Y-15.67 Z0.753 E200.067
G1 X-4.63 Y-15.24 Z0.742 E200.139
G1 X-3.3 Y-16.98 Z0.71 E200.276
G1 X-1.14 Y-19.29 Z0.661 E200.476
G1 X1.36 Y-18.81 Z0.631 E200.635
G1 X2.03 Y-18.49 Z0.624 E200.682
G1 X3.46 Y-11.27 Z0.662 E201.145
G1 X6.15 Y-9 Z0.643 E201.366
G1 X10.06 Y-8.91 Z0.589 E201.613
G1 X12.24 Y-8.58 Z0.562 E201.751
G1 X12.8 Y-6.06 Z0.574 E201.914
G1 X14.25 Y-0.53 Z0.599 E202.273
G1 X15.83 Y2.25 Z0.599 E202.474
G1 X14.92 Y9.04 Z0.666 E202.905
G1 X14.81 Y10.6 Z0.68 E203.003
G1 X14.3 Y10.84 Z0.689 E203.039
G1 X13.31 Y13.38 Z0.724 E203.211
G1 X9.85 Y18.5 Z0.813 E203.599
G1 X7.1 Y21.33 Z0.873 E203.847
G1 X4.49 Y22.11 Z0.916 E204.019
G1 X0.73 Y22.95 Z0.975 E204.261
G1 X-3.3 Y21.24 Z1.017 E204.536
G1 X-5.56 Y19.79 Z1.036 E204.705
G1 X-7.37 Y19.57 Z1.06 E204.819
G1 X-8.75 Y18.83 Z1.073 E204.918
G1 X-10.86 Y15.82 Z1.078 E205.149
G1 X-12.21 Y9.89 Z1.049 E205.532
G1 X-12.79 Y6.62 Z1.031 E205.74
G1 X-13.26 Y2.32 Z1.003 E206.012
G1 X-7.3 Y-3.86 Z0.871 E206.552
G1 X-7.56 Y-4.17 Z0.872 F3000
G1 X-4.68 Y-6.05 Z0.817 E206.768 F1800
G1 X-8.89 Y-10.3 Z0.841 E207.144
G1 X-8.97 Y-11.29 Z0.834 E207.207
G1 X-10.76 Y-13.2 Z0.844 E207.371
G1 X-10.75 Y-13.22 Z0.843 E207.372
G1 X-8.99 Y-14.8 Z0.806 E207.521
G1 X-5.68 Y-16.1 Z0.75 E207.745
G1 X-4.76 Y-15.73 Z0.74 E207.807
G1 X-3.61 Y-17.24 Z0.712 E207.927
G1 X-1.28 Y-19.73 Z0.66 E208.141
G1 X1.48 Y-19.2 Z0.626 E208.318
G1 X2.38 Y-18.77 Z0.617 E208.381
G1 X3.83 Y-11.49 Z0.655 E208.848
G1 X6.3 Y-9.4 Z0.638 E209.051
G1 X10.09 Y-9.31 Z0.586 E209.29
G1 X12.57 Y-8.93 Z0.555 E209.447
G1 X13.19 Y-6.15 Z0.568 E209.626
G1 X14.62 Y-0.68 Z0.592 E209.982
G1 X16.25 Y2.17 Z0.593 E210.189
G1 X15.32 Y9.08 Z0.661 E210.627
G1 X15.19 Y10.87 Z0.677 E210.739
G1 X14.61 Y11.13 Z0.687 E210.78
G1 X13.66 Y13.57 Z0.72 E210.944
G1 X10.16 Y18.76 Z0.81 E211.338
G1 X7.32 Y21.69 Z0.873 E211.594
G1 X4.58 Y22.5 Z0.918 E211.774
G1 X0.69 Y23.37 Z0.979 E212.024
G1 X-3.48 Y21.6 Z1.022 E212.309
G1 X-5.7 Y20.17 Z1.041 E212.475
G1 X-7.49 Y19.96 Z1.065 E212.589
G1 X-9.03 Y19.13 Z1.079 E212.698
G1 X-11.23 Y15.99 Z1.085 E212.94
G1 X-12.6 Y9.98 Z1.055 E213.327
G1 X-13.19 Y6.66 Z1.037 E213.54
G1 X-13.68 Y2.18 Z1.008 E213.823
G1 X-7.56 Y-4.17 Z0.872 E214.377
G1 X-7.81 Y-4.48 Z0.873 F3000
G1 X-5.31 Y-6.12 Z0.825 E214.565 F1800
G1 X-9.28 Y-10.12 Z0.848 E214.92
G1 X-9.36 Y-11.12 Z0.841 E214.983
G1 X-11.18 Y-13.06 Z0.85 E215.15
G1 X-11.13 Y-13.42 Z0.847 E215.173
G1 X-9.2 Y-15.14 Z0.806 E215.336
G1 X-5.68 Y-16.53 Z0.746 E215.574
G1 X-4.89 Y-16.21 Z0.738 E215.627
G1 X-3.92 Y-17.49 Z0.714 E215.729
G1 X-1.42 Y-20.16 Z0.658 E215.958
G1 X1.61 Y-19.58 Z0.621 E216.152
G1 X2.73 Y-19.04 Z0.61 E216.231
G1 X4.19 Y-11.7 Z0.648 E216.701
G1 X6.45 Y-9.79 Z0.632 E216.887
G1 X10.13 Y-9.71 Z0.582 E217.119
G1 X12.9 Y-9.29 Z0.547 E217.295
G1 X13.58 Y-6.25 Z0.562 E217.491
G1 X15 Y-0.84 Z0.586 E217.842
G1 X16.66 Y2.09 Z0.586 E218.054
G1 X15.72 Y9.13 Z0.656 E218.501
G1 X15.57 Y11.13 Z0.674 E218.627
G1 X14.92 Y11.43 Z0.685 E218.672
G1 X14.02 Y13.76 Z0.717 E218.829
G1 X10.47 Y19.01 Z0.808 E219.228
G1 X7.53 Y22.04 Z0.873 E219.493
G1 X4.68 Y22.89 Z0.919 E219.68
G1 X0.65 Y23.78 Z0.982 E219.939
G1 X-3.68 Y21.95 Z1.028 E220.235
G1 X-5.84 Y20.56 Z1.046 E220.397
G1 X-7.62 Y20.35 Z1.069 E220.509
G1 X-9.3 Y19.44 Z1.085 E220.63
G1 X-11.61 Y16.16 Z1.091 E220.882
G1 X-12.99 Y10.05 Z1.061 E221.275
G1 X-13.59 Y6.71 Z1.043 E221.489
G1 X-14.1 Y2.04 Z1.012 E221.784
G1 X-7.81 Y-4.48 Z0.873 E222.354
G1 X-8.07 Y-4.79 Z0.874 F3000
; TYPE:WALL-OUTER
G1 X-5.94 Y-6.18 Z0.833 E222.514 F1800
G1 X-9.67 Y-9.94 Z0.855 E222.847
G1 X-9.74 Y-10.95 Z0.848 E222.91
G1 X-11.6 Y-12.93 Z0.857 E223.081
G1 X-11.51 Y-13.62 Z0.851 E223.124
G1 X-9.42 Y-15.49 Z0.807 E223.301
G1 X-5.68 Y-16.96 Z0.743 E223.553
G1 X-5.03 Y-16.7 Z0.736 E223.598
G1 X-4.23 Y-17.75 Z0.717 E223.681
G1 X-1.56 Y-20.6 Z0.657 E223.926
G1 X1.74 Y-19.96 Z0.616 E224.137
G1 X3.09 Y-19.31 Z0.603 E224.232
G1 X4.55 Y-11.92 Z0.642 E224.706
G1 X6.6 Y-10.19 Z0.627 E224.874
G1 X10.16 Y-10.11 Z0.578 E225.098
G1 X13.23 Y-9.64 Z0.54 E225.293
G1 X13.97 Y-6.34 Z0.556 E225.506
G1 X15.37 Y-0.99 Z0.58 E225.854
G1 X17.08 Y2.01 Z0.58 E226.071
G1 X16.12 Y9.17 Z0.651 E226.525
G1 X15.96 Y11.4 Z0.671 E226.665
G1 X15.24 Y11.73 Z0.684 E226.715
G1 X14.38 Y13.94 Z0.713 E226.865
G1 X10.78 Y19.26 Z0.806 E227.269
G1 X7.75 Y22.39 Z0.873 E227.542
G1 X4.77 Y23.28 Z0.921 E227.738
G1 X0.62 Y24.2 Z0.986 E228.005
G1 X-3.86 Y22.31 Z1.033 E228.311
G1 X-5.98 Y20.95 Z1.052 E228.469
G1 X-7.74 Y20.73 Z1.074 E228.581
G1 X-9.57 Y19.75 Z1.092 E228.712
G1 X-11.98 Y16.32 Z1.098 E228.975
G1 X-13.39 Y10.12 Z1.067 E229.375
G1 X-13.98 Y6.78 Z1.049 E229.588
G1 X-14.51 Y1.89 Z1.017 E229.897
G1 X-8.07 Y-4.79 Z0.874 E230.481
G1 X-7.81 Y-4.48 Z0.873 F3000
G1 X-4.62 Y-3.3 Z0.838
; TYPE:FILL
G1 X-11.2 Y3.29 Z0.982 E231.067 F1200
G1 X-11.15 Y3.8 Z0.985 F3000
G1 X-2.99 Y-4.36 Z0.807 E231.793 F1200
G1 X-1.36 Y-5.43 Z0.776 F3000
G1 X-11.09 Y4.31 Z0.989 E232.658 F1200
G1 X-11.03 Y4.82 Z0.992 F3000
G1 X2.95 Y-9.16 Z0.686 E233.902 F1200
G1 X2.64 Y-9.42 Z0.688 F3000
G1 X-1.06 Y-5.72 Z0.769 E234.231 F1200
G1 X-1.35 Y-6 Z0.771 F3000
G1 X2.33 Y-9.68 Z0.69 E234.558 F1200
G1 X2.03 Y-9.94 Z0.693 F3000
G1 X-1.63 Y-6.29 Z0.773 E234.883 F1200
G1 X-1.91 Y-6.57 Z0.774 F3000
G1 X1.72 Y-10.2 Z0.695 E235.206 F1200
G1 X1.61 Y-10.65 Z0.693 F3000
G1 X-2.19 Y-6.86 Z0.776 E235.544 F1200
G1 X-2.47 Y-7.14 Z0.777 F3000
G1 X1.51 Y-11.12 Z0.69 E235.898 F1200
G1 X1.42 Y-11.6 Z0.688 F3000
G1 X-2.75 Y-7.42 Z0.779 E236.269 F1200
G1 X-3.03 Y-7.71 Z0.781 F3000
G1 X1.32 Y-12.07 Z0.685 E236.656 F1200
G1 X1.23 Y-12.54 Z0.683 F3000
G1 X-3.32 Y-7.99 Z0.782 E237.06 F1200
G1 X-3.6 Y-8.28 Z0.784 F3000
G1 X1.14 Y-13.01 Z0.68 E237.482 F1200
G1 X1.04 Y-13.48 Z0.678 F3000
G1 X-3.88 Y-8.56 Z0.785 E237.919 F1200
G1 X-4.16 Y-8.84 Z0.787 F3000
G1 X0.95 Y-13.96 Z0.675 E238.374 F1200
G1 X0.86 Y-14.43 Z0.673 F3000
G1 X-4.44 Y-9.13 Z0.789 E238.845 F1200
G1 X-4.72 Y-9.41 Z0.79 F3000
G1 X0.76 Y-14.9 Z0.67 E239.333 F1200
G1 X0.67 Y-15.37 Z0.668 F3000
G1 X-5 Y-9.7 Z0.792 E239.837 F1200
G1 X-5.29 Y-9.98 Z0.794 F3000
G1 X0.57 Y-15.84 Z0.665 E240.359 F1200
G1 X0.48 Y-16.32 Z0.663 F3000
G1 X-5.57 Y-10.27 Z0.795 E240.897 F1200
G1 X-5.85 Y-10.55 Z0.797 F3000
G1 X0.39 Y-16.79 Z0.66 E241.451 F1200
G1 X0.11 Y-17.08 Z0.662 F3000
G1 X-3.66 Y-13.31 Z0.744 E241.787 F1200
G1 X-4.05 Y-12.91 Z0.753 F3000
G1 X-6.13 Y-10.83 Z0.798 E241.971 F1200
G1 X-6.41 Y-11.12 Z0.8 F3000
G1 X-4.46 Y-13.08 Z0.757 E242.145 F1200
G1 X-4.86 Y-13.24 Z0.761 F3000
G1 X-6.63 Y-11.46 Z0.8 E242.303 F1200
G1 X-6.67 Y-11.99 Z0.797 F3000
G1 X-5.26 Y-13.4 Z0.766 E242.429 F1200
G1 X-5.66 Y-13.57 Z0.77 F3000
G1 X-6.81 Y-12.41 Z0.795 E242.531 F1200
G1 X-7.09 Y-12.71 Z0.797 F3000
G1 X-6.55 Y-13.24 Z0.785 E242.579 F1200
G1 X-1.86 Y-15.67 Z0.7 F3000
G1 X-0.36 Y-17.17 Z0.668 E242.712 F1200
G1 X3.25 Y-8.91 Z0.684 F3000
G1 X-10.98 Y5.33 Z0.995 E243.978 F1200
G1 X-10.92 Y5.84 Z0.999 F3000
G1 X3.56 Y-8.65 Z0.682 E245.266 F1200
G1 X3.87 Y-8.39 Z0.68 F3000
G1 X-10.87 Y6.35 Z1.002 E246.576 F1200
G1 X-10.78 Y6.83 Z1.005 F3000
G1 X4.17 Y-8.13 Z0.677 E247.906 F1200
G1 X4.48 Y-7.87 Z0.675 F3000
G1 X-10.7 Y7.31 Z1.007 E249.256 F1200
G1 X-10.61 Y7.79 Z1.01 F3000
G1 X4.79 Y-7.61 Z0.673 E250.625 F1200
G1 X5.09 Y-7.35 Z0.671 F3000
G1 X-10.53 Y8.27 Z1.013 E252.014 F1200
G1 X-10.44 Y8.75 Z1.015 F3000
G1 X5.4 Y-7.09 Z0.669 E253.423 F1200
G1 X5.94 Y-7.06 Z0.661 F3000
G1 X-10.36 Y9.23 Z1.018 E254.872 F1200
G1 X-10.26 Y9.7 Z1.021 F3000
G1 X6.49 Y-7.05 Z0.654 E256.362 F1200
G1 X7.04 Y-7.04 Z0.646 F3000
G1 X-10.16 Y10.16 Z1.023 E257.891 F1200
G1 X-10.05 Y10.62 Z1.025 F3000
G1 X7.6 Y-7.03 Z0.639 E259.461 F1200
G1 X8.15 Y-7.01 Z0.631 F3000
G1 X-9.95 Y11.08 Z1.027 E261.07 F1200
G1 X-9.84 Y11.55 Z1.03 F3000
G1 X8.7 Y-7 Z0.624 E262.72 F1200
G1 X9.26 Y-6.99 Z0.616 F3000
G1 X-9.74 Y12.01 Z1.032 E264.409 F1200
G1 X-9.63 Y12.47 Z1.034 F3000
G1 X9.81 Y-6.98 Z0.609 E266.138 F1200
G1 X10.31 Y-6.91 Z0.602 F3000
G1 X-9.53 Y12.93 Z1.036 E267.902 F1200
G1 X-9.42 Y13.39 Z1.039 F3000
G1 X10.67 Y-6.71 Z0.599 E269.689 F1200
G1 X10.77 Y-6.24 Z0.601 F3000
G1 X-9.32 Y13.85 Z1.041 E271.476 F1200
G1 X-9.22 Y14.31 Z1.043 F3000
G1 X10.88 Y-5.78 Z0.603 E273.263 F1200
G1 X10.99 Y-5.33 Z0.605 F3000
G1 X-9.11 Y14.77 Z1.045 E275.051 F1200
G1 X-8.95 Y15.18 Z1.046 F3000
G1 X11.11 Y-4.88 Z0.607 E276.834 F1200
G1 X11.22 Y-4.43 Z0.609 F3000
G1 X-8.71 Y15.51 Z1.046 E278.607 F1200
G1 X-8.48 Y15.84 Z1.045 F3000
G1 X11.34 Y-3.98 Z0.611 E280.37 F1200
G1 X11.46 Y-3.53 Z0.613 F3000
G1 X-8.25 Y16.17 Z1.045 E282.123 F1200
G1 X-8.01 Y16.51 Z1.044 F3000
G1 X11.58 Y-3.09 Z0.615 E283.865 F1200
G1 X11.69 Y-2.64 Z0.617 F3000
G1 X-7.78 Y16.84 Z1.044 E285.597 F1200
G1 X-7.55 Y17.17 Z1.043 F3000
G1 X11.81 Y-2.19 Z0.619 E287.318 F1200
G1 X11.93 Y-1.74 Z0.621 F3000
G1 X-7.25 Y17.43 Z1.041 E289.024 F1200
G1 X-6.88 Y17.63 Z1.037 F3000
G1 X12.04 Y-1.29 Z0.623 E290.706 F1200
G1 X12.16 Y-0.84 Z0.625 F3000
G1 X-6.41 Y17.73 Z1.032 E292.358 F1200
G1 X-5.91 Y17.79 Z1.025 F3000
G1 X12.28 Y-0.4 Z0.627 E293.975 F1200
G1 X12.4 Y0.05 Z0.629 F3000
G1 X-5.4 Y17.85 Z1.019 E295.558 F1200
G1 X-4.9 Y17.91 Z1.012 F3000
G1 X12.57 Y0.44 Z0.63 E297.112 F1200
G1 X12.78 Y0.8 Z0.63 F3000
G1 X-4.55 Y18.13 Z1.009 E298.653 F1200
G1 X-4.2 Y18.35 Z1.006 F3000
G1 X12.98 Y1.16 Z0.63 E300.181 F1200
G1 X13.19 Y1.52 Z0.63 F3000
G1 X-3.86 Y18.57 Z1.003 E301.697 F1200
G1 X-3.52 Y18.79 Z1 F3000
G1 X13.39 Y1.89 Z0.63 E303.201 F1200
G1 X13.6 Y2.25 Z0.63 F3000
G1 X-3.17 Y19.02 Z0.997 E304.692 F1200
G1 X-2.83 Y19.24 Z0.994 F3000
G1 X13.8 Y2.61 Z0.63 E306.171 F1200
G1 X13.74 Y3.23 Z0.636 F3000
G1 X-2.48 Y19.46 Z0.991 E307.615 F1200
G1 X-2.1 Y19.64 Z0.987 F3000
G1 X13.66 Y3.88 Z0.642 E309.016 F1200
G1 X13.57 Y4.54 Z0.649 F3000
G1 X-1.7 Y19.81 Z0.983 E310.375 F1200
G1 X-1.31 Y19.98 Z0.979 F3000
G1 X13.48 Y5.19 Z0.655 E311.69 F1200
G1 X13.39 Y5.84 Z0.662 F3000
G1 X-0.91 Y20.15 Z0.975 E312.962 F1200
G1 X-0.51 Y20.32 Z0.971 F3000
G1 X13.31 Y6.5 Z0.668 E314.191 F1200
G1 X13.22 Y7.15 Z0.675 F3000
G1 X-0.11 Y20.48 Z0.967 E315.377 F1200
G1 X0.28 Y20.65 Z0.962 F3000
G1 X13.13 Y7.8 Z0.681 E316.52 F1200
G1 X13.04 Y8.46 Z0.688 F3000
G1 X0.68 Y20.82 Z0.958 E317.619 F1200
G1 X1.21 Y20.85 Z0.951 F3000
G1 X12.97 Y9.09 Z0.694 E318.665 F1200
G1 X12.48 Y10.15 Z0.709 F3000
G1 X1.94 Y20.69 Z0.94 E319.602 F1200
G1 X2.67 Y20.53 Z0.928 F3000
G1 X12.12 Y11.08 Z0.721 E320.443 F1200
G1 X11.76 Y12 Z0.734 F3000
G1 X3.4 Y20.37 Z0.917 E321.187 F1200
G1 X4.13 Y20.19 Z0.905 F3000
G1 X11 Y13.33 Z0.755 E321.797 F1200
G1 X9.82 Y15.07 Z0.785 F3000
G1 X4.94 Y19.95 Z0.892 E322.231 F1200
G1 X5.75 Y19.71 Z0.879 F3000
G1 X8.64 Y16.82 Z0.816 E322.488 F1200
G1  E321.488 F1800
G1 X12.4 Y19.36 Z0.784 F3000
G1 X11.87 Y20.15 Z0.798
G1 X8.5 Y23.63 Z0.873
G1 X5.13 Y24.63 Z0.927
G1 X0.48 Y25.67 Z1
G1 X-8.17 Y22.09 Z1.091
G1 X-10.53 Y20.82 Z1.114
G1 X-13.28 Y16.9 Z1.12
G1 X-14.76 Y10.4 Z1.089
G1 X-15.37 Y6.98 Z1.069
G1 X-15.98 Y1.4 Z1.033
G1 X-11.22 Y-7.7 Z0.894
; TYPE:SUPPORT
G1  E322.488 F1800
G1 X-19.3 Y-15.79 Z0.941 E323.208 F3600
G1 X-17.52 Y-15.79 Z0.917 F3000
G1 X-17.52 Y-17.89 Z0.9
G1 X-17.87 Y-17.89 Z0.904
G1 X-12.68 Y-12.7 Z0.874 E323.669 F3600
G1 X-13.04 Y-12.75 Z0.879 F3000
G1 X-12.82 Y-14.32 Z0.863
G1 X-11.72 Y-15.3 Z0.84
G1 X-11.48 Y-15.03 Z0.839
G1 X-15.38 Y-18.93 Z0.862 E324.016 F3600
G1 X-12.76 Y-19.85 Z0.818 F3000
G1 X-9.57 Y-16.65 Z0.799 E324.3 F3600
G1 X-9.66 Y-16.89 Z0.799 F3000
G1 X-9.04 Y-19.66 Z0.768
G1 X-10.15 Y-20.78 Z0.774 E324.399 F3600
G1 X-17.52 Y-12.29 Z0.945 F3000
G1 X-19.34 Y-12.29 Z0.97
G1 X-16.32 Y-9.27 Z0.952 E324.668 F3600
G1 X-16.01 Y-8.96 Z0.95 F3000
G1 X-15.45 Y-8.39 Z0.947 E324.718 F3600
G1  E323.718 F1800
G1 X-15.98 Y1.4 Z1.033 F3000
G1 X-15.37 Y6.98 Z1.069
G1 X-14.76 Y10.4 Z1.089
G1 X-13.28 Y16.9 Z1.12
G1 X-13.2 Y17.02 Z1.12
G1 X-12.74 Y16.7 Z1.111
; TYPE:SUPPORT-INTERFACE
G1  E324.718 F1800
G1 X-12.86 Y16.82 Z1.114 E324.729 F300
G1 X-13.18 Y17.05 Z1.12 F3000
G1 X-13.28 Y16.9 Z1.12
G1 X-12.96 Y17.36 Z1.119
G1 X-12.5 Y17.04 Z1.111
G1 X-12.75 Y17.28 Z1.116 E324.751 F300
G1 X-12.77 Y17.3 Z1.116 F3000
G1 X-12.84 Y17.37 Z1.118 E324.758 F300
G1 X-12.91 Y17.42 Z1.119 F3000
G1 X-12.74 Y17.84 Z1.12
G1 X-12.27 Y17.37 Z1.11 E324.8 F300
G1 X-12.04 Y17.7 Z1.109 F3000
G1 X-12.64 Y18.3 Z1.123 E324.853 F300
G1 X-12.41 Y18.64 Z1.122 F3000
G1 X-11.8 Y18.03 Z1.109 E324.907 F300
G1 X-11.57 Y18.36 Z1.108 F3000
G1 X-12.18 Y18.97 Z1.122 E324.962 F300
G1 X-11.95 Y19.31 Z1.121 F3000
G1 X-11.34 Y18.7 Z1.108 E325.016 F300
G1 X-11.1 Y19.03 Z1.107 F3000
G1 X-11.71 Y19.64 Z1.121 E325.07 F300
G1 X-11.48 Y19.97 Z1.12 F3000
G1 X-10.87 Y19.36 Z1.107 E325.124 F300
G1 X-10.64 Y19.69 Z1.106 F3000
G1 X-11.25 Y20.3 Z1.119 E325.178 F300
G1 X-10.92 Y20.54 Z1.117 F3000
G1 X-10.4 Y20.03 Z1.105 E325.224 F300
G1 X-10.17 Y20.36 Z1.105 F3000
G1 X-10.55 Y20.74 Z1.113 E325.258 F300
G1 X-10.57 Y20.76 Z1.114 F3000
G1 X-10.53 Y20.82 Z1.114
G1 X-10.15 Y21.03 Z1.11
G1 X-10 Y20.76 Z1.106
G1 X-9.82 Y20.57 Z1.102 E325.274 F300
; Layer Change GCode
; LAYER:2
G1  E324.274 F1800
G1 X-10.21 Y19.9 Z1.502 F3000
G1 X-9.8 Y19.43 Z1.492
G1 X-5.81 Y-5.8 Z1.235
G1 X-5.37 Y-6.09 Z1.226
G1 X-5.71 Y-6.43 Z1.228
G1 X-6 Y-6.15 Z1.234
G1 X-5.71 Y-6.43 Z1.228
G1 X-5.37 Y-6.09 Z1.226
G1 X-6.75 Y-2.32 Z1.275
; TYPE:WALL-INNER
G1  E325.274 F1800
G1 X-1.59 Y-5.69 Z1.177 E325.662
G1 X-6.7 Y-10.84 Z1.206 E326.118
G1 X-6.79 Y-12.06 Z1.198 E326.195
G1 X-7.71 Y-13.03 Z1.203 E326.279
G1 X-6.09 Y-13.67 Z1.175 E326.388
G1 X-4.09 Y-12.86 Z1.154 E326.524
G1 X-1.59 Y-16.15 Z1.093 E326.784
G1 X-0.44 Y-17.39 Z1.067 E326.89
G1 X0.54 Y-17.2 Z1.055 E326.953
G1 X0.68 Y-17.13 Z1.053 E326.963
G1 X1.94 Y-10.81 Z1.087 E327.368
G1 X5.85 Y-7.5 Z1.059 E327.69
G1 X9.33 Y-7.42 Z1.012 E327.909
G1 X10.98 Y-7.17 Z0.991 E328.014
G1 X11.46 Y-5 Z1.002 E328.153
G1 X12.64 Y-0.51 Z1.021 E328.446
G1 X14.4 Y2.59 Z1.022 E328.669
G1 X13.62 Y8.4 Z1.079 E329.038
G1 X13.53 Y9.57 Z1.09 E329.112
G1 X13.13 Y9.76 Z1.097 E329.14
G1 X11.79 Y13.21 Z1.143 E329.373
G1 X9.13 Y17.14 Z1.212 E329.672
G1 X6.14 Y20.22 Z1.278 E329.942
G1 X4.86 Y20.61 Z1.299 E330.025
G1 X0.82 Y21.5 Z1.362 E330.286
G1 X-1.29 Y20.61 Z1.384 E330.43
G1 X-4.38 Y18.62 Z1.411 E330.661
G1 X-6.79 Y18.33 Z1.442 E330.814
G1 X-8.17 Y17.59 Z1.455 E330.912
G1 X-9.29 Y15.99 Z1.458 E331.035
G1 X-10.85 Y9.11 Z1.424 E331.479
G1 X-11.18 Y7.28 Z1.414 E331.595
G1 X-11.67 Y2.79 Z1.385 E331.879
G1 X-6.75 Y-2.32 Z1.275 E332.325
G1 X-7.01 Y-2.63 Z1.277 F3000
G1 X-2.22 Y-5.75 Z1.185 E332.685 F1800
G1 X-7.09 Y-10.67 Z1.213 E333.12
G1 X-7.18 Y-11.89 Z1.205 E333.197
G1 X-8.3 Y-13.08 Z1.211 E333.3
G1 X-8 Y-13.35 Z1.204 E333.325
G1 X-6.09 Y-14.1 Z1.172 E333.454
G1 X-4.23 Y-13.35 Z1.152 E333.581
G1 X-1.9 Y-16.41 Z1.095 E333.823
G1 X-0.58 Y-17.82 Z1.065 E333.944
G1 X0.67 Y-17.58 Z1.05 E334.024
G1 X1.04 Y-17.4 Z1.046 E334.05
G1 X2.3 Y-11.02 Z1.08 E334.459
G1 X6 Y-7.9 Z1.054 E334.763
G1 X9.37 Y-7.82 Z1.008 E334.975
G1 X11.31 Y-7.53 Z0.983 E335.098
G1 X11.85 Y-5.1 Z0.995 E335.255
G1 X13.01 Y-0.66 Z1.015 E335.543
G1 X14.81 Y2.5 Z1.015 E335.772
G1 X14.02 Y8.44 Z1.074 E336.149
G1 X13.92 Y9.84 Z1.087 E336.237
G1 X13.44 Y10.05 Z1.095 E336.27
G1 X12.14 Y13.4 Z1.14 E336.495
G1 X9.44 Y17.39 Z1.209 E336.798
G1 X6.35 Y20.58 Z1.278 E337.077
G1 X4.95 Y21 Z1.301 E337.169
G1 X0.78 Y21.92 Z1.366 E337.438
G1 X-1.48 Y20.97 Z1.389 E337.592
G1 X-4.52 Y19 Z1.416 E337.82
G1 X-6.92 Y18.72 Z1.447 E337.972
G1 X-8.44 Y17.9 Z1.461 E338.08
G1 X-9.66 Y16.15 Z1.464 E338.214
G1 X-11.24 Y9.19 Z1.43 E338.663
G1 X-11.57 Y7.35 Z1.42 E338.781
G1 X-12.09 Y2.65 Z1.389 E339.078
G1 X-7.01 Y-2.63 Z1.277 E339.539
G1 X-7.26 Y-2.94 Z1.278 F3000
G1 X-2.85 Y-5.82 Z1.193 E339.87 F1800
G1 X-7.48 Y-10.49 Z1.22 E340.284
G1 X-7.57 Y-11.71 Z1.211 E340.361
G1 X-8.88 Y-13.11 Z1.218 E340.481
G1 X-8.22 Y-13.7 Z1.204 E340.537
G1 X-6.09 Y-14.54 Z1.168 E340.68
G1 X-4.36 Y-13.83 Z1.15 E340.798
G1 X-2.21 Y-16.66 Z1.097 E341.021
G1 X-0.72 Y-18.26 Z1.064 E341.158
G1 X0.8 Y-17.96 Z1.045 E341.255
G1 X1.39 Y-17.68 Z1.039 E341.297
G1 X2.67 Y-11.24 Z1.073 E341.709
G1 X6.15 Y-8.3 Z1.049 E341.996
G1 X9.4 Y-8.22 Z1.004 E342.201
G1 X11.64 Y-7.88 Z0.976 E342.343
G1 X12.24 Y-5.19 Z0.989 E342.516
G1 X13.39 Y-0.81 Z1.009 E342.801
G1 X15.23 Y2.42 Z1.009 E343.035
G1 X14.42 Y8.48 Z1.069 E343.419
G1 X14.3 Y10.1 Z1.084 E343.521
G1 X13.76 Y10.35 Z1.093 E343.559
G1 X12.5 Y13.58 Z1.136 E343.777
G1 X9.75 Y17.65 Z1.207 E344.085
G1 X6.57 Y20.93 Z1.278 E344.373
G1 X5.06 Y21.38 Z1.302 E344.472
G1 X0.74 Y22.34 Z1.37 E344.75
G1 X-1.66 Y21.32 Z1.395 E344.915
G1 X-4.66 Y19.39 Z1.421 E345.139
G1 X-7.04 Y19.1 Z1.452 E345.289
G1 X-8.71 Y18.21 Z1.467 E345.409
G1 X-10.04 Y16.32 Z1.471 E345.554
G1 X-11.64 Y9.28 Z1.436 E346.008
G1 X-11.97 Y7.41 Z1.426 E346.127
G1 X-12.5 Y2.5 Z1.394 E346.437
G1 X-7.26 Y-2.94 Z1.278 E346.912
G1 X-7.52 Y-3.25 Z1.279 F3000
G1 X-3.48 Y-5.89 Z1.201 E347.216 F1800
G1 X-7.87 Y-10.31 Z1.227 E347.608
G1 X-7.96 Y-11.54 Z1.218 E347.685
G1 X-9.45 Y-13.13 Z1.226 E347.822
G1 X-8.43 Y-14.04 Z1.205 E347.908
G1 X-6.09 Y-14.97 Z1.165 E348.066
G1 X-4.49 Y-14.32 Z1.148 E348.174
G1 X-2.51 Y-16.93 Z1.099 E348.38
G1 X-0.86 Y-18.69 Z1.062 E348.532
G1 X0.92 Y-18.35 Z1.04 E348.647
G1 X1.74 Y-17.95 Z1.032 E348.704
G1 X3.03 Y-11.46 Z1.067 E349.12
G1 X6.3 Y-8.69 Z1.043 E349.389
G1 X9.45 Y-8.62 Z1 E349.587
G1 X11.97 Y-8.24 Z0.969 E349.748
G1 X12.63 Y-5.29 Z0.983 E349.938
G1 X13.76 Y-0.97 Z1.002 E350.218
G1 X15.64 Y2.34 Z1.003 E350.458
G1 X14.81 Y8.52 Z1.064 E350.85
G1 X14.68 Y10.37 Z1.08 E350.966
G1 X14.07 Y10.65 Z1.091 E351.008
G1 X12.85 Y13.77 Z1.133 E351.219
G1 X10.07 Y17.9 Z1.205 E351.532
G1 X6.78 Y21.28 Z1.278 E351.829
G1 X5.15 Y21.77 Z1.304 E351.936
G1 X0.71 Y22.76 Z1.374 E352.222
G1 X-1.85 Y21.68 Z1.4 E352.397
G1 X-4.8 Y19.78 Z1.426 E352.617
G1 X-7.16 Y19.49 Z1.456 E352.767
G1 X-8.99 Y18.51 Z1.474 E352.897
G1 X-10.41 Y16.49 Z1.477 E353.053
G1 X-12.03 Y9.35 Z1.442 E353.513
G1 X-12.36 Y7.46 Z1.432 E353.634
G1 X-12.92 Y2.36 Z1.399 E353.956
G1 X-7.52 Y-3.25 Z1.279 E354.446
G1 X-7.77 Y-3.56 Z1.28 F3000
G1 X-4.11 Y-5.95 Z1.21 E354.721 F1800
G1 X-8.25 Y-10.14 Z1.233 E355.092
G1 X-8.35 Y-11.37 Z1.225 E355.17
G1 X-10.02 Y-13.16 Z1.234 E355.324
G1 X-8.64 Y-14.39 Z1.205 E355.44
G1 X-6.09 Y-15.4 Z1.161 E355.612
G1 X-4.63 Y-14.81 Z1.146 E355.711
G1 X-2.82 Y-17.18 Z1.102 E355.899
G1 X-1 Y-19.13 Z1.061 E356.067
G1 X1.05 Y-18.73 Z1.036 E356.198
G1 X2.1 Y-18.22 Z1.025 E356.271
G1 X3.4 Y-11.67 Z1.06 E356.691
G1 X6.45 Y-9.09 Z1.038 E356.943
G1 X9.48 Y-9.02 Z0.997 E357.133
G1 X12.3 Y-8.59 Z0.961 E357.313
G1 X13.02 Y-5.38 Z0.977 E357.519
G1 X14.13 Y-1.12 Z0.996 E357.796
G1 X16.06 Y2.26 Z0.996 E358.041
G1 X15.21 Y8.56 Z1.059 E358.441
G1 X15.06 Y10.63 Z1.077 E358.571
G1 X14.38 Y10.94 Z1.089 E358.618
G1 X13.21 Y13.96 Z1.13 E358.821
G1 X10.38 Y18.15 Z1.203 E359.14
G1 X7 Y21.64 Z1.277 E359.445
G1 X5.27 Y22.15 Z1.305 E359.559
G1 X0.67 Y23.18 Z1.377 E359.855
G1 X-2.03 Y22.03 Z1.406 E360.039
G1 X-4.94 Y20.16 Z1.431 E360.256
G1 X-7.29 Y19.88 Z1.461 E360.405
G1 X-9.26 Y18.82 Z1.48 E360.546
G1 X-10.78 Y16.65 Z1.484 E360.712
G1 X-12.42 Y9.42 Z1.448 E361.179
G1 X-12.76 Y7.53 Z1.438 E361.3
G1 X-13.34 Y2.22 Z1.403 E361.635
G1 X-7.77 Y-3.56 Z1.28 E362.14
G1 X-8.03 Y-3.87 Z1.281 F3000
G1 X-4.74 Y-6.02 Z1.218 E362.387 F1800
G1 X-8.64 Y-9.96 Z1.24 E362.736
G1 X-8.73 Y-11.2 Z1.232 E362.814
G1 X-10.59 Y-13.18 Z1.241 E362.985
G1 X-8.85 Y-14.73 Z1.205 E363.132
G1 X-6.09 Y-15.83 Z1.158 E363.319
G1 X-4.76 Y-15.29 Z1.144 E363.409
G1 X-3.13 Y-17.44 Z1.104 E363.579
G1 X-1.15 Y-19.56 Z1.059 E363.761
G1 X1.18 Y-19.11 Z1.031 E363.91
G1 X2.45 Y-18.5 Z1.018 E363.999
G1 X3.76 Y-11.89 Z1.053 E364.423
G1 X6.6 Y-9.48 Z1.033 E364.656
G1 X9.51 Y-9.42 Z0.993 E364.839
G1 X12.63 Y-8.94 Z0.954 E365.038
G1 X13.41 Y-5.48 Z0.971 E365.261
G1 X14.51 Y-1.27 Z0.989 E365.534
G1 X16.47 Y2.18 Z0.99 E365.784
G1 X15.61 Y8.6 Z1.053 E366.192
G1 X15.44 Y10.9 Z1.074 E366.336
G1 X14.7 Y11.24 Z1.087 E366.388
G1 X13.57 Y14.14 Z1.126 E366.584
G1 X10.69 Y18.41 Z1.2 E366.907
G1 X7.21 Y21.99 Z1.277 E367.221
G1 X5.36 Y22.54 Z1.307 E367.343
G1 X0.63 Y23.59 Z1.381 E367.647
G1 X-2.22 Y22.39 Z1.411 E367.842
G1 X-5.08 Y20.55 Z1.436 E368.056
G1 X-7.41 Y20.27 Z1.466 E368.203
G1 X-9.53 Y19.13 Z1.486 E368.355
G1 X-11.15 Y16.82 Z1.49 E368.532
G1 X-12.81 Y9.52 Z1.455 E369.003
G1 X-13.16 Y7.57 Z1.444 E369.127
G1 X-13.76 Y2.08 Z1.408 E369.475
G1 X-8.03 Y-3.87 Z1.281 E369.994
G1 X-8.29 Y-4.18 Z1.282 F3000
G1 X-5.37 Y-6.09 Z1.226 E370.213 F1800
G1 X-9.03 Y-9.78 Z1.247 E370.541
G1 X-9.12 Y-11.03 Z1.238 E370.619
G1 X-11.16 Y-13.21 Z1.249 E370.807
G1 X-9.07 Y-15.08 Z1.205 E370.984
G1 X-6.08 Y-16.26 Z1.154 E371.185
G1 X-4.89 Y-15.78 Z1.142 E371.266
G1 X-3.43 Y-17.7 Z1.106 E371.418
G1 X-1.29 Y-19.99 Z1.058 E371.616
G1 X1.3 Y-19.49 Z1.026 E371.781
G1 X2.8 Y-18.77 Z1.011 E371.886
G1 X4.13 Y-12.1 Z1.046 E372.314
G1 X6.75 Y-9.88 Z1.028 E372.53
G1 X9.55 Y-9.82 Z0.989 E372.706
G1 X12.96 Y-9.3 Z0.946 E372.923
G1 X13.79 Y-5.57 Z0.965 E373.163
G1 X14.88 Y-1.42 Z0.983 E373.433
G1 X16.88 Y2.1 Z0.983 E373.687
G1 X16.01 Y8.65 Z1.048 E374.103
G1 X15.82 Y11.16 Z1.071 E374.261
G1 X15.01 Y11.53 Z1.085 E374.317
G1 X13.93 Y14.33 Z1.123 E374.506
G1 X11 Y18.66 Z1.198 E374.834
G1 X7.42 Y22.34 Z1.277 E375.158
G1 X5.46 Y22.93 Z1.309 E375.286
G1 X0.59 Y24.01 Z1.385 E375.6
G1 X-2.42 Y22.74 Z1.417 E375.805
G1 X-5.22 Y20.93 Z1.441 E376.015
G1 X-7.53 Y20.66 Z1.471 E376.161
G1 X-9.8 Y19.43 Z1.492 E376.324
G1 X-11.53 Y16.98 Z1.497 E376.512
G1 X-13.2 Y9.59 Z1.461 E376.989
G1 X-13.55 Y7.62 Z1.45 E377.114
G1 X-14.18 Y1.93 Z1.412 E377.474
G1 X-8.29 Y-4.18 Z1.282 E378.008
G1 X-8.54 Y-4.49 Z1.283 F3000
; TYPE:WALL-OUTER
G1 X-6 Y-6.15 Z1.234 E378.199 F1800
G1 X-9.42 Y-9.61 Z1.254 E378.505
G1 X-9.51 Y-10.86 Z1.245 E378.584
G1 X-11.74 Y-13.23 Z1.257 E378.788
G1 X-9.28 Y-15.42 Z1.205 E378.995
G1 X-6.08 Y-16.69 Z1.151 E379.212
G1 X-5.03 Y-16.26 Z1.14 E379.283
G1 X-3.74 Y-17.96 Z1.108 E379.417
G1 X-1.43 Y-20.43 Z1.056 E379.63
G1 X1.43 Y-19.88 Z1.021 E379.813
G1 X3.16 Y-19.05 Z1.004 E379.934
G1 X4.49 Y-12.31 Z1.039 E380.365
G1 X6.9 Y-10.28 Z1.022 E380.564
G1 X9.58 Y-10.22 Z0.986 E380.732
G1 X13.29 Y-9.65 Z0.939 E380.968
G1 X14.18 Y-5.66 Z0.959 E381.225
G1 X15.25 Y-1.58 Z0.977 E381.491
G1 X17.3 Y2.02 Z0.977 E381.751
G1 X16.41 Y8.69 Z1.043 E382.174
G1 X16.21 Y11.42 Z1.068 E382.346
G1 X15.33 Y11.83 Z1.083 E382.407
G1 X14.28 Y14.52 Z1.119 E382.589
G1 X11.31 Y18.91 Z1.196 E382.922
G1 X7.64 Y22.7 Z1.277 E383.254
G1 X5.55 Y23.32 Z1.311 E383.391
G1 X0.55 Y24.43 Z1.389 E383.713
G1 X-2.6 Y23.1 Z1.422 E383.928
G1 X-5.36 Y21.32 Z1.446 E384.134
G1 X-7.65 Y21.04 Z1.476 E384.28
G1 X-10.08 Y19.74 Z1.499 E384.453
G1 X-11.9 Y17.15 Z1.503 E384.652
G1 X-13.6 Y9.66 Z1.467 E385.135
G1 X-13.95 Y7.69 Z1.456 E385.261
G1 X-14.59 Y1.79 Z1.417 E385.634
G1 X-8.54 Y-4.49 Z1.283 E386.182
G1 X-8.29 Y-4.18 Z1.282 F3000
G1 X-6.09 Y-2.34 Z1.266
; TYPE:FILL
G1 X10.46 Y14.2 Z1.17 E387.654 F1200
G1 X10.38 Y14.32 Z1.172 F3000
G1 X10.53 Y14.46 Z1.171 E387.667 F1200
G1 X10.3 Y14.8 Z1.177 F3000
G1 X10.16 Y14.66 Z1.178 E387.679 F1200
G1 X9.93 Y14.99 Z1.183 F3000
G1 X10.07 Y15.14 Z1.183 E387.692 F1200
G1 X9.84 Y15.48 Z1.188 F3000
G1 X9.7 Y15.33 Z1.189 E387.705 F1200
G1 X9.47 Y15.67 Z1.195 F3000
G1 X9.62 Y15.81 Z1.194 E387.718 F1200
G1 X9.39 Y16.15 Z1.2 F3000
G1 X9.24 Y16.01 Z1.201 E387.731 F1200
G1 X9.02 Y16.34 Z1.207 F3000
G1 X9.16 Y16.49 Z1.206 E387.744 F1200
G1 X8.94 Y16.45 Z1.209 F3000
G1 X-8.02 Y-0.51 Z1.308 E389.252 F1200
G1 X-9.87 Y1.41 Z1.349 F3000
G1 X7.28 Y18.56 Z1.249 E390.777 F1200
G1 X6.16 Y19.71 Z1.273 F3000
G1 X6.08 Y19.63 Z1.274 E390.784 F1200
G1 X5.84 Y19.96 Z1.28 F3000
G1 X5.64 Y19.76 Z1.281 E390.802 F1200
G1 X5.41 Y20.09 Z1.287 F3000
G1 X5.21 Y19.89 Z1.288 E390.82 F1200
G1 X4.92 Y19.97 Z1.293 F3000
G1 X-11.21 Y3.84 Z1.387 E392.254 F1200
G1 X-11.23 Y3.69 Z1.386 F3000
G1 X-3.5 Y-4.03 Z1.217 E392.941 F1200
G1 X-3.81 Y-3.83 Z1.223 F3000
G1 X11.83 Y11.81 Z1.131 E394.332 F1200
G1 X11.84 Y11.81 Z1.131 F3000
G1 X11.93 Y11.9 Z1.131 E394.34 F1200
G1 X11.68 Y12.22 Z1.137 F3000
G1 X11.77 Y12.31 Z1.136 E394.348 F1200
G1 X11.52 Y12.62 Z1.142 F3000
G1 X11.61 Y12.72 Z1.142 E394.356 F1200
G1 X11.3 Y12.97 Z1.148 F3000
G1 X11.44 Y13.11 Z1.147 E394.369 F1200
G1 X11.21 Y13.45 Z1.153 F3000
G1 X11.07 Y13.31 Z1.154 E394.382 F1200
G1 X10.84 Y13.64 Z1.16 F3000
G1 X10.98 Y13.79 Z1.159 E394.395 F1200
G1 X10.76 Y14.12 Z1.165 F3000
G1 X10.61 Y13.98 Z1.166 E394.408 F1200
G1 X12.09 Y11.5 Z1.125 F3000
G1 X11.99 Y11.4 Z1.126 E394.416 F1200
G1 X12.25 Y11.09 Z1.12 F3000
G1 X12.15 Y11 Z1.12 E394.424 F1200
G1 X12.4 Y10.68 Z1.114 F3000
G1 X12.31 Y10.59 Z1.115 E394.432 F1200
G1 X12.56 Y10.27 Z1.109 F3000
G1 X12.47 Y10.18 Z1.11 E394.441 F1200
G1 X12.48 Y10.15 Z1.109 F3000
G1 X1.85 Y20.78 Z1.342 E395.386 F1200
G1 X1.94 Y20.76 Z1.34 F3000
G1 X-10.68 Y8.15 Z1.414 E396.508 F1200
G1 X-10.85 Y7.09 Z1.408 F3000
G1 X4.3 Y-8.06 Z1.076 E397.855 F1200
G1 X5.03 Y-7.44 Z1.071 F3000
G1 X3.03 Y-9.44 Z1.083 E398.033 F1200
G1 X2.25 Y-9.79 Z1.091 F3000
G1 X-1.48 Y-6.05 Z1.172 E398.365 F1200
G1 X-1.52 Y-5.32 Z1.179 F3000
G1 X13.02 Y9.22 Z1.094 E399.658 F1200
G1 X13.04 Y9.05 Z1.093 F3000
G1 X13.22 Y9.23 Z1.092 E399.674 F1200
G1 X12.9 Y9.49 Z1.098 F3000
G1 X12.81 Y9.4 Z1.098 E399.682 F1200
G1 X12.63 Y9.77 Z1.104 F3000
G1 X12.72 Y9.87 Z1.104 E399.69 F1200
G1 X13.25 Y8.7 Z1.087 F3000
G1 X13.11 Y8.56 Z1.088 E399.703 F1200
G1 X13.3 Y8.19 Z1.082 F3000
G1 X13.17 Y8.06 Z1.083 E399.715 F1200
G1 X13.37 Y7.69 Z1.077 F3000
G1 X13.24 Y7.56 Z1.078 E399.726 F1200
G1 X13.44 Y7.19 Z1.072 F3000
G1 X13.31 Y7.06 Z1.073 E399.738 F1200
G1 X13.5 Y6.69 Z1.067 F3000
G1 X13.37 Y6.56 Z1.068 E399.75 F1200
G1 X13.57 Y6.19 Z1.062 F3000
G1 X13.44 Y6.06 Z1.063 E399.762 F1200
G1 X13.46 Y5.89 Z1.061 F3000
G1 X-4.52 Y-12.09 Z1.166 E401.361 F1200
G1 X-4.84 Y-12.22 Z1.169 F3000
G1 X-5.81 Y-13.19 Z1.175 E401.448 F1200
G1 X-6.11 Y-12.73 Z1.183 F3000
G1 X-6.55 Y-12.29 Z1.193 E401.487 F1200
G1 X-5.79 Y-12.6 Z1.18 F3000
G1 X-6.38 Y-13.19 Z1.183 E401.54 F1200
G1 X-4.86 Y-12.81 Z1.165 F3000
G1 X-4.04 Y-11.98 Z1.16 E401.613 F1200
G1 X-3.79 Y-12.3 Z1.154 F3000
G1 X-3.96 Y-12.47 Z1.155 E401.628 F1200
G1 X-3.72 Y-12.79 Z1.149 F3000
G1 X-3.55 Y-12.62 Z1.148 E401.643 F1200
G1 X-3.3 Y-12.95 Z1.142 F3000
G1 X-3.47 Y-13.12 Z1.143 E401.658 F1200
G1 X-3.23 Y-13.44 Z1.137 F3000
G1 X-3.06 Y-13.27 Z1.136 E401.674 F1200
G1 X-2.81 Y-13.59 Z1.13 F3000
G1 X-2.99 Y-13.76 Z1.131 E401.689 F1200
G1 X-2.74 Y-14.08 Z1.125 F3000
G1 X-2.57 Y-13.91 Z1.124 E401.704 F1200
G1 X-2.57 Y-13.91 Z1.124 F3000
G1 X13.9 Y2.57 Z1.029 E403.169 F1200
G1 X13.9 Y2.57 Z1.028 F3000
G1 X14.04 Y2.7 Z1.028 E403.181 F1200
G1 X13.84 Y3.06 Z1.033 F3000
G1 X13.97 Y3.2 Z1.033 E403.193 F1200
G1 X13.77 Y3.56 Z1.038 F3000
G1 X13.91 Y3.7 Z1.038 E403.205 F1200
G1 X13.7 Y4.06 Z1.043 F3000
G1 X13.84 Y4.2 Z1.042 E403.217 F1200
G1 X13.64 Y4.56 Z1.048 F3000
G1 X13.77 Y4.7 Z1.047 E403.229 F1200
G1 X13.57 Y5.06 Z1.053 F3000
G1 X13.7 Y5.19 Z1.052 E403.241 F1200
G1 X13.53 Y5.32 Z1.056 F3000
G1 X-1.2 Y20.06 Z1.378 E404.552 F1200
G1 X-1.21 Y20.25 Z1.38 F3000
G1 X-1.61 Y19.85 Z1.382 E404.587 F1200
G1 X-0.57 Y20.33 Z1.372 F3000
G1 X-0.2 Y20.7 Z1.37 E404.62 F1200
G1 X0.41 Y20.74 Z1.361 F3000
G1 X0.78 Y21.12 Z1.359 E404.653 F1200
G1 X1.16 Y20.93 Z1.353 F3000
G1 X1.28 Y21.05 Z1.352 E404.664 F1200
G1 X1.62 Y20.83 Z1.345 F3000
G1 X1.74 Y20.95 Z1.345 E404.675 F1200
G1 X2.09 Y20.73 Z1.338 F3000
G1 X2.21 Y20.85 Z1.337 E404.685 F1200
G1 X2.55 Y20.62 Z1.331 F3000
G1 X2.67 Y20.74 Z1.33 E404.696 F1200
G1 X3.01 Y20.52 Z1.324 F3000
G1 X3.13 Y20.64 Z1.323 E404.707 F1200
G1 X3.47 Y20.41 Z1.316 F3000
G1 X3.59 Y20.54 Z1.316 E404.718 F1200
G1 X3.9 Y20.28 Z1.309 F3000
G1 X4.06 Y20.43 Z1.308 E404.732 F1200
G1 X4.34 Y20.15 Z1.302 F3000
G1 X4.52 Y20.33 Z1.301 E404.748 F1200
G1 X4.77 Y20.02 Z1.295 F3000
G1 X4.97 Y20.22 Z1.294 E404.766 F1200
G1 X8.56 Y17.02 Z1.219 F3000
G1 X8.67 Y17.13 Z1.218 E404.776 F1200
G1 X8.93 Y16.83 Z1.212 F3000
G1 X8.79 Y16.68 Z1.213 E404.789 F1200
G1 X-2.8 Y19.23 Z1.394 F3000
G1 X-3.2 Y18.83 Z1.396 E404.825 F1200
G1 X-3.53 Y18.62 Z1.399 F3000
G1 X13.46 Y1.63 Z1.027 E406.336 F1200
G1 X12.19 Y-0.87 Z1.025 F3000
G1 X-6.39 Y17.71 Z1.431 E407.988 F1200
G1 X-6.61 Y17.68 Z1.434 F3000
G1 X-6.24 Y18.05 Z1.432 E408.021 F1200
G1 X-5.97 Y17.76 Z1.426 F3000
G1 X-5.6 Y18.13 Z1.424 E408.054 F1200
G1 X-5.1 Y18.07 Z1.416 F3000
G1 X-4.96 Y18.21 Z1.415 E408.066 F1200
G1 X-4.45 Y18.14 Z1.408 F3000
G1 X-4.31 Y18.28 Z1.407 E408.078 F1200
G1 X-4.45 Y18.15 Z1.408 F3000
G1 X-9.63 Y12.97 Z1.438 E408.539 F1200
G1 X-9.55 Y13.32 Z1.44 F3000
G1 X10.65 Y-6.88 Z0.998 E410.336 F1200
G1 X7.99 Y-7.11 Z1.033 F3000
G1 X11.47 Y-3.64 Z1.012 E410.644 F1200
G1 X11.41 Y-3.86 Z1.011 F3000
G1 X-8.3 Y15.85 Z1.443 E412.397 F1200
G1 X-7.96 Y16.34 Z1.442 F3000
G1 X-9.13 Y15.17 Z1.449 E412.501 F1200
G1 X-8.88 Y15.98 Z1.452 F3000
G1 X-7.07 Y17.79 Z1.441 E412.662 F1200
G1 X-10.24 Y10.25 Z1.425 F3000
G1 X7.14 Y-7.13 Z1.044 E414.208 F1200
G1 X1.25 Y-12.55 Z1.082 F3000
G1 X-3.35 Y-7.95 Z1.183 E414.617 F1200
G1 X-5.23 Y-9.84 Z1.194 F3000
G1 X0.62 Y-15.7 Z1.066 E415.138 F1200
G1 X-0.35 Y-16.78 Z1.071 F3000
G1 X-0.45 Y-16.88 Z1.071 E415.147 F1200
G1 X-0.72 Y-16.59 Z1.077 F3000
G1 X-0.62 Y-16.48 Z1.077 E415.156 F1200
G1 X-0.86 Y-16.16 Z1.083 F3000
G1 X-1 Y-16.29 Z1.083 E415.168 F1200
G1 X-0.94 Y-16.05 Z1.085 F3000
G1 X0.92 Y-14.18 Z1.074 E415.334 F1200
G1 X-1.11 Y-15.84 Z1.089 F3000
G1 X-1.27 Y-16 Z1.09 E415.348 F1200
G1 X-1.52 Y-15.69 Z1.096 F3000
G1 X-1.35 Y-15.52 Z1.095 E415.363 F1200
G1 X-1.59 Y-15.2 Z1.101 F3000
G1 X-1.76 Y-15.37 Z1.102 E415.378 F1200
G1 X-2.01 Y-15.04 Z1.108 F3000
G1 X-1.84 Y-14.87 Z1.107 E415.393 F1200
G1 X-2.08 Y-14.55 Z1.113 F3000
G1 X-2.25 Y-14.72 Z1.114 E415.409 F1200
G1 X-2.5 Y-14.4 Z1.119 F3000
G1 X-2.33 Y-14.23 Z1.118 E415.424 F1200
G1  E414.424 F1800
G1 X13.5 Y5.56 Z1.058 F3000
G1  E415.424 F1800
G1 X13.64 Y5.69 Z1.057 E415.436 F1200
G1 X18.14 Y6.3 Z1 F3000
G1 X18.75 Y1.74 Z0.955
G1 X14.45 Y-10.89 Z0.913
G1 X4.39 Y-20.01 Z0.979
G1 X1.87 Y-21.22 Z1.004
G1 X-1.92 Y-21.95 Z1.051
G1 X-10.03 Y-16.64 Z1.206
G1 X-13.12 Y-13.88 Z1.271
G1 X-13.3 Y-12.86 Z1.282
G1 X-11.21 Y-7.7 Z1.294
; TYPE:SUPPORT
G1 X-19.3 Y-15.79 Z1.341 E416.155 F3600
G1 X-17.6 Y-15.79 Z1.318 F3000
G1 X-17.6 Y-17.89 Z1.301
G1 X-17.86 Y-17.89 Z1.304
G1 X-12.49 Y-12.52 Z1.273 E416.633 F3600
G1 X-12.75 Y-12.27 Z1.279 F3000
G1 X-13.3 Y-12.86 Z1.282
G1 X-13.12 Y-13.88 Z1.271
G1 X-11.62 Y-15.21 Z1.239
G1 X-11.38 Y-14.94 Z1.238
G1 X-15.37 Y-18.93 Z1.261 E416.988 F3600
G1 X-12.76 Y-19.86 Z1.218 F3000
G1 X-9.54 Y-16.64 Z1.199 E417.274 F3600
G1 X-9.61 Y-16.8 Z1.199 F3000
G1 X-9.03 Y-19.66 Z1.168
G1 X-10.15 Y-20.78 Z1.174 E417.374 F3600
G1 X-17.6 Y-12.3 Z1.346 F3000
G1 X-19.34 Y-12.3 Z1.37
G1 X-16.31 Y-9.27 Z1.352 E417.643 F3600
G1 X-16 Y-8.96 Z1.35 F3000
G1 X-15.44 Y-8.4 Z1.347 E417.693 F3600
G1  E416.693 F1800
G1 X-16.06 Y1.29 Z1.433 F3000
G1 X-15.34 Y7.89 Z1.476
G1 X-14.97 Y9.94 Z1.488
G1 X-13.27 Y17.41 Z1.524
G1 X-12.76 Y17.29 Z1.516
; TYPE:SUPPORT-INTERFACE
G1  E417.693 F1800
G1 X-12.84 Y17.37 Z1.518 E417.7 F300
G1 X-12.56 Y17.66 Z1.516 F3000
G1 X-12.74 Y17.83 Z1.52 E417.715 F300
G1 X-13 Y18.02 Z1.525 F3000
G1 X-12.79 Y18.32 Z1.525
G1 X-12.33 Y17.99 Z1.516
G1 X-12.72 Y18.39 Z1.525 E417.75 F300
G1 X-12.73 Y18.39 Z1.525 F3000
G1 X-12.62 Y18.85 Z1.527
G1 X-12.1 Y18.33 Z1.515 E417.797 F300
G1 X-11.86 Y18.66 Z1.515 F3000
G1 X-12.47 Y19.27 Z1.528 E417.851 F300
G1 X-12.24 Y19.6 Z1.528 F3000
G1 X-11.63 Y18.99 Z1.514 E417.905 F300
G1 X-11.4 Y19.32 Z1.514 F3000
G1 X-12.01 Y19.93 Z1.527 E417.959 F300
G1 X-11.77 Y20.27 Z1.526 F3000
G1 X-11.16 Y19.66 Z1.513 E418.014 F300
G1 X-10.93 Y19.99 Z1.513 F3000
G1 X-11.46 Y20.52 Z1.524 E418.06 F300
G1 X-11.1 Y20.72 Z1.521 F3000
G1 X-11.09 Y20.71 Z1.521
G1 X-10.7 Y20.32 Z1.512 E418.095 F300
G1 X-10.35 Y20.55 Z1.509 F3000
G1 X-10.54 Y20.73 Z1.513 E418.112 F300
; Layer Change GCode
; LAYER:3
G1  E417.112 F1800
G1 X-10.54 Y20.73 Z1.913 F3000
G1 X-10.79 Y21.21 Z1.92
G1 X-11.54 Y20.81 Z1.928
G1 X-11.7 Y20.58 Z1.928
G1 X-10.72 Y19.89 Z1.909
G1 X-10.31 Y19.43 Z1.899
G1 X-5.88 Y-5.76 Z1.636
G1 X-5.42 Y-6.06 Z1.627
G1 X-5.76 Y-6.41 Z1.629
G1 X-6.05 Y-6.13 Z1.635
G1 X-5.76 Y-6.41 Z1.629
G1 X-5.42 Y-6.06 Z1.627
G1 X-7.22 Y-2.02 Z1.684
; TYPE:WALL-INNER
G1  E418.112 F1800
G1 X-1.64 Y-5.66 Z1.578 E418.531
G1 X-6.45 Y-10.51 Z1.606 E418.96
G1 X-6.56 Y-11.97 Z1.595 E419.052
G1 X-7.52 Y-12.99 Z1.601 E419.141
G1 X-6.5 Y-13.4 Z1.583 E419.211
G1 X-4.1 Y-12.43 Z1.558 E419.373
G1 X-1.11 Y-16.36 Z1.485 E419.684
G1 X-0.3 Y-17.22 Z1.467 E419.758
G1 X0.24 Y-17.11 Z1.46 E419.792
G1 X0.75 Y-16.86 Z1.455 E419.829
G1 X1.88 Y-11.21 Z1.485 E420.191
G1 X6.16 Y-7.59 Z1.454 E420.543
G1 X8.75 Y-7.53 Z1.419 E420.707
G1 X11.04 Y-7.18 Z1.39 E420.852
G1 X11.68 Y-4.33 Z1.404 E421.036
G1 X12.52 Y-1.1 Z1.418 E421.246
G1 X14.62 Y2.59 Z1.419 E421.513
G1 X13.91 Y7.92 Z1.471 E421.851
G1 X13.78 Y9.6 Z1.487 E421.957
G1 X13.22 Y9.86 Z1.497 E421.996
G1 X11.69 Y13.79 Z1.549 E422.261
G1 X9.66 Y16.79 Z1.601 E422.489
G1 X6.03 Y20.53 Z1.682 E422.817
G1 X5.63 Y20.65 Z1.688 E422.843
G1 X0.76 Y21.73 Z1.765 E423.157
G1 X-0.02 Y21.4 Z1.773 E423.21
G1 X-3.76 Y18.99 Z1.805 E423.49
G1 X-6.71 Y18.64 Z1.843 E423.677
G1 X-8.67 Y17.58 Z1.862 E423.816
G1 X-9.21 Y16.82 Z1.863 E423.875
G1 X-11.07 Y8.64 Z1.823 E424.402
G1 X-11.14 Y8.2 Z1.821 E424.431
G1 X-11.75 Y2.68 Z1.785 E424.779
G1 X-7.22 Y-2.02 Z1.684 E425.19
G1 X-7.48 Y-2.33 Z1.685 F3000
G1 X-2.27 Y-5.73 Z1.586 E425.581 F1800
G1 X-6.84 Y-10.33 Z1.612 E425.988
G1 X-6.95 Y-11.8 Z1.602 E426.081
G1 X-8.12 Y-13.05 Z1.608 E426.189
G1 X-8.13 Y-13.05 Z1.608 F3000
G1 X-7.99 Y-13.17 Z1.606 E426.2 F1800
G1 X-7.87 Y-13.29 Z1.603 F3000
G1 X-6.5 Y-13.83 Z1.58 E426.292 F1800
G1 X-4.23 Y-12.91 Z1.555 E426.446
G1 X-1.41 Y-16.62 Z1.487 E426.739
G1 X-0.45 Y-17.65 Z1.465 E426.828
G1 X0.37 Y-17.49 Z1.455 E426.88
G1 X1.11 Y-17.14 Z1.448 E426.931
G1 X2.24 Y-11.42 Z1.478 E427.298
G1 X6.31 Y-7.99 Z1.449 E427.633
G1 X8.79 Y-7.93 Z1.415 E427.789
G1 X11.37 Y-7.54 Z1.383 E427.953
G1 X12.06 Y-4.42 Z1.398 E428.154
G1 X12.89 Y-1.25 Z1.412 E428.36
G1 X15.04 Y2.51 Z1.412 E428.632
G1 X14.31 Y7.96 Z1.466 E428.978
G1 X14.17 Y9.87 Z1.484 E429.098
G1 X13.53 Y10.16 Z1.495 E429.142
G1 X12.05 Y13.97 Z1.546 E429.399
G1 X9.97 Y17.04 Z1.599 E429.632
G1 X6.25 Y20.88 Z1.682 E429.969
G1 X5.74 Y21.03 Z1.69 E430.002
G1 X0.72 Y22.15 Z1.768 E430.325
G1 X-0.21 Y21.75 Z1.778 E430.389
G1 X-3.9 Y19.38 Z1.81 E430.665
G1 X-6.83 Y19.03 Z1.848 E430.85
G1 X-8.94 Y17.89 Z1.868 E431.001
G1 X-9.58 Y16.98 Z1.87 E431.071
G1 X-11.46 Y8.73 Z1.829 E431.603
G1 X-11.54 Y8.27 Z1.827 E431.632
G1 X-12.16 Y2.54 Z1.79 E431.995
G1 X-7.48 Y-2.33 Z1.685 E432.42
G1 X-7.73 Y-2.64 Z1.687 F3000
G1 X-2.9 Y-5.79 Z1.594 E432.783 F1800
G1 X-7.23 Y-10.15 Z1.619 E433.169
G1 X-7.34 Y-11.62 Z1.609 E433.261
G1 X-8.7 Y-13.08 Z1.616 E433.387
G1 X-8.08 Y-13.64 Z1.603 E433.439
G1 X-6.49 Y-14.26 Z1.576 E433.547
G1 X-4.36 Y-13.4 Z1.553 E433.691
G1 X-1.72 Y-16.88 Z1.489 E433.966
G1 X-0.59 Y-18.09 Z1.463 E434.07
G1 X0.49 Y-17.88 Z1.45 E434.139
G1 X1.46 Y-17.41 Z1.441 E434.207
G1 X2.61 Y-11.64 Z1.471 E434.577
G1 X6.46 Y-8.38 Z1.444 E434.894
G1 X8.82 Y-8.33 Z1.411 E435.042
G1 X11.7 Y-7.89 Z1.375 E435.226
G1 X12.45 Y-4.52 Z1.392 E435.443
G1 X13.27 Y-1.4 Z1.405 E435.645
G1 X15.45 Y2.43 Z1.406 E435.923
G1 X14.7 Y8 Z1.461 E436.276
G1 X14.55 Y10.13 Z1.48 E436.41
G1 X13.84 Y10.45 Z1.493 E436.459
G1 X12.41 Y14.16 Z1.542 E436.709
G1 X10.29 Y17.29 Z1.597 E436.947
G1 X6.46 Y21.24 Z1.682 E437.292
G1 X5.84 Y21.42 Z1.692 E437.333
G1 X0.68 Y22.57 Z1.772 E437.665
G1 X-0.4 Y22.11 Z1.784 E437.739
G1 X-4.04 Y19.76 Z1.815 E438.012
G1 X-6.96 Y19.41 Z1.853 E438.196
G1 X-9.21 Y18.2 Z1.874 E438.358
G1 X-9.95 Y17.15 Z1.876 E438.438
G1 X-11.85 Y8.81 Z1.836 E438.976
G1 X-11.94 Y8.32 Z1.833 E439.007
G1 X-12.58 Y2.4 Z1.794 E439.382
G1 X-7.73 Y-2.64 Z1.687 E439.821
G1 X-7.99 Y-2.95 Z1.688 F3000
G1 X-3.53 Y-5.86 Z1.602 E440.156 F1800
G1 X-7.61 Y-9.98 Z1.626 E440.521
G1 X-7.72 Y-11.45 Z1.616 E440.614
G1 X-9.27 Y-13.1 Z1.624 E440.756
G1 X-8.29 Y-13.98 Z1.603 E440.839
G1 X-6.49 Y-14.69 Z1.573 E440.961
G1 X-4.5 Y-13.88 Z1.551 E441.096
G1 X-2.02 Y-17.14 Z1.491 E441.353
G1 X-0.73 Y-18.52 Z1.462 E441.472
G1 X0.62 Y-18.26 Z1.445 E441.558
G1 X1.81 Y-17.69 Z1.433 E441.642
G1 X2.97 Y-11.85 Z1.464 E442.015
G1 X6.61 Y-8.78 Z1.439 E442.315
G1 X8.87 Y-8.73 Z1.408 E442.457
G1 X12.03 Y-8.25 Z1.368 E442.658
G1 X12.84 Y-4.61 Z1.386 E442.892
G1 X13.64 Y-1.56 Z1.399 E443.091
G1 X15.86 Y2.35 Z1.4 E443.374
G1 X15.1 Y8.04 Z1.456 E443.735
G1 X14.93 Y10.39 Z1.477 E443.883
G1 X14.16 Y10.75 Z1.491 E443.936
G1 X12.76 Y14.35 Z1.539 E444.179
G1 X10.6 Y17.55 Z1.595 E444.422
G1 X6.68 Y21.59 Z1.681 E444.776
G1 X5.93 Y21.81 Z1.694 E444.825
G1 X0.65 Y22.98 Z1.776 E445.165
G1 X-0.59 Y22.46 Z1.789 E445.25
G1 X-4.18 Y20.15 Z1.82 E445.518
G1 X-7.08 Y19.8 Z1.858 E445.702
G1 X-9.49 Y18.51 Z1.881 E445.874
G1 X-10.33 Y17.31 Z1.883 E445.966
G1 X-12.24 Y8.89 Z1.842 E446.509
G1 X-12.33 Y8.37 Z1.839 E446.542
G1 X-13 Y2.26 Z1.799 E446.928
G1 X-7.99 Y-2.95 Z1.688 E447.383
G1 X-8.25 Y-3.26 Z1.689 F3000
G1 X-4.16 Y-5.93 Z1.611 E447.69 F1800
G1 X-8 Y-9.8 Z1.633 E448.033
G1 X-8.11 Y-11.28 Z1.622 E448.127
G1 X-9.85 Y-13.13 Z1.632 E448.286
G1 X-8.51 Y-14.33 Z1.603 E448.399
G1 X-6.49 Y-15.12 Z1.569 E448.535
G1 X-4.63 Y-14.37 Z1.549 E448.661
G1 X-2.34 Y-17.39 Z1.493 E448.9
G1 X-0.87 Y-18.95 Z1.46 E449.035
G1 X0.74 Y-18.64 Z1.441 E449.138
G1 X2.17 Y-17.96 Z1.426 E449.237
G1 X3.34 Y-12.07 Z1.457 E449.615
G1 X6.76 Y-9.18 Z1.433 E449.897
G1 X8.9 Y-9.13 Z1.404 E450.031
G1 X12.36 Y-8.6 Z1.36 E450.252
G1 X13.23 Y-4.71 Z1.379 E450.502
G1 X14.02 Y-1.71 Z1.393 E450.697
G1 X16.28 Y2.27 Z1.393 E450.985
G1 X15.5 Y8.08 Z1.451 E451.354
G1 X15.31 Y10.66 Z1.474 E451.516
G1 X14.47 Y11.05 Z1.489 E451.574
G1 X13.12 Y14.53 Z1.536 E451.81
G1 X10.91 Y17.8 Z1.592 E452.057
G1 X6.89 Y21.94 Z1.681 E452.42
G1 X6.04 Y22.2 Z1.695 E452.476
G1 X0.61 Y23.4 Z1.78 E452.826
G1 X-0.78 Y22.82 Z1.795 E452.921
G1 X-4.32 Y20.54 Z1.825 E453.186
G1 X-7.2 Y20.19 Z1.863 E453.368
G1 X-9.76 Y18.81 Z1.887 E453.551
G1 X-10.7 Y17.47 Z1.889 E453.654
G1 X-12.63 Y8.96 Z1.848 E454.203
G1 X-12.73 Y8.44 Z1.845 E454.236
G1 X-13.42 Y2.11 Z1.803 E454.636
G1 X-8.25 Y-3.26 Z1.689 E455.105
G1 X-8.5 Y-3.57 Z1.69 F3000
G1 X-4.79 Y-5.99 Z1.619 E455.384 F1800
G1 X-8.39 Y-9.62 Z1.64 E455.705
G1 X-8.5 Y-11.11 Z1.629 E455.799
G1 X-10.42 Y-13.16 Z1.639 E455.975
G1 X-8.72 Y-14.67 Z1.604 E456.119
G1 X-6.49 Y-15.55 Z1.566 E456.269
G1 X-4.76 Y-14.86 Z1.547 E456.386
G1 X-2.64 Y-17.65 Z1.495 E456.607
G1 X-1.01 Y-19.39 Z1.459 E456.757
G1 X0.87 Y-19.03 Z1.436 E456.877
G1 X2.52 Y-18.23 Z1.419 E456.992
G1 X3.7 Y-12.28 Z1.451 E457.374
G1 X6.91 Y-9.57 Z1.428 E457.638
G1 X8.93 Y-9.53 Z1.4 E457.765
G1 X12.69 Y-8.95 Z1.353 E458.004
G1 X13.62 Y-4.8 Z1.373 E458.272
G1 X14.39 Y-1.86 Z1.386 E458.463
G1 X16.69 Y2.19 Z1.387 E458.756
G1 X15.9 Y8.13 Z1.446 E459.133
G1 X15.69 Y10.92 Z1.471 E459.309
G1 X14.79 Y11.34 Z1.487 E459.372
G1 X13.47 Y14.72 Z1.532 E459.6
G1 X11.22 Y18.05 Z1.59 E459.853
G1 X7.1 Y22.3 Z1.681 E460.225
G1 X6.14 Y22.58 Z1.697 E460.288
G1 X0.57 Y23.82 Z1.784 E460.647
G1 X-0.96 Y23.17 Z1.8 E460.751
G1 X-4.46 Y20.92 Z1.83 E461.013
G1 X-7.32 Y20.58 Z1.867 E461.194
G1 X-10.04 Y19.12 Z1.893 E461.388
G1 X-11.07 Y17.64 Z1.896 E461.501
G1 X-13.02 Y9.06 Z1.854 E462.055
G1 X-13.12 Y8.48 Z1.851 E462.092
G1 X-13.84 Y1.97 Z1.808 E462.503
G1 X-8.5 Y-3.57 Z1.69 E462.987
G1 X-8.76 Y-3.88 Z1.691 F3000
G1 X-5.42 Y-6.06 Z1.627 E463.238 F1800
G1 X-8.78 Y-9.45 Z1.646 E463.538
G1 X-8.89 Y-10.94 Z1.636 E463.632
G1 X-10.93 Y-13.12 Z1.647 E463.819
G1 X-10.9 Y-13.26 Z1.645 E463.829
G1 X-8.93 Y-15.02 Z1.604 E463.995
G1 X-6.49 Y-15.99 Z1.562 E464.16
G1 X-4.9 Y-15.34 Z1.545 E464.268
G1 X-2.94 Y-17.91 Z1.498 E464.471
G1 X-1.15 Y-19.82 Z1.457 E464.636
G1 X0.99 Y-19.41 Z1.431 E464.773
G1 X2.87 Y-18.51 Z1.412 E464.904
G1 X4.07 Y-12.5 Z1.444 E465.289
G1 X7.06 Y-9.97 Z1.423 E465.536
G1 X8.97 Y-9.93 Z1.397 E465.656
G1 X13.02 Y-9.31 Z1.345 E465.914
G1 X14.01 Y-4.89 Z1.367 E466.198
G1 X14.76 Y-2.01 Z1.38 E466.385
G1 X17.11 Y2.11 Z1.381 E466.684
G1 X16.3 Y8.17 Z1.44 E467.068
G1 X16.08 Y11.19 Z1.468 E467.258
G1 X15.1 Y11.64 Z1.485 E467.326
G1 X13.83 Y14.91 Z1.529 E467.546
G1 X11.53 Y18.3 Z1.588 E467.804
G1 X7.32 Y22.65 Z1.681 E468.185
G1 X6.24 Y22.97 Z1.699 E468.256
G1 X0.53 Y24.24 Z1.788 E468.623
G1 X-1.16 Y23.53 Z1.806 E468.738
G1 X-4.6 Y21.31 Z1.835 E468.996
G1 X-7.45 Y20.97 Z1.872 E469.177
G1 X-10.31 Y19.43 Z1.899 E469.381
G1 X-11.44 Y17.81 Z1.902 E469.505
G1 X-13.42 Y9.13 Z1.86 E470.064
G1 X-13.52 Y8.53 Z1.856 E470.103
G1 X-14.25 Y1.83 Z1.813 E470.527
G1 X-8.76 Y-3.88 Z1.691 E471.025
G1 X-9.01 Y-4.19 Z1.692 F3000
; TYPE:WALL-OUTER
G1 X-6.05 Y-6.13 Z1.635 E471.248 F1800
G1 X-9.17 Y-9.27 Z1.653 E471.526
G1 X-9.28 Y-10.77 Z1.643 E471.621
G1 X-11.36 Y-12.99 Z1.654 E471.812
G1 X-11.26 Y-13.47 Z1.648 E471.843
G1 X-9.15 Y-15.36 Z1.604 E472.022
G1 X-6.48 Y-16.42 Z1.559 E472.202
G1 X-5.03 Y-15.83 Z1.543 E472.3
G1 X-3.25 Y-18.16 Z1.5 E472.485
G1 X-1.29 Y-20.26 Z1.456 E472.665
G1 X1.12 Y-19.79 Z1.426 E472.82
G1 X3.23 Y-18.78 Z1.405 E472.967
G1 X4.43 Y-12.71 Z1.437 E473.356
G1 X7.21 Y-10.37 Z1.417 E473.584
G1 X9 Y-10.33 Z1.393 E473.697
G1 X13.35 Y-9.66 Z1.338 E473.974
G1 X14.4 Y-4.99 Z1.361 E474.275
G1 X15.14 Y-2.16 Z1.373 E474.459
G1 X17.52 Y2.03 Z1.374 E474.762
G1 X16.69 Y8.21 Z1.435 E475.154
G1 X16.46 Y11.45 Z1.465 E475.359
G1 X15.42 Y11.93 Z1.483 E475.431
G1 X14.19 Y15.09 Z1.525 E475.644
G1 X11.84 Y18.56 Z1.586 E475.907
G1 X7.53 Y23 Z1.681 E476.296
G1 X6.33 Y23.36 Z1.7 E476.375
G1 X0.49 Y24.66 Z1.792 E476.751
G1 X-1.34 Y23.88 Z1.811 E476.876
G1 X-4.74 Y21.69 Z1.84 E477.13
G1 X-7.57 Y21.35 Z1.877 E477.31
G1 X-10.58 Y19.73 Z1.906 E477.525
G1 X-11.82 Y17.97 Z1.909 E477.66
G1 X-13.81 Y9.2 Z1.866 E478.226
G1 X-13.92 Y8.6 Z1.862 E478.264
G1 X-14.67 Y1.69 Z1.817 E478.702
G1 X-9.01 Y-4.19 Z1.692 E479.214
G1 X-8.76 Y-3.88 Z1.691 F3000
G1 X-6.08 Y-2.35 Z1.666
; TYPE:FILL
G1 X10.64 Y14.37 Z1.569 E480.701 F1200
G1 X10.88 Y14.02 Z1.562 F3000
G1 X11.46 Y13.44 Z1.55 E480.753 F1200
G1 X11.61 Y12.72 Z1.542 F3000
G1 X11.82 Y12.51 Z1.537 E480.772 F1200
G1 X11.93 Y11.9 Z1.531 F3000
G1 X-3.8 Y-3.84 Z1.622 E482.171 F1200
G1 X-3.48 Y-4.05 Z1.616 F3000
G1 X-11.29 Y3.76 Z1.787 E482.866 F1200
G1 X-11.29 Y3.76 Z1.787 F3000
G1 X5.14 Y20.18 Z1.691 E484.326 F1200
G1 X5.34 Y20.12 Z1.688 F3000
G1 X5.03 Y20.43 Z1.695 E484.354 F1200
G1 X4.54 Y20.36 Z1.701 F3000
G1 X4.31 Y20.59 Z1.706 E484.374 F1200
G1 X3.76 Y20.57 Z1.714 F3000
G1 X3.58 Y20.75 Z1.718 E484.391 F1200
G1 X3.04 Y20.73 Z1.725 F3000
G1 X2.85 Y20.92 Z1.729 E484.407 F1200
G1 X2.31 Y20.89 Z1.736 F3000
G1 X2.13 Y21.08 Z1.74 E484.424 F1200
G1 X2.12 Y20.93 Z1.739 F3000
G1 X-10.82 Y7.99 Z1.815 E485.574 F1200
G1 X-10.91 Y7.15 Z1.809 F3000
G1 X4.49 Y-8.25 Z1.472 E486.944 F1200
G1 X4.38 Y-8.33 Z1.473 F3000
G1 X4.55 Y-8.5 Z1.469 E486.959 F1200
G1 X4.86 Y-8.24 Z1.467 F3000
G1 X4.69 Y-8.07 Z1.471 E486.974 F1200
G1 X5 Y-7.82 Z1.469 F3000
G1 X5.16 Y-7.98 Z1.465 E486.989 F1200
G1 X5.47 Y-7.72 Z1.463 F3000
G1 X5.3 Y-7.56 Z1.466 E487.004 F1200
G1 X5.67 Y-7.36 Z1.463 F3000
G1 X5.78 Y-7.46 Z1.461 E487.013 F1200
G1 X7.23 Y-7.22 Z1.442 F3000
G1 X-10.33 Y10.34 Z1.827 E488.575 F1200
G1 X-9.77 Y12.82 Z1.839 F3000
G1 X-3.96 Y18.62 Z1.805 E489.092 F1200
G1 X-3.6 Y18.69 Z1.801 F3000
G1 X13.6 Y1.49 Z1.424 E490.621 F1200
G1 X14.1 Y2.75 Z1.427 F3000
G1 X-2.38 Y-13.72 Z1.523 E492.087 F1200
G1 X-2.72 Y-13.67 Z1.528 F3000
G1 X-1.45 Y-14.95 Z1.501 E492.2 F1200
G1 X-0.75 Y-15.86 Z1.484 F3000
G1 X0.79 Y-14.33 Z1.475 E492.337 F1200
G1 X0.78 Y-14.35 Z1.475 F3000
G1 X0.89 Y-14.45 Z1.472 E492.346 F1200
G1 X0.69 Y-14.82 Z1.472 F3000
G1 X0.79 Y-14.92 Z1.47 E492.355 F1200
G1 X0.6 Y-15.29 Z1.47 F3000
G1 X0.7 Y-15.4 Z1.467 E492.364 F1200
G1 X0.53 Y-15.61 Z1.468 F3000
G1 X-5.27 Y-9.8 Z1.595 E492.88 F1200
G1 X-6.13 Y-10.83 Z1.599 F3000
G1 X-5.98 Y-10.98 Z1.595 E492.893 F1200
G1 X-6.17 Y-11.35 Z1.595 F3000
G1 X-6.02 Y-11.5 Z1.592 E492.907 F1200
G1 X-6.21 Y-11.88 Z1.591 F3000
G1 X-6.1 Y-11.99 Z1.589 E492.917 F1200
G1 X-5.89 Y-12.2 Z1.584 F3000
G1 X-5.47 Y-12.62 Z1.575 E492.953 F1200
G1 X-5.88 Y-12.78 Z1.579 F3000
G1 X-6.29 Y-12.37 Z1.588 E492.99 F1200
G1 X-6.3 Y-12.36 Z1.589 F3000
G1 X-6.38 Y-12.27 Z1.59 E492.998 F1200
G1 X-6.66 Y-12.57 Z1.592 F3000
G1 X-6.28 Y-12.94 Z1.584 E493.031 F1200
G1 X-6.92 Y-12.86 Z1.593 F3000
G1 X-6.93 Y-12.86 Z1.593 E493.032 F1200
G1 X-5.48 Y-12.04 Z1.58 F3000
G1 X-5.07 Y-12.45 Z1.571 E493.069 F1200
G1 X-4.67 Y-12.29 Z1.567 F3000
G1 X-5.08 Y-11.88 Z1.576 E493.106 F1200
G1 X-4.68 Y-11.71 Z1.571 F3000
G1 X-4.27 Y-12.13 Z1.562 E493.142 F1200
G1 X-4.28 Y-11.55 Z1.567 F3000
G1 X-3.26 Y-12.57 Z1.545 E493.233 F1200
G1 X-4.01 Y-11.58 Z1.563 F3000
G1 X13.65 Y6.08 Z1.46 E494.804 F1200
G1 X13.64 Y6.16 Z1.461 F3000
G1 X13.82 Y5.98 Z1.457 E494.82 F1200
G1 X13.73 Y5.51 Z1.455 F3000
G1 X13.91 Y5.33 Z1.451 E494.836 F1200
G1 X13.79 Y5.07 Z1.45 F3000
G1 X-1.31 Y20.17 Z1.781 E496.178 F1200
G1 X-0.04 Y20.98 Z1.77 F3000
G1 X0.08 Y20.86 Z1.767 E496.189 F1200
G1 X0.33 Y21.18 Z1.766 F3000
G1 X0.48 Y21.03 Z1.763 E496.202 F1200
G1 X0.73 Y21.34 Z1.762 F3000
G1 X0.88 Y21.2 Z1.759 E496.216 F1200
G1 X1.4 Y21.24 Z1.752 F3000
G1 X1.58 Y21.05 Z1.748 E496.232 F1200
G1 X1.58 Y21.05 Z1.748 F3000
G1 X12.69 Y9.94 Z1.505 E497.221 F1200
G1 X12.69 Y9.95 Z1.505 F3000
G1 X12.9 Y9.74 Z1.5 E497.239 F1200
G1 X13.09 Y9.54 Z1.496 F3000
G1 X13.47 Y9.16 Z1.487 E497.273 F1200
G1 X13.18 Y9.37 Z1.493 F3000
G1 X-1.52 Y-5.33 Z1.579 E498.581 F1200
G1 X-1.52 Y-6.01 Z1.573 F3000
G1 X2.44 Y-9.97 Z1.487 E498.933 F1200
G1 X2.54 Y-9.89 Z1.486 F3000
G1 X2.71 Y-10.06 Z1.482 E498.948 F1200
G1 X2.4 Y-10.32 Z1.484 F3000
G1 X2.24 Y-10.15 Z1.488 E498.963 F1200
G1 X1.95 Y-10.42 Z1.49 F3000
G1 X2.1 Y-10.57 Z1.487 E498.976 F1200
G1 X1.79 Y-10.83 Z1.489 F3000
G1 X1.71 Y-10.75 Z1.491 E498.984 F1200
G1 X1.44 Y-11.05 Z1.492 F3000
G1 X1.54 Y-11.15 Z1.49 E498.993 F1200
G1 X1.34 Y-11.52 Z1.489 F3000
G1 X1.45 Y-11.62 Z1.487 E499.002 F1200
G1 X1.25 Y-11.99 Z1.487 F3000
G1 X1.35 Y-12.09 Z1.485 E499.011 F1200
G1 X1.16 Y-12.46 Z1.484 F3000
G1 X-3.39 Y-7.91 Z1.584 E499.416 F1200
G1 X1.16 Y-12.46 Z1.484 F3000
G1 X1.26 Y-12.56 Z1.482 E499.425 F1200
G1 X1.06 Y-12.93 Z1.482 F3000
G1 X1.17 Y-13.04 Z1.48 E499.434 F1200
G1 X0.97 Y-13.41 Z1.479 F3000
G1 X1.07 Y-13.51 Z1.477 E499.443 F1200
G1 X0.88 Y-13.88 Z1.477 F3000
G1 X0.98 Y-13.98 Z1.475 E499.452 F1200
G1 X0.5 Y-15.77 Z1.467 F3000
G1 X0.6 Y-15.87 Z1.465 E499.461 F1200
G1 X0.41 Y-16.24 Z1.465 F3000
G1 X0.51 Y-16.34 Z1.462 E499.47 F1200
G1 X0.19 Y-16.59 Z1.465 F3000
G1 X0.3 Y-16.7 Z1.462 E499.48 F1200
G1 X-0.13 Y-16.83 Z1.467 F3000
G1 X-0.92 Y-16.04 Z1.485 E499.551 F1200
G1 X3.02 Y-9.8 Z1.48 F3000
G1 X2.85 Y-9.63 Z1.484 E499.566 F1200
G1 X3.16 Y-9.37 Z1.482 F3000
G1 X3.32 Y-9.54 Z1.478 E499.581 F1200
G1 X3.63 Y-9.28 Z1.476 F3000
G1 X3.46 Y-9.11 Z1.479 E499.596 F1200
G1 X3.77 Y-8.85 Z1.477 F3000
G1 X3.94 Y-9.02 Z1.474 E499.611 F1200
G1 X4.24 Y-8.76 Z1.471 F3000
G1 X4.08 Y-8.59 Z1.475 E499.626 F1200
G1 X7.9 Y-7.21 Z1.433 F3000
G1 X11.51 Y-3.6 Z1.412 E499.947 F1200
G1 X11.44 Y-3.89 Z1.411 F3000
G1 X-8.59 Y16.14 Z1.849 E501.729 F1200
G1 X-8.67 Y16.03 Z1.85 F3000
G1 X-8.97 Y16.33 Z1.856 E501.755 F1200
G1 X-8.83 Y16.76 Z1.858 F3000
G1 X-8.44 Y16.37 Z1.849 E501.79 F1200
G1 X-8.2 Y16.7 Z1.848 F3000
G1 X-8.6 Y17.09 Z1.857 E501.825 F1200
G1 X-8.32 Y17.38 Z1.855 F3000
G1 X-7.97 Y17.03 Z1.848 E501.856 F1200
G1 X-7.74 Y17.36 Z1.847 F3000
G1 X-7.95 Y17.58 Z1.852 E501.876 F1200
G1 X-7.59 Y17.78 Z1.848 F3000
G1 X-7.44 Y17.63 Z1.845 E501.889 F1200
G1 X-7.22 Y17.98 Z1.845 F3000
G1 X-7.07 Y17.83 Z1.842 E501.901 F1200
G1 X-6.85 Y18.17 Z1.841 F3000
G1 X-6.65 Y17.98 Z1.837 E501.919 F1200
G1 X-6.66 Y17.98 Z1.837 F3000
G1 X12.23 Y-0.91 Z1.424 E503.599 F1200
G1 X14.26 Y2.72 Z1.425 F3000
G1 X14.08 Y2.9 Z1.429 E503.615 F1200
G1 X14.17 Y3.37 Z1.431 F3000
G1 X13.99 Y3.55 Z1.435 E503.631 F1200
G1 X14.09 Y4.02 Z1.438 F3000
G1 X13.91 Y4.2 Z1.442 E503.647 F1200
G1 X14 Y4.68 Z1.444 F3000
G1 X13.82 Y4.86 Z1.448 E503.663 F1200
G1 X13.74 Y6.64 Z1.464 F3000
G1 X13.56 Y6.82 Z1.468 E503.679 F1200
G1 X13.65 Y7.29 Z1.47 F3000
G1 X13.47 Y7.47 Z1.474 E503.695 F1200
G1 X13.56 Y7.94 Z1.476 F3000
G1 X13.38 Y8.12 Z1.48 E503.711 F1200
G1 X13.52 Y8.55 Z1.482 F3000
G1 X13.29 Y8.78 Z1.487 E503.731 F1200
G1 X12.54 Y10.66 Z1.512 F3000
G1 X12.33 Y10.87 Z1.517 E503.75 F1200
G1 X12.18 Y11.59 Z1.525 F3000
G1 X11.97 Y11.8 Z1.529 E503.768 F1200
G1 X10.45 Y15.02 Z1.576 F3000
G1 X9.7 Y15.77 Z1.593 E503.835 F1200
G1 X9.12 Y16.62 Z1.608 F3000
G1 X-8.11 Y-0.6 Z1.708 E505.367 F1200
G1 X-9.96 Y1.32 Z1.749 F3000
G1 X7.38 Y18.65 Z1.648 E506.909 F1200
G1 X6.06 Y19.97 Z1.677 F3000
G1 X5.78 Y20.25 Z1.683 E506.933 F1200
G1 X-4.74 Y18.33 Z1.813 F3000
G1 X-4.92 Y18.51 Z1.817 E506.949 F1200
G1 X-5.14 Y18.16 Z1.818 F3000
G1 X-5.43 Y18.45 Z1.824 E506.975 F1200
G1 X-5.64 Y18.1 Z1.824 F3000
G1 X-5.93 Y18.39 Z1.83 E507.001 F1200
G1 X-6.15 Y18.04 Z1.831 F3000
G1 X-6.44 Y18.33 Z1.837 E507.027 F1200
G1 X-8.9 Y15.7 Z1.85 F3000
G1 X-9.07 Y15.87 Z1.854 E507.042 F1200
G1 X-9.63 Y13.41 Z1.842 F3000
G1 X10.67 Y-6.89 Z1.397 E508.847 F1200
G1  E507.847 F1800
G1 X11.36 Y-11.38 Z1.352 F3000
G1 X4.46 Y-19.74 Z1.38
G1 X1.57 Y-21.13 Z1.409
G1 X-1.79 Y-21.78 Z1.45
G1 X-9.89 Y-16.58 Z1.605
G1 X-12.54 Y-14.21 Z1.66
G1 X-12.88 Y-12.56 Z1.678
G1 X-11.2 Y-7.7 Z1.694
; TYPE:SUPPORT
G1  E508.847 F1800
G1 X-19.29 Y-15.79 Z1.741 E509.567 F3600
G1 X-17.68 Y-15.79 Z1.719 F3000
G1 X-17.68 Y-17.9 Z1.702
G1 X-17.86 Y-17.9 Z1.704
G1 X-10.95 Y-10.99 Z1.664 E510.181 F3600
G1 X-11.19 Y-10.76 Z1.669 F3000
G1 X-12.88 Y-12.56 Z1.678
G1 X-12.54 Y-14.21 Z1.66
G1 X-11.52 Y-15.12 Z1.639
G1 X-11.27 Y-14.84 Z1.638
G1 X-15.37 Y-18.94 Z1.661 E510.545 F3600
G1 X-12.75 Y-19.86 Z1.618 F3000
G1 X-9.55 Y-16.66 Z1.599 E510.83 F3600
G1 X-9.57 Y-16.7 Z1.599 F3000
G1 X-9.02 Y-19.67 Z1.568
G1 X-10.14 Y-20.78 Z1.574 E510.929 F3600
G1 X-17.68 Y-12.3 Z1.747 F3000
G1 X-19.33 Y-12.3 Z1.77
G1 X-16.31 Y-9.27 Z1.752 E511.198 F3600
G1 X-16 Y-8.96 Z1.75 F3000
G1 X-15.43 Y-8.4 Z1.747 E511.248 F3600
G1  E510.248 F1800
G1 X-16.14 Y1.19 Z1.834 F3000
G1 X-15.3 Y8.8 Z1.883
G1 X-15.18 Y9.48 Z1.887
G1 X-13.16 Y18.4 Z1.931
G1 X-12.61 Y18.28 Z1.922
; TYPE:SUPPORT-INTERFACE
G1  E511.248 F1800
G1 X-12.72 Y18.38 Z1.924 E511.258 F300
G1 X-12.39 Y18.62 Z1.922 F3000
G1 X-12.61 Y18.84 Z1.927 E511.278 F300
G1 X-12.81 Y18.99 Z1.931 F3000
G1 X-13.12 Y18.55 Z1.931
G1 X-12.61 Y19.27 Z1.93
G1 X-12.15 Y18.95 Z1.921
G1 X-12.6 Y19.4 Z1.931 E511.317 F300
G1 X-12.5 Y19.86 Z1.933 F3000
G1 X-11.92 Y19.28 Z1.921 E511.369 F300
G1 X-11.69 Y19.62 Z1.92 F3000
G1 X-12.29 Y20.22 Z1.933 E511.422 F300
G1 X-11.99 Y20.49 Z1.931 F3000
G1 X-11.45 Y19.95 Z1.92 E511.47 F300
G1 X-11.22 Y20.28 Z1.919 F3000
G1 X-11.69 Y20.75 Z1.929 E511.512 F300
G1 X-11.54 Y20.81 Z1.928 F3000
G1 X-11.23 Y20.97 Z1.925
G1 X-11.08 Y20.71 Z1.92
G1 X-10.89 Y20.52 Z1.916 E511.529 F300
; Layer Change GCode
; LAYER:4
G1  E510.529 F1800
G1 X-11.22 Y19.88 Z2.316 F3000
G1 X-10.81 Y19.42 Z2.306
G1 X-5.95 Y-5.72 Z2.037
G1 X-5.47 Y-6.03 Z2.028
G1 X-5.82 Y-6.38 Z2.03
G1 X-6.1 Y-6.1 Z2.036
G1 X-5.82 Y-6.38 Z2.03
G1 X-6.2 Y-10.17 Z2.005
; TYPE:WALL-INNER
G1  E511.529 F1800
G1 X-6.32 Y-11.88 Z1.993 E511.637
G1 X-7.34 Y-12.96 Z1.998 E511.73
G1 X-6.9 Y-13.13 Z1.991 E511.759
G1 X-4.1 Y-11.99 Z1.961 E511.949
G1 X-0.63 Y-16.56 Z1.876 E512.31
G1 X-0.17 Y-17.05 Z1.866 E512.352
G1 X-0.07 Y-17.03 Z1.865 E512.358
G1 X0.82 Y-16.6 Z1.856 E512.42
G1 X1.81 Y-11.61 Z1.882 E512.74
G1 X6.46 Y-7.68 Z1.849 E513.123
G1 X8.17 Y-7.64 Z1.826 E513.231
G1 X11.1 Y-7.19 Z1.789 E513.417
G1 X11.89 Y-3.65 Z1.807 E513.645
G1 X12.4 Y-1.69 Z1.815 E513.773
G1 X14.84 Y2.6 Z1.816 E514.083
G1 X14.2 Y7.44 Z1.864 E514.39
G1 X14.04 Y9.63 Z1.883 E514.528
G1 X13.3 Y9.97 Z1.896 E514.579
G1 X11.6 Y14.36 Z1.955 E514.875
G1 X10.2 Y16.43 Z1.991 E515.032
G1 X5.97 Y20.79 Z2.085 E515.414
G1 X0.84 Y21.93 Z2.165 E515.745
G1 X-3.14 Y19.37 Z2.2 E516.042
G1 X-6.63 Y18.95 Z2.245 E516.263
G1 X-9.14 Y17.59 Z2.269 E516.442
G1 X-10.44 Y11.85 Z2.241 E516.813
G1 X-10.9 Y9.19 Z2.225 E516.982
G1 X-11.24 Y8.4 Z2.224 E517.036
G1 X-11.27 Y8.25 Z2.223 E517.046
G1 X-11.56 Y5.03 Z2.201 E517.249
G1 X-11.83 Y2.58 Z2.185 E517.404
G1 X-7.7 Y-1.71 Z2.094 E517.779
G1 X-1.7 Y-5.63 Z1.979 E518.23
G1 X-6.2 Y-10.17 Z2.005 E518.631
G1 X-6.59 Y-10 Z2.012 F3000
G1 X-6.71 Y-11.71 Z2 E518.739 F1800
G1 X-7.96 Y-13.03 Z2.006 E518.853
G1 X-7.73 Y-13.23 Z2.001 E518.872
G1 X-6.9 Y-13.56 Z1.987 E518.929
G1 X-4.23 Y-12.48 Z1.959 E519.11
G1 X-0.93 Y-16.82 Z1.878 E519.453
G1 X-0.31 Y-17.48 Z1.865 E519.51
G1 X0.06 Y-17.41 Z1.86 E519.533
G1 X1.18 Y-16.87 Z1.849 E519.611
G1 X2.18 Y-11.82 Z1.876 E519.935
G1 X6.61 Y-8.07 Z1.844 E520.3
G1 X8.21 Y-8.04 Z1.822 E520.4
G1 X11.43 Y-7.55 Z1.782 E520.605
G1 X12.28 Y-3.75 Z1.8 E520.85
G1 X12.78 Y-1.84 Z1.809 E520.974
G1 X15.26 Y2.52 Z1.809 E521.29
G1 X14.59 Y7.48 Z1.859 E521.604
G1 X14.42 Y9.89 Z1.88 E521.756
G1 X13.62 Y10.26 Z1.894 E521.812
G1 X11.95 Y14.55 Z1.952 E522.101
G1 X10.51 Y16.68 Z1.989 E522.263
G1 X6.17 Y21.15 Z2.085 E522.654
G1 X0.76 Y22.35 Z2.17 E523.003
G1 X-3.28 Y19.75 Z2.205 E523.305
G1 X-6.75 Y19.33 Z2.249 E523.525
G1 X-9.45 Y17.88 Z2.275 E523.718
G1 X-9.5 Y17.81 Z2.275 E523.724
G1 X-10.83 Y11.93 Z2.247 E524.102
G1 X-11.28 Y9.31 Z2.232 E524.27
G1 X-11.62 Y8.52 Z2.23 E524.324
G1 X-11.66 Y8.29 Z2.229 E524.339
G1 X-11.96 Y5.07 Z2.207 E524.542
G1 X-12.24 Y2.44 Z2.19 E524.708
G1 X-7.95 Y-2.03 Z2.095 E525.098
G1 X-2.33 Y-5.7 Z1.987 E525.52
G1 X-6.59 Y-10 Z2.012 E525.901
G1 X-6.97 Y-9.82 Z2.018 F3000
G1 X-7.1 Y-11.54 Z2.006 E526.009 F1800
G1 X-8.53 Y-13.05 Z2.014 E526.14
G1 X-7.94 Y-13.58 Z2.002 E526.189
G1 X-6.9 Y-13.99 Z1.984 E526.26
G1 X-4.36 Y-12.96 Z1.957 E526.432
G1 X-1.23 Y-17.08 Z1.881 E526.757
G1 X-0.45 Y-17.92 Z1.863 E526.829
G1 X0.18 Y-17.79 Z1.855 E526.869
G1 X1.53 Y-17.15 Z1.842 E526.963
G1 X2.54 Y-12.04 Z1.869 E527.291
G1 X6.76 Y-8.47 Z1.839 E527.638
G1 X8.24 Y-8.44 Z1.819 E527.731
G1 X11.76 Y-7.9 Z1.774 E527.955
G1 X12.67 Y-3.84 Z1.794 E528.217
G1 X13.15 Y-1.99 Z1.802 E528.337
G1 X15.67 Y2.44 Z1.803 E528.658
G1 X14.99 Y7.52 Z1.853 E528.98
G1 X14.8 Y10.16 Z1.877 E529.146
G1 X13.93 Y10.56 Z1.892 E529.206
G1 X12.31 Y14.73 Z1.948 E529.488
G1 X10.82 Y16.94 Z1.987 E529.655
G1 X6.38 Y21.52 Z2.085 E530.056
G1 X0.68 Y22.78 Z2.174 E530.423
G1 X-3.42 Y20.14 Z2.21 E530.73
G1 X-6.87 Y19.72 Z2.254 E530.949
G1 X-9.72 Y18.19 Z2.281 E531.152
G1 X-9.87 Y17.97 Z2.282 E531.169
G1 X-11.22 Y12.03 Z2.253 E531.552
G1 X-11.67 Y9.42 Z2.238 E531.718
G1 X-12.01 Y8.63 Z2.236 E531.772
G1 X-12.06 Y8.34 Z2.235 E531.791
G1 X-12.35 Y5.11 Z2.213 E531.995
G1 X-12.66 Y2.29 Z2.195 E532.173
G1 X-8.21 Y-2.34 Z2.096 E532.577
G1 X-2.96 Y-5.76 Z1.995 E532.972
G1 X-6.97 Y-9.82 Z2.018 E533.33
G1 X-7.36 Y-9.64 Z2.025 F3000
G1 X-7.49 Y-11.36 Z2.013 E533.439 F1800
G1 X-9.1 Y-13.08 Z2.022 E533.587
G1 X-8.16 Y-13.92 Z2.002 E533.666
G1 X-6.89 Y-14.42 Z1.98 E533.752
G1 X-4.5 Y-13.45 Z1.955 E533.914
G1 X-1.54 Y-17.34 Z1.883 E534.222
G1 X-0.6 Y-18.35 Z1.862 E534.309
G1 X0.31 Y-18.18 Z1.85 E534.367
G1 X1.88 Y-17.42 Z1.835 E534.476
G1 X2.91 Y-12.25 Z1.862 E534.807
G1 X6.91 Y-8.87 Z1.834 E535.137
G1 X8.28 Y-8.84 Z1.815 E535.223
G1 X12.09 Y-8.26 Z1.767 E535.466
G1 X13.06 Y-3.94 Z1.788 E535.744
G1 X13.52 Y-2.14 Z1.796 E535.86
G1 X16.09 Y2.36 Z1.797 E536.186
G1 X15.39 Y7.56 Z1.848 E536.516
G1 X15.18 Y10.42 Z1.874 E536.697
G1 X14.25 Y10.85 Z1.89 E536.761
G1 X12.67 Y14.92 Z1.945 E537.036
G1 X11.13 Y17.19 Z1.984 E537.208
G1 X6.58 Y21.88 Z2.085 E537.619
G1 X0.61 Y23.21 Z2.179 E538.004
G1 X-3.56 Y20.52 Z2.215 E538.315
G1 X-7 Y20.11 Z2.259 E538.533
G1 X-9.99 Y18.5 Z2.288 E538.747
G1 X-10.25 Y18.13 Z2.288 E538.775
G1 X-11.62 Y12.1 Z2.259 E539.164
G1 X-12.05 Y9.54 Z2.244 E539.328
G1 X-12.4 Y8.75 Z2.243 E539.382
G1 X-12.46 Y8.4 Z2.241 E539.404
G1 X-12.75 Y5.15 Z2.219 E539.609
G1 X-13.08 Y2.15 Z2.199 E539.799
G1 X-8.46 Y-2.65 Z2.097 E540.217
G1 X-3.58 Y-5.83 Z2.003 E540.584
G1 X-7.36 Y-9.64 Z2.025 E540.921
G1 X-7.75 Y-9.47 Z2.032 F3000
G1 X-7.88 Y-11.19 Z2.02 E541.03 F1800
G1 X-9.63 Y-13.06 Z2.029 E541.191
G1 X-9.61 Y-13.16 Z2.028 E541.198
G1 X-8.37 Y-14.27 Z2.002 E541.302
G1 X-6.89 Y-14.85 Z1.977 E541.402
G1 X-4.63 Y-13.94 Z1.953 E541.555
G1 X-1.85 Y-17.59 Z1.885 E541.844
G1 X-0.74 Y-18.78 Z1.86 E541.947
G1 X0.44 Y-18.56 Z1.846 E542.022
G1 X2.24 Y-17.69 Z1.828 E542.147
G1 X3.27 Y-12.47 Z1.855 E542.482
G1 X7.06 Y-9.26 Z1.828 E542.794
G1 X8.31 Y-9.24 Z1.811 E542.873
G1 X12.42 Y-8.61 Z1.759 E543.134
G1 X13.44 Y-4.03 Z1.782 E543.429
G1 X13.9 Y-2.3 Z1.79 E543.542
G1 X16.5 Y2.28 Z1.79 E543.873
G1 X15.79 Y7.61 Z1.843 E544.211
G1 X15.56 Y10.69 Z1.871 E544.405
G1 X14.56 Y11.15 Z1.888 E544.475
G1 X13.02 Y15.11 Z1.942 E544.742
G1 X11.44 Y17.45 Z1.982 E544.919
G1 X6.79 Y22.24 Z2.085 E545.34
G1 X0.55 Y23.63 Z2.183 E545.741
G1 X0.49 Y23.6 Z2.183 E545.745
G1 X-3.7 Y20.91 Z2.22 E546.058
G1 X-7.12 Y20.5 Z2.264 E546.275
G1 X-10.26 Y18.81 Z2.294 E546.5
G1 X-10.62 Y18.3 Z2.295 E546.539
G1 X-12.01 Y12.18 Z2.265 E546.933
G1 X-12.44 Y9.65 Z2.251 E547.094
G1 X-12.78 Y8.87 Z2.249 E547.148
G1 X-12.86 Y8.44 Z2.247 E547.176
G1 X-13.15 Y5.19 Z2.225 E547.381
G1 X-13.5 Y2.01 Z2.204 E547.582
G1 X-8.72 Y-2.96 Z2.098 E548.015
G1 X-4.21 Y-5.9 Z2.012 E548.354
G1 X-7.75 Y-9.47 Z2.032 E548.669
G1 X-8.14 Y-9.29 Z2.039 F3000
G1 X-8.27 Y-11.02 Z2.027 E548.779 F1800
G1 X-10.06 Y-12.93 Z2.036 E548.944
G1 X-9.97 Y-13.37 Z2.031 E548.972
G1 X-8.58 Y-14.61 Z2.002 E549.089
G1 X-6.89 Y-15.28 Z1.973 E549.203
G1 X-4.76 Y-14.42 Z1.951 E549.348
G1 X-2.15 Y-17.86 Z1.887 E549.619
G1 X-0.88 Y-19.22 Z1.858 E549.736
G1 X0.56 Y-18.94 Z1.841 E549.829
G1 X2.59 Y-17.97 Z1.82 E549.97
G1 X3.64 Y-12.68 Z1.848 E550.309
G1 X7.21 Y-9.66 Z1.823 E550.603
G1 X8.35 Y-9.64 Z1.808 E550.674
G1 X12.75 Y-8.96 Z1.752 E550.955
G1 X13.83 Y-4.12 Z1.776 E551.266
G1 X14.27 Y-2.45 Z1.783 E551.375
G1 X16.92 Y2.2 Z1.784 E551.712
G1 X16.19 Y7.65 Z1.838 E552.057
G1 X15.94 Y10.95 Z1.868 E552.266
G1 X14.87 Y11.44 Z1.886 E552.34
G1 X13.38 Y15.3 Z1.938 E552.599
G1 X11.75 Y17.7 Z1.98 E552.782
G1 X7 Y22.6 Z2.085 E553.211
G1 X0.51 Y24.05 Z2.187 E553.629
G1 X0.3 Y23.96 Z2.189 E553.644
G1 X-3.84 Y21.3 Z2.225 E553.953
G1 X-7.24 Y20.89 Z2.269 E554.169
G1 X-10.54 Y19.11 Z2.3 E554.404
G1 X-10.99 Y18.47 Z2.301 E554.454
G1 X-12.4 Y12.26 Z2.271 E554.854
G1 X-12.83 Y9.77 Z2.257 E555.013
G1 X-13.17 Y8.98 Z2.255 E555.067
G1 X-13.25 Y8.5 Z2.253 E555.098
G1 X-13.55 Y5.23 Z2.23 E555.304
G1 X-13.92 Y1.87 Z2.208 E555.517
G1 X-8.98 Y-3.26 Z2.099 E555.964
G1 X-4.84 Y-5.96 Z2.02 E556.275
G1 X-8.14 Y-9.29 Z2.039 E556.569
G1 X-8.52 Y-9.11 Z2.046 F3000
G1 X-8.65 Y-10.85 Z2.033 E556.679 F1800
G1 X-10.49 Y-12.81 Z2.043 E556.848
G1 X-10.34 Y-13.58 Z2.035 E556.898
G1 X-8.8 Y-14.96 Z2.002 E557.027
G1 X-6.89 Y-15.71 Z1.97 E557.156
G1 X-4.9 Y-14.91 Z1.949 E557.291
G1 X-2.46 Y-18.12 Z1.889 E557.545
G1 X-1.02 Y-19.65 Z1.857 E557.677
G1 X0.69 Y-19.33 Z1.836 E557.787
G1 X2.94 Y-18.24 Z1.813 E557.944
G1 X4 Y-12.9 Z1.842 E558.286
G1 X7.36 Y-10.06 Z1.818 E558.563
G1 X8.38 Y-10.04 Z1.804 E558.627
G1 X13.08 Y-9.32 Z1.745 E558.926
G1 X14.22 Y-4.22 Z1.77 E559.255
G1 X14.65 Y-2.6 Z1.777 E559.36
G1 X17.33 Y2.12 Z1.778 E559.701
G1 X16.58 Y7.69 Z1.833 E560.054
G1 X16.33 Y11.22 Z1.865 E560.277
G1 X15.19 Y11.74 Z1.884 E560.356
G1 X13.74 Y15.48 Z1.935 E560.608
G1 X12.07 Y17.95 Z1.978 E560.796
G1 X7.21 Y22.96 Z2.085 E561.234
G1 X7.02 Y23.01 Z2.088 E561.247
G1 X0.47 Y24.47 Z2.191 E561.669
G1 X0.11 Y24.31 Z2.194 E561.693
G1 X-3.98 Y21.68 Z2.23 E561.999
G1 X-7.37 Y21.27 Z2.274 E562.213
G1 X-10.81 Y19.42 Z2.306 E562.459
G1 X-11.36 Y18.63 Z2.308 E562.52
G1 X-12.8 Y12.33 Z2.277 E562.927
G1 X-13.21 Y9.88 Z2.263 E563.082
G1 X-13.56 Y9.09 Z2.262 E563.136
G1 X-13.65 Y8.55 Z2.258 E563.171
G1 X-13.95 Y5.27 Z2.236 E563.378
G1 X-14.33 Y1.72 Z2.213 E563.603
G1 X-9.23 Y-3.58 Z2.1 E564.065
G1 X-5.47 Y-6.03 Z2.028 E564.348
G1 X-8.52 Y-9.11 Z2.046 E564.62
G1 X-8.91 Y-8.94 Z2.052 F3000
; TYPE:WALL-OUTER
G1 X-9.04 Y-10.68 Z2.04 E564.73 F1800
G1 X-10.92 Y-12.69 Z2.05 E564.903
G1 X-10.7 Y-13.8 Z2.038 E564.974
G1 X-9.01 Y-15.31 Z2.003 E565.117
G1 X-6.89 Y-16.14 Z1.966 E565.26
G1 X-5.03 Y-15.39 Z1.947 E565.386
G1 X-2.77 Y-18.37 Z1.891 E565.622
G1 X-1.16 Y-20.09 Z1.855 E565.77
G1 X0.82 Y-19.71 Z1.831 E565.896
G1 X3.3 Y-18.52 Z1.806 E566.069
G1 X4.37 Y-13.11 Z1.835 E566.415
G1 X7.51 Y-10.46 Z1.813 E566.674
G1 X8.41 Y-10.43 Z1.8 E566.731
G1 X13.41 Y-9.67 Z1.737 E567.049
G1 X14.61 Y-4.31 Z1.764 E567.394
G1 X15.02 Y-2.75 Z1.77 E567.496
G1 X17.74 Y2.04 Z1.771 E567.842
G1 X16.98 Y7.73 Z1.827 E568.203
G1 X16.71 Y11.48 Z1.861 E568.44
G1 X15.5 Y12.04 Z1.882 E568.523
G1 X14.09 Y15.67 Z1.931 E568.768
G1 X12.38 Y18.21 Z1.975 E568.961
G1 X7.43 Y23.31 Z2.085 E569.408
G1 X7.11 Y23.4 Z2.09 E569.429
G1 X0.43 Y24.89 Z2.194 E569.859
G1 X-0.08 Y24.67 Z2.2 E569.894
G1 X-4.11 Y22.07 Z2.235 E570.196
G1 X-7.49 Y21.66 Z2.278 E570.409
G1 X-11.08 Y19.73 Z2.313 E570.666
G1 X-11.74 Y18.8 Z2.314 E570.738
G1 X-13.19 Y12.4 Z2.283 E571.15
G1 X-13.6 Y10 Z2.269 E571.303
G1 X-13.94 Y9.21 Z2.268 E571.357
G1 X-14.05 Y8.6 Z2.264 E571.396
G1 X-14.34 Y5.31 Z2.242 E571.604
G1 X-14.75 Y1.58 Z2.218 E571.84
G1 X-9.49 Y-3.89 Z2.101 E572.317
G1 X-6.1 Y-6.1 Z2.036 E572.571
G1 X-8.91 Y-8.94 Z2.052 E572.823
G1 X-8.52 Y-9.11 Z2.046 F3000
G1 X-5.87 Y-10.44 Z1.998
; TYPE:FILL
G1 X-5.7 Y-10.27 Z1.997 E572.838 F1200
G1 X-5.75 Y-10.88 Z1.993 F3000
G1 X-5.92 Y-11.06 Z1.994 E572.854 F1200
G1 X-5.79 Y-11.49 Z1.989 F3000
G1 X-5.97 Y-11.67 Z1.99 E572.869 F1200
G1 X-5.24 Y-11.51 Z1.981 F3000
G1 X-6.22 Y-12.49 Z1.987 E572.956 F1200
G1 X-5.27 Y-12.1 Z1.976 F3000
G1 X-4.29 Y-11.12 Z1.971 E573.043 F1200
G1 X-3.9 Y-11.3 Z1.964 F3000
G1 X-4.32 Y-11.72 Z1.966 E573.081 F1200
G1 X-3.83 Y-11.79 Z1.959 F3000
G1 X-3.65 Y-11.62 Z1.958 E573.096 F1200
G1 X-3.82 Y-11.4 Z1.962 F3000
G1 X13.85 Y6.27 Z1.859 E574.667 F1200
G1 X13.83 Y6.43 Z1.861 F3000
G1 X13.97 Y6.57 Z1.86 E574.68 F1200
G1 X13.76 Y6.93 Z1.866 F3000
G1 X13.9 Y7.07 Z1.865 E574.692 F1200
G1 X13.7 Y7.43 Z1.871 F3000
G1 X13.84 Y7.58 Z1.87 E574.705 F1200
G1 X13.63 Y7.93 Z1.875 F3000
G1 X13.8 Y8.11 Z1.874 E574.72 F1200
G1 X13.57 Y8.43 Z1.88 F3000
G1 X13.77 Y8.63 Z1.879 E574.738 F1200
G1 X13.53 Y8.96 Z1.885 F3000
G1 X13.73 Y9.16 Z1.884 E574.756 F1200
G1 X13.52 Y9.12 Z1.887 F3000
G1 X13.06 Y9.57 Z1.897 E574.796 F1200
G1 X13.02 Y9.59 Z1.897 F3000
G1 X13.11 Y9.68 Z1.897 E574.804 F1200
G1 X12.9 Y9.73 Z1.9 F3000
G1 X1.3 Y21.33 Z2.154 E575.835 F1200
G1 X1.18 Y21.5 Z2.157 F3000
G1 X1.06 Y21.38 Z2.158 E575.846 F1200
G1 X1.53 Y21.28 Z2.15 F3000
G1 X1.65 Y21.4 Z2.15 E575.857 F1200
G1 X1.99 Y21.18 Z2.143 F3000
G1 X2.11 Y21.3 Z2.142 E575.867 F1200
G1 X2.3 Y21.11 Z2.138 F3000
G1 X-10.95 Y7.85 Z2.215 E577.046 F1200
G1 X-11.01 Y7.25 Z2.211 F3000
G1 X4.67 Y-8.43 Z1.868 E578.441 F1200
G1 X4.32 Y-8.73 Z1.871 F3000
G1 X2.32 Y-10.73 Z1.882 E578.619 F1200
G1 X2.63 Y-10.16 Z1.883 F3000
G1 X-1.56 Y-5.97 Z1.974 E578.991 F1200
G1 X-1.52 Y-5.34 Z1.979 F3000
G1 X13.28 Y9.47 Z1.893 E580.308 F1200
G1 X13.41 Y9.41 Z1.89 F3000
G1 X13.5 Y9.5 Z1.89 E580.316 F1200
G1 X12.91 Y10.04 Z1.902 F3000
G1 X12.82 Y9.95 Z1.903 E580.324 F1200
G1 X12.66 Y10.35 Z1.908 F3000
G1 X12.75 Y10.45 Z1.908 E580.332 F1200
G1 X12.5 Y10.76 Z1.914 F3000
G1 X12.59 Y10.85 Z1.913 E580.34 F1200
G1 X12.34 Y11.17 Z1.919 F3000
G1 X12.43 Y11.26 Z1.919 E580.348 F1200
G1 X12.18 Y11.58 Z1.925 F3000
G1 X12.28 Y11.67 Z1.924 E580.357 F1200
G1 X12.03 Y11.98 Z1.93 F3000
G1 X-3.8 Y-3.85 Z2.022 E581.764 F1200
G1 X-3.45 Y-4.08 Z2.016 F3000
G1 X-11.35 Y3.82 Z2.189 E582.466 F1200
G1 X-11.36 Y3.67 Z2.188 F3000
G1 X5.35 Y20.39 Z2.09 E583.953 F1200
G1 X5.21 Y20.44 Z2.093 F3000
G1 X5.35 Y20.58 Z2.092 E583.965 F1200
G1 X5.64 Y20.31 Z2.086 F3000
G1 X5.81 Y20.47 Z2.085 E583.98 F1200
G1 X6.08 Y20.18 Z2.078 F3000
G1 X6 Y20.1 Z2.079 E583.987 F1200
G1 X6.28 Y19.81 Z2.073 F3000
G1 X6.36 Y19.89 Z2.072 E583.995 F1200
G1 X6.64 Y19.61 Z2.066 F3000
G1 X6.56 Y19.52 Z2.067 E584.002 F1200
G1 X6.83 Y19.23 Z2.06 F3000
G1 X6.92 Y19.32 Z2.06 E584.01 F1200
G1 X7.2 Y19.03 Z2.054 F3000
G1 X7.11 Y18.95 Z2.054 E584.018 F1200
G1 X7.39 Y18.66 Z2.048 F3000
G1 X7.48 Y18.75 Z2.048 E584.025 F1200
G1 X7.39 Y18.66 Z2.048 F3000
G1 X-10.05 Y1.22 Z2.15 E585.576 F1200
G1 X-8.2 Y-0.7 Z2.109 F3000
G1 X9.25 Y16.75 Z2.007 E587.127 F1200
G1 X9.34 Y16.65 Z2.005 F3000
G1 X9.43 Y16.74 Z2.004 E587.135 F1200
G1 X9.15 Y17.02 Z2.011 F3000
G1 X9.06 Y16.94 Z2.011 E587.142 F1200
G1 X8.78 Y17.23 Z2.017 F3000
G1 X8.87 Y17.31 Z2.017 E587.15 F1200
G1 X8.59 Y17.6 Z2.023 F3000
G1 X8.51 Y17.51 Z2.023 E587.157 F1200
G1 X8.23 Y17.8 Z2.03 F3000
G1 X8.31 Y17.88 Z2.029 E587.165 F1200
G1 X8.03 Y18.17 Z2.035 F3000
G1 X7.95 Y18.09 Z2.036 E587.172 F1200
G1 X7.67 Y18.37 Z2.042 F3000
G1 X7.75 Y18.46 Z2.041 E587.18 F1200
G1 X9.7 Y16.45 Z1.998 F3000
G1 X9.6 Y16.34 Z1.999 E587.189 F1200
G1 X9.83 Y16.01 Z1.993 F3000
G1 X9.97 Y16.15 Z1.992 E587.202 F1200
G1 X10.2 Y15.82 Z1.986 F3000
G1 X10.06 Y15.67 Z1.987 E587.215 F1200
G1 X10.28 Y15.33 Z1.981 F3000
G1 X10.43 Y15.48 Z1.98 E587.228 F1200
G1 X10.66 Y15.14 Z1.975 F3000
G1 X10.51 Y15 Z1.975 E587.241 F1200
G1 X10.74 Y14.66 Z1.97 F3000
G1 X10.89 Y14.8 Z1.969 E587.254 F1200
G1 X10.82 Y14.54 Z1.968 F3000
G1 X-6.08 Y-2.36 Z2.066 E588.757 F1200
G1 X-3.43 Y-7.86 Z1.985 F3000
G1 X1.27 Y-12.57 Z1.882 E589.176 F1200
G1 X0.96 Y-14.17 Z1.874 F3000
G1 X-0.56 Y-15.68 Z1.882 E589.311 F1200
G1 X-0.48 Y-15.79 Z1.88 F3000
G1 X-0.65 Y-15.97 Z1.881 E589.326 F1200
G1 X-0.89 Y-15.64 Z1.887 F3000
G1 X-0.72 Y-15.47 Z1.886 E589.341 F1200
G1 X-0.97 Y-15.15 Z1.892 F3000
G1 X-1.14 Y-15.32 Z1.893 E589.356 F1200
G1 X-1.38 Y-15 Z1.899 F3000
G1 X-1.21 Y-14.83 Z1.898 E589.372 F1200
G1 X-1.46 Y-14.51 Z1.904 F3000
G1 X-1.63 Y-14.68 Z1.905 E589.387 F1200
G1 X-1.87 Y-14.36 Z1.911 F3000
G1 X-1.7 Y-14.19 Z1.91 E589.402 F1200
G1 X-1.94 Y-13.87 Z1.916 F3000
G1 X-2.12 Y-14.04 Z1.917 E589.417 F1200
G1 X-2.36 Y-13.72 Z1.923 F3000
G1 X-2.19 Y-13.54 Z1.922 E589.433 F1200
G1 X-2.19 Y-13.54 Z1.922 F3000
G1 X14.3 Y2.94 Z1.826 E590.899 F1200
G1 X14.3 Y2.94 Z1.826 F3000
G1 X14.44 Y3.08 Z1.825 E590.911 F1200
G1 X14.23 Y3.44 Z1.831 F3000
G1 X14.37 Y3.58 Z1.83 E590.923 F1200
G1 X14.16 Y3.94 Z1.836 F3000
G1 X14.3 Y4.08 Z1.835 E590.935 F1200
G1 X14.1 Y4.44 Z1.841 F3000
G1 X14.24 Y4.58 Z1.84 E590.947 F1200
G1 X14.05 Y4.81 Z1.845 F3000
G1 X-1.29 Y20.15 Z2.18 E592.311 F1200
G1 X-3.61 Y18.97 Z2.203 F3000
G1 X-9.91 Y12.67 Z2.24 E592.872 F1200
G1 X-9.72 Y13.5 Z2.244 F3000
G1 X10.49 Y-6.7 Z1.802 E594.668 F1200
G1 X10.27 Y-6.75 Z1.804 F3000
G1 X9.99 Y-7.02 Z1.806 E594.693 F1200
G1 X9.57 Y-6.87 Z1.813 F3000
G1 X9.33 Y-7.12 Z1.814 E594.714 F1200
G1 X8.88 Y-7 Z1.821 F3000
G1 X8.66 Y-7.22 Z1.823 E594.734 F1200
G1 X8.18 Y-7.13 Z1.83 F3000
G1 X8.01 Y-7.3 Z1.831 E594.749 F1200
G1 X7.95 Y-7.18 Z1.833 F3000
G1 X11.56 Y-3.56 Z1.812 E595.07 F1200
G1 X11.48 Y-3.93 Z1.81 F3000
G1 X-8.89 Y16.44 Z2.256 E596.881 F1200
G1 X-9.07 Y16.34 Z2.258 F3000
G1 X-8.69 Y16.72 Z2.255 E596.915 F1200
G1 X-8.91 Y17.06 Z2.261 F3000
G1 X-8.33 Y17.64 Z2.258 E596.967 F1200
G1 X-7.59 Y17.82 Z2.249 F3000
G1 X-7.11 Y18.3 Z2.246 E597.01 F1200
G1 X-6.88 Y18.2 Z2.242 F3000
G1 X12.37 Y-1.05 Z1.821 E598.721 F1200
G1 X13.74 Y1.35 Z1.821 F3000
G1 X-3.84 Y18.94 Z2.206 E600.285 F1200
G1 X-4.26 Y18.89 Z2.211 F3000
G1 X-4.63 Y18.52 Z2.213 E600.318 F1200
G1 X-4.9 Y18.81 Z2.22 F3000
G1 X-5.27 Y18.44 Z2.222 E600.351 F1200
G1 X-5.54 Y18.73 Z2.228 F3000
G1 X-5.91 Y18.36 Z2.23 E600.384 F1200
G1 X-6.19 Y18.65 Z2.236 F3000
G1 X-6.56 Y18.28 Z2.238 E600.417 F1200
G1 X-10.35 Y10.36 Z2.227 F3000
G1 X7.21 Y-7.2 Z1.843 E601.978 F1200
G1 X6.98 Y-7.21 Z1.846 F3000
G1 X6.86 Y-7.33 Z1.847 E601.989 F1200
G1 X6.4 Y-7.22 Z1.854 F3000
G1 X5.97 Y-7.65 Z1.857 E602.027 F1200
G1 X7.43 Y-7.31 Z1.839 F3000
G1 X7.56 Y-7.19 Z1.838 E602.038 F1200
G1 X10.66 Y-6.91 Z1.797 F3000
G1 X10.85 Y-6.72 Z1.796 E602.055 F1200
G1 X10.84 Y-6.17 Z1.801 F3000
G1 X11.02 Y-6 Z1.8 E602.071 F1200
G1 X14.03 Y4.94 Z1.846 F3000
G1 X14.17 Y5.08 Z1.845 E602.083 F1200
G1 X13.96 Y5.44 Z1.851 F3000
G1 X14.1 Y5.57 Z1.85 E602.095 F1200
G1 X13.9 Y5.94 Z1.856 F3000
G1 X14.03 Y6.07 Z1.855 E602.107 F1200
G1 X12.03 Y11.98 Z1.93 F3000
G1 X12.12 Y12.07 Z1.93 E602.115 F1200
G1 X11.87 Y12.39 Z1.936 F3000
G1 X11.96 Y12.48 Z1.935 E602.124 F1200
G1 X11.71 Y12.8 Z1.941 F3000
G1 X11.8 Y12.89 Z1.941 E602.132 F1200
G1 X11.55 Y13.2 Z1.947 F3000
G1 X11.64 Y13.3 Z1.946 E602.14 F1200
G1 X11.39 Y13.61 Z1.952 F3000
G1 X11.48 Y13.7 Z1.952 E602.148 F1200
G1 X11.2 Y13.98 Z1.958 F3000
G1 X11.33 Y14.11 Z1.957 E602.16 F1200
G1 X11.11 Y14.46 Z1.963 F3000
G1 X10.97 Y14.32 Z1.964 E602.172 F1200
G1 X4.77 Y20.56 Z2.1 F3000
G1 X4.89 Y20.68 Z2.099 E602.183 F1200
G1 X4.42 Y20.78 Z2.106 F3000
G1 X4.3 Y20.66 Z2.107 E602.194 F1200
G1 X3.96 Y20.89 Z2.114 F3000
G1 X3.84 Y20.77 Z2.114 E602.204 F1200
G1 X3.5 Y20.99 Z2.121 F3000
G1 X3.38 Y20.87 Z2.121 E602.215 F1200
G1 X3.03 Y21.09 Z2.128 F3000
G1 X2.91 Y20.97 Z2.129 E602.225 F1200
G1 X2.57 Y21.19 Z2.135 F3000
G1 X2.45 Y21.07 Z2.136 E602.236 F1200
G1  E601.236 F1800
G1 X-5.31 Y-9.76 Z1.996 F3000
G1  E602.236 F1800
G1 X0.65 Y-15.72 Z1.865 E602.766 F1200
G1 X0.01 Y-16.44 Z1.868 F3000
G1 X-0.14 Y-16.58 Z1.869 E602.779 F1200
G1 X-0.41 Y-16.29 Z1.875 F3000
G1 X-0.23 Y-16.12 Z1.874 E602.794 F1200
G1 X-2.6 Y-13.39 Z1.929 F3000
G1 X-2.43 Y-13.22 Z1.928 E602.81 F1200
G1 X-2.68 Y-12.9 Z1.934 F3000
G1 X-2.85 Y-13.07 Z1.935 E602.825 F1200
G1 X-3.09 Y-12.75 Z1.941 F3000
G1 X-2.92 Y-12.58 Z1.94 E602.84 F1200
G1 X-3.17 Y-12.26 Z1.946 F3000
G1 X-3.34 Y-12.43 Z1.947 E602.855 F1200
G1 X-3.58 Y-12.11 Z1.953 F3000
G1 X-3.41 Y-11.94 Z1.952 E602.871 F1200
G1  E601.871 F1800
G1 X-5.5 Y-17.09 Z1.94 F3000
G1 X-6.88 Y-17.65 Z1.954
G1 X-9.76 Y-16.52 Z2.003
G1 X-11.98 Y-14.53 Z2.05
G1 X-12.44 Y-12.26 Z2.075
G1 X-11.11 Y-10.84 Z2.068
G1 X-10.94 Y-10.99 Z2.064
; TYPE:SUPPORT
G1  E602.871 F1800
G1 X-17.85 Y-17.9 Z2.104 E603.485 F3600
G1 X-17.76 Y-17.9 Z2.103 F3000
G1 X-17.76 Y-15.8 Z2.12
G1 X-19.29 Y-15.8 Z2.141
G1 X-11.2 Y-7.71 Z2.094 E604.204 F3600
G1 X-15.43 Y-8.4 Z2.147 F3000
G1 X-15.99 Y-8.97 Z2.15 E604.254 F3600
G1 X-16.3 Y-9.28 Z2.152 F3000
G1 X-19.33 Y-12.3 Z2.17 E604.524 F3600
G1 X-17.76 Y-12.3 Z2.148 F3000
G1 X-15.36 Y-18.94 Z2.061
G1 X-11.18 Y-14.76 Z2.037 E604.895 F3600
G1 X-11.42 Y-15.03 Z2.038 F3000
G1 X-9.76 Y-16.52 Z2.003
G1 X-9.55 Y-16.66 Z1.999
G1 X-12.75 Y-19.86 Z2.018 E605.18 F3600
G1 X-10.14 Y-20.78 Z1.974 F3000
